; generated by PrusaSlicer 2.4.2 on 2023-12-11 at 16:30:57 UTC


;
;

;
;
; 

; external perimeters extrusion width = 0.45mm
; perimeters extrusion width = 0.45mm
; infill extrusion width = 0.45mm
; solid infill extrusion width = 0.45mm
; top infill extrusion width = 0.40mm
; support material extrusion width = 0.35mm
; first layer extrusion width = 0.42mm

M73 P0 R52
M201 X2500 Y2500 Z400 E5000 ; sets maximum accelerations, mm/sec^2
M203 X180 Y180 Z12 E80 ; sets maximum feedrates, mm / sec
M204 P1250 R1250 T2500 ; sets acceleration (P, T) and retract acceleration (R), mm/sec^2
M205 X8.00 Y8.00 Z2.00 E10.00 ; sets the jerk limits, mm/sec
M205 S0 T0 ; sets the minimum extruding and travel feed rate, mm/sec
M107
;TYPE:Custom
M862.3 P "MINI" ; printer model check
G90 ; use absolute coordinates
M83 ; extruder relative mode
M104 S170 ; set extruder temp for bed leveling
M140 S60 ; set bed temp
M109 R170 ; wait for bed leveling temp
M190 S60 ; wait for bed temp
M204 T1250 ; set travel acceleration
G28 ; home all without mesh bed level
G29 ; mesh bed leveling 
M204 T2500 ; restore travel acceleration
M104 S215 ; set extruder temp
G92 E0
G1 Y-2 X179 F2400
G1 Z3 F720
M109 S215 ; wait for extruder temp

; intro line
G1 X170 F1000
G1 Z0.2 F720
G1 X110 E8 F900
G1 X40 E10 F700
G92 E0

M221 S95 ; set flow
G21 ; set units to millimeters
G90 ; use absolute coordinates
M83 ; use relative distances for extrusion
M900 K0.2 ; Filament gcode LA 1.5
; ; Filament gcode LA 1.0
M107
;LAYER_CHANGE
;Z:0.2
;HEIGHT:0.2
;BEFORE_LAYER_CHANGE
G92 E0.0
;0.2


G1 E-3.2 F4200
G1 Z.2 F720
;AFTER_LAYER_CHANGE
;0.2
G1 Z.4
G1 X20.438 Y49.37 F9000
G1 Z.2 F720
G1 E3.2 F2400
M204 P800
;TYPE:Skirt/Brim
;WIDTH:0.42
G1 F1200
G1 X21.607 Y48.925 E.03922
G1 X22.421 Y48.745 E.02612
G1 X23.564 Y48.651 E.03598
G1 X164.068 Y48.654 E4.40539
G1 X165.312 Y48.781 E.03922
G1 X166.903 Y49.282 E.05228
G1 X168.165 Y50.011 E.04569
G1 X169.111 Y50.828 E.03922
G1 X169.901 Y51.798 E.03922
G1 X170.671 Y53.277 E.05228
G1 X171.012 Y54.48 E.03922
G1 X171.139 Y55.725 E.03922
G1 X171.139 Y141.132 E2.67789
G1 X170.922 Y142.785 E.05228
G1 X170.671 Y143.58 E.02612
G1 X170.23 Y144.526 E.03273
G1 X169.782 Y145.229 E.02612
G1 X169.111 Y146.028 E.03273
G1 X167.995 Y146.965 E.04569
G1 X166.903 Y147.575 E.03922
G1 X165.922 Y147.932 E.03274
G1 X165.108 Y148.112 E.02612
G1 X163.964 Y148.205 E.03598
G1 X23.564 Y148.205 E4.40214
G1 X22.836 Y148.167 E.02288
M73 P1 R52
G1 X21.808 Y147.986 E.03274
G1 X21.013 Y147.735 E.02612
G1 X20.067 Y147.294 E.03274
G1 X18.873 Y146.458 E.04569
G1 X18.135 Y145.72 E.03273
G1 X17.628 Y145.059 E.02612
G1 X17.106 Y144.155 E.03273
G1 X16.661 Y142.986 E.03922
G1 X16.481 Y142.172 E.02612
G1 X16.387 Y141.028 E.03598
G1 X16.387 Y55.828 E2.67139
G1 X16.426 Y55.1 E.02288
M73 P1 R51
G1 X16.607 Y54.072 E.03274
G1 X16.858 Y53.277 E.02612
G1 X17.299 Y52.331 E.03274
G1 X18.135 Y51.137 E.04569
G1 X18.873 Y50.399 E.03273
G1 X19.534 Y49.892 E.02612
G1 X20.386 Y49.4 E.03086
M204 P1000
; printing object christmas_deer id:0 copy 0
G1 E-2.24 F4200
;WIPE_START
G1 F7200
G1 X21.607 Y48.925 E-.72598
G1 X21.935 Y48.852 E-.18602
;WIPE_END
G1 E-.048 F4200
G1 Z.4 F720
G1 X97.653 Y87.513 F9000
G1 Z.2 F720
G1 E3.2 F2400
M204 P800
;TYPE:Perimeter
G1 F1200
G1 X96.342 Y91.114 E.12017
G1 X98.949 Y92.063 E.08698
G1 X98.958 Y92.037 E.00086
G1 X98.704 Y93.167 E.0363
G1 X98.583 Y93.826 E.021
G1 X98.551 Y94.502 E.02122
G1 X98.239 Y94.761 E.01271
G1 X98.116 Y94.914 E.00618
G1 X97.694 Y95.346 E.01893
G1 X97.402 Y95.582 E.01177
G1 X97.402 Y91.858 E.11675
G1 X94.627 Y91.858 E.08698
G1 X94.627 Y95.587 E.1169
G1 X94.189 Y95.187 E.01861
G1 X94.064 Y95.033 E.00621
G1 X93.81 Y94.628 E.01499
G1 X93.439 Y93.86 E.02674
G1 X93.178 Y93.399 E.01661
G1 X93.073 Y92.972 E.01378
G1 X93.113 Y92.529 E.01394
G1 X93.045 Y91.967 E.01775
G1 X93.08 Y92.063 E.0032
G1 X95.687 Y91.114 E.08698
G1 X94.376 Y87.513 E.12017
G1 X94.977 Y87.449 E.01897
G1 X95.425 Y87.433 E.01405
G1 X97.059 Y87.449 E.05122
G1 X97.594 Y87.504 E.01686
M204 P1000
G1 E-2.24 F4200
;WIPE_START
G1 F7200
G1 X97.055 Y89.059 E-.912
;WIPE_END
G1 E-.048 F4200
G1 Z.4 F720
G1 X103.614 Y86.487 F9000
G1 Z.2 F720
G1 E3.2 F2400
M204 P800
G1 F1200
G1 X103.458 Y86.922 E.01449
G1 X103.186 Y87.458 E.01886
G1 X103.045 Y87.689 E.00848
G1 X102.737 Y88.113 E.01645
G1 X102.447 Y88.42 E.01323
G1 X102.176 Y88.63 E.01074
G1 X101.903 Y88.782 E.0098
G1 X100.977 Y89.172 E.03149
G1 X100.539 Y89.412 E.01568
G1 X100.295 Y89.583 E.00933
G1 X99.878 Y89.972 E.01789
G1 X99.539 Y90.443 E.0182
G1 X100.438 Y87.974 E.08239
G1 X100.907 Y87.994 E.01475
G1 X101.316 Y87.938 E.01291
G1 X101.59 Y87.852 E.00904
G1 X101.84 Y87.735 E.00864
G1 X102.153 Y87.537 E.01163
G1 X103.158 Y86.77 E.03962
G1 X103.56 Y86.514 E.01496
M204 P1000
G1 E-2.24 F4200
;WIPE_START
G1 F7200
G1 X103.458 Y86.922 E-.23285
G1 X103.186 Y87.458 E-.33343
G1 X103.045 Y87.689 E-.14989
G1 X102.837 Y87.975 E-.19583
;WIPE_END
G1 E-.048 F4200
G1 Z.4 F720
G1 X88.413 Y86.483 F9000
G1 Z.2 F720
G1 E3.2 F2400
M204 P800
G1 F1200
G1 X89.048 Y86.898 E.02379
G1 X89.979 Y87.609 E.03673
G1 X90.406 Y87.841 E.01522
G1 X90.788 Y87.955 E.01251
G1 X91.186 Y87.996 E.01253
G1 X91.591 Y87.973 E.01272
G1 X92.499 Y90.468 E.08327
G1 X92.409 Y90.312 E.00565
G1 X92.066 Y89.883 E.01722
G1 X91.852 Y89.68 E.00926
G1 X91.537 Y89.442 E.01236
G1 X91.111 Y89.2 E.01537
G1 X90.382 Y88.894 E.02478
G1 X89.939 Y88.684 E.01538
G1 X89.57 Y88.41 E.01441
G1 X89.288 Y88.109 E.01293
G1 X88.997 Y87.71 E.01549
G1 X88.864 Y87.494 E.00796
G1 X88.601 Y86.989 E.01783
G1 X88.431 Y86.54 E.01505
M204 P1000
G1 E-2.24 F4200
;WIPE_START
G1 F7200
G1 X89.048 Y86.898 E-.39521
G1 X89.789 Y87.464 E-.51679
;WIPE_END
G1 E-.048 F4200
G1 Z.4 F720
G1 X60.853 Y102.181 F9000
G1 Z.2 F720
G1 E3.2 F2400
M204 P800
G1 F1200
G1 X60.45 Y100.076 E.06721
G1 X60.089 Y98.514 E.05028
G1 X59.807 Y97.524 E.03226
G1 X59.647 Y97.038 E.01604
G1 X59.294 Y96.131 E.03052
G1 X58.879 Y95.285 E.02956
G1 X58.399 Y94.52 E.02831
G1 X58.123 Y94.158 E.01428
G1 X57.833 Y93.824 E.01386
G1 X57.524 Y93.513 E.01373
G1 X57.197 Y93.227 E.01363
G1 X56.853 Y92.965 E.01355
G1 X56.494 Y92.729 E.0135
G1 X56.113 Y92.512 E.01373
G1 X55.342 Y92.163 E.02655
G1 X54.534 Y91.894 E.02668
G1 X54.109 Y91.782 E.0138
G1 X53.28 Y91.606 E.02658
G1 X50.143 Y91.116 E.09954
G1 X49.489 Y90.97 E.02099
G1 X48.912 Y90.793 E.01893
G1 X48.672 Y90.697 E.00812
G1 X48.456 Y90.594 E.00749
G1 X48.177 Y90.426 E.01022
G1 X47.876 Y90.17 E.01239
G1 X47.692 Y89.927 E.00956
G1 X47.576 Y89.67 E.00885
G1 X47.516 Y89.352 E.01014
G1 X47.526 Y89.007 E.01083
G1 X47.554 Y88.853 E.00491
G1 X47.637 Y88.582 E.00886
G1 X47.818 Y88.207 E.01308
G1 X48.071 Y87.843 E.01388
G1 X48.404 Y87.488 E.01526
G1 X48.58 Y87.334 E.00735
G1 X49.018 Y87.014 E.01701
G1 X49.506 Y86.729 E.01773
G1 X50.356 Y86.343 E.02926
G1 X50.965 Y86.121 E.02033
G1 X51.608 Y85.918 E.02115
G1 X54.343 Y85.165 E.08892
G1 X55.682 Y84.757 E.0439
G1 X56.336 Y84.535 E.02167
G1 X57.571 Y84.069 E.04137
G1 X60.338 Y82.927 E.09387
G1 X61.349 Y82.564 E.03367
G1 X62.338 Y82.281 E.03225
G1 X62.817 Y82.175 E.01538
G1 X63.423 Y82.076 E.01927
G1 X63.423 Y87.971 E.18481
G1 X66.197 Y87.971 E.08698
G1 X66.197 Y82.142 E.18276
G1 X66.404 Y82.215 E.00686
G1 X66.716 Y82.367 E.01089
G1 X67.014 Y82.556 E.01109
G1 X67.303 Y82.785 E.01153
G1 X67.58 Y83.053 E.0121
G1 X67.852 Y83.367 E.01304
G1 X68.115 Y83.723 E.01388
G1 X68.37 Y84.123 E.01486
G1 X68.614 Y84.559 E.01569
G1 X69.096 Y85.569 E.03506
G1 X69.582 Y86.722 E.03922
G1 X69.745 Y87.059 E.01176
G1 X70.156 Y87.712 E.02419
G1 X70.173 Y87.711 E.00054
G1 X70.278 Y88.434 E.02289
G1 X70.387 Y88.838 E.01314
G1 X70.52 Y89.215 E.01251
G1 X70.947 Y90.263 E.0355
G1 X71.421 Y91.306 E.0359
G1 X71.954 Y92.338 E.03643
G1 X72.558 Y93.34 E.0367
G1 X73.239 Y94.294 E.03672
G1 X73.617 Y94.757 E.01876
G1 X74.015 Y95.199 E.01863
G1 X74.434 Y95.623 E.01871
G1 X74.876 Y96.028 E.01881
G1 X75.341 Y96.413 E.01892
G1 X75.827 Y96.777 E.01905
G1 X76.335 Y97.12 E.0192
G1 X76.863 Y97.44 E.01937
G1 X77.411 Y97.738 E.01956
G1 X77.978 Y98.014 E.01976
G1 X78.563 Y98.267 E.01998
G1 X79.169 Y98.501 E.02038
G1 X80.412 Y98.899 E.04093
G1 X81.716 Y99.219 E.04208
G1 X83.062 Y99.464 E.0429
G1 X83.767 Y99.562 E.02234
G1 X84.817 Y99.638 E.03301
G1 X85.216 Y99.223 E.01804
G1 X85.305 Y99.49 E.00883
G1 X86.019 Y99.71 E.02344
G1 X86.436 Y99.776 E.01324
G1 X86.831 Y99.809 E.01243
G1 X87.938 Y99.843 E.03471
G1 X89.042 Y99.85 E.03464
G1 X91.245 Y99.809 E.06908
G1 X94.516 Y99.656 E.10266
G1 X98.761 Y99.399 E.13334
G1 X102.078 Y99.239 E.10413
G1 X102.545 Y99.176 E.01479
G1 X103.325 Y98.973 E.02524
G1 X103.421 Y98.691 E.00933
G1 X103.888 Y99.166 E.02087
G1 X104.59 Y99.2 E.02203
G1 X105.781 Y99.212 E.03736
G1 X108.113 Y99.313 E.07318
G1 X109.644 Y99.442 E.04818
G1 X111.164 Y99.628 E.04799
G1 X112.666 Y99.874 E.04775
G1 X114.149 Y100.184 E.04749
G1 X115.605 Y100.561 E.04716
G1 X117.027 Y101.008 E.04673
G1 X118.406 Y101.524 E.04618
G1 X119.737 Y102.11 E.04559
G1 X120.369 Y102.422 E.02211
G1 X121.599 Y103.103 E.04408
G1 X122.743 Y103.836 E.04259
G1 X123.792 Y104.611 E.0409
G1 X124.741 Y105.422 E.03912
G1 X125.87 Y106.468 E.04828
G1 X126.271 Y106.409 E.01271
G1 X126.194 Y106.563 E.00541
G1 X126.421 Y107.171 E.02034
G1 X127.078 Y108.336 E.04193
G1 X127.286 Y108.849 E.01736
G1 X127.349 Y109.108 E.00835
G1 X127.352 Y109.355 E.00775
G1 X127.287 Y109.416 E.0028
G1 X127.138 Y109.455 E.00483
G1 X126.874 Y109.474 E.0083
G1 X126.508 Y109.453 E.01148
G1 X126.048 Y109.381 E.0146
G1 X125.498 Y109.254 E.01771
G1 X124.206 Y108.896 E.04203
G1 X124.185 Y110.407 E.04738
G1 X124.129 Y111.348 E.02955
G1 X124.019 Y112.242 E.02823
G1 X123.854 Y113.092 E.02717
G1 X123.635 Y113.901 E.02627
G1 X123.363 Y114.669 E.02553
G1 X123.04 Y115.396 E.02496
G1 X122.666 Y116.085 E.02456
G1 X122.243 Y116.734 E.02431
G1 X121.772 Y117.345 E.02419
G1 X121.256 Y117.918 E.02417
G1 X120.698 Y118.452 E.02421
G1 X120.102 Y118.945 E.02425
G1 X119.474 Y119.396 E.02425
G1 X118.639 Y119.897 E.03054
G1 X116.359 Y111.386 E.27625
G1 X113.679 Y112.104 E.08698
G1 X116.053 Y120.964 E.28758
G1 X115.652 Y121.074 E.01305
G1 X114.931 Y121.222 E.02307
G1 X113.849 Y121.353 E.03419
G1 X113.144 Y121.381 E.0221
G1 X112.432 Y121.369 E.02232
G1 X111.709 Y121.322 E.02274
G1 X110.963 Y121.247 E.02349
G1 X108.017 Y120.876 E.09311
G1 X105.999 Y120.693 E.06353
G1 X104.869 Y120.634 E.03548
G1 X103.661 Y120.603 E.03788
G1 X102.373 Y120.604 E.0404
G1 X101.005 Y120.638 E.0429
G1 X98.821 Y120.745 E.06855
G1 X95.702 Y120.981 E.09806
G1 X87.46 Y121.769 E.25963
G1 X85.052 Y121.969 E.07576
G1 X83.507 Y122.072 E.04852
G1 X82.026 Y122.142 E.04649
G1 X79.629 Y122.167 E.07518
G1 X81.842 Y113.906 E.26813
G1 X79.163 Y113.189 E.08698
G1 X76.804 Y121.991 E.28573
G1 X75.881 Y121.861 E.02922
G1 X75.157 Y121.722 E.02311
G1 X74.474 Y121.559 E.02202
G1 X73.829 Y121.371 E.02107
G1 X73.218 Y121.159 E.02028
G1 X72.637 Y120.923 E.01965
G1 X72.082 Y120.664 E.0192
G1 X71.549 Y120.383 E.01891
G1 X71.033 Y120.079 E.01877
G1 X70.536 Y119.755 E.0186
G1 X69.557 Y119.032 E.03816
G1 X68.609 Y118.226 E.03903
G1 X67.676 Y117.335 E.04044
G1 X66.761 Y116.358 E.04198
G1 X65.87 Y115.29 E.0436
G1 X65.014 Y114.118 E.04548
G1 X64.609 Y113.5 E.02319
G1 X64.217 Y112.849 E.02382
G1 X63.841 Y112.17 E.02433
G1 X63.483 Y111.463 E.02486
G1 X63.145 Y110.726 E.02542
G1 X62.829 Y109.962 E.02593
G1 X62.068 Y107.868 E.06986
G1 X61.664 Y107.059 E.02836
G1 X61.657 Y106.371 E.02156
G1 X61.601 Y105.943 E.01355
G1 X61.29 Y104.463 E.04739
G1 X60.864 Y102.24 E.07097
M204 P1000
G1 E-2.24 F4200
;WIPE_START
G1 F7200
G1 X60.555 Y100.624 E-.912
;WIPE_END
G1 E-.048 F4200
G1 Z.4 F720
G1 X50.003 Y103.903 F9000
G1 Z.2 F720
G1 E3.2 F2400
M204 P800
G1 F1200
G1 X47.249 Y104.241 E.08698
G1 X48.369 Y113.362 E.28812
G1 X47.633 Y113.595 E.0242
G1 X46.496 Y113.825 E.0364
G1 X45.394 Y114.092 E.03553
G1 X44.762 Y113.873 E.021
G1 X43.254 Y113.493 E.04874
G1 X42.877 Y113.362 E.0125
G1 X43.997 Y104.241 E.28813
G1 X41.244 Y103.903 E.08698
G1 X40.421 Y110.613 E.21197
G1 X40.366 Y111.138 E.01655
G1 X40.36 Y111.48 E.0107
G1 X39.996 Y110.773 E.02492
G1 X39.816 Y110.323 E.0152
G1 X39.668 Y109.843 E.01575
G1 X39.553 Y109.333 E.01639
G1 X39.47 Y108.796 E.01703
G1 X39.421 Y108.235 E.01766
G1 X39.404 Y107.654 E.01822
G1 X39.418 Y107.058 E.01871
G1 X39.464 Y106.451 E.01906
G1 X39.672 Y104.809 E.05191
G1 X39.649 Y104.151 E.02064
G1 X40.024 Y103.512 E.02323
G1 X40.67 Y101.959 E.05274
G1 X40.934 Y101.417 E.01891
G1 X41.218 Y100.904 E.01838
G1 X41.518 Y100.425 E.01771
G1 X41.833 Y99.982 E.01703
G1 X42.161 Y99.577 E.01636
G1 X42.502 Y99.209 E.01573
G1 X42.855 Y98.879 E.01515
G1 X43.218 Y98.585 E.01465
G1 X43.593 Y98.328 E.01425
G1 X43.978 Y98.106 E.01395
G1 X44.236 Y97.984 E.00895
G1 X44.236 Y106.664 E.27217
G1 X47.01 Y106.664 E.08698
G1 X47.01 Y97.985 E.27214
G1 X47.617 Y98.305 E.02151
M73 P2 R51
G1 X48.104 Y98.642 E.01856
G1 X48.572 Y99.041 E.01928
G1 X49.02 Y99.503 E.02019
G1 X49.448 Y100.028 E.02125
G1 X49.853 Y100.616 E.02238
G1 X50.232 Y101.264 E.02353
G1 X50.58 Y101.967 E.02461
G1 X51.038 Y103.106 E.03849
G1 X51.406 Y104.328 E.04002
G1 X51.597 Y105.179 E.02733
G1 X51.844 Y106.517 E.04266
G1 X52.066 Y107.281 E.02496
G1 X51.892 Y108.016 E.02368
G1 X51.712 Y109.236 E.03866
G1 X51.643 Y109.582 E.01106
G1 X51.451 Y110.265 E.02225
G1 X51.338 Y110.571 E.01023
G1 X51.206 Y110.87 E.01025
G1 X50.887 Y111.49 E.02186
G1 X50.881 Y111.138 E.01103
G1 X50.826 Y110.613 E.01656
G1 X50.01 Y103.963 E.21009
M204 P1000
G1 E-2.24 F4200
;WIPE_START
G1 F7200
G1 X48.373 Y104.128 E-.912
;WIPE_END
G1 E-.048 F4200
G1 Z.4 F720
G1 X43.922 Y133.973 F9000
G1 Z.2 F720
G1 E3.2 F2400
M204 P800
G1 F1200
G1 X43.246 Y133.661 E.02333
G1 X41.573 Y133.179 E.05458
G1 X41.002 Y132.984 E.01892
G1 X40.468 Y132.771 E.01803
G1 X39.973 Y132.543 E.0171
G1 X39.516 Y132.3 E.01621
G1 X39.098 Y132.044 E.01537
G1 X38.717 Y131.776 E.0146
G1 X38.372 Y131.498 E.0139
G1 X38.061 Y131.209 E.01329
G1 X37.784 Y130.912 E.01276
G1 X37.537 Y130.606 E.01232
G1 X37.319 Y130.293 E.01196
G1 X37.128 Y129.973 E.01168
G1 X36.964 Y129.646 E.01146
G1 X36.71 Y128.986 E.02219
G1 X36.537 Y128.283 E.02267
G1 X36.487 Y127.954 E.01045
G1 X36.439 Y127.25 E.02213
G1 X36.467 Y126.554 E.02183
G1 X36.567 Y125.861 E.02194
G1 X36.74 Y125.166 E.02245
G1 X36.833 Y124.883 E.00933
G1 X41.144 Y126.894 E.14914
G1 X42.316 Y124.379 E.08698
G1 X37.777 Y122.263 E.15703
G1 X37.823 Y122.06 E.00654
G1 X37.958 Y121.671 E.01289
G1 X38.145 Y121.265 E.01402
G1 X38.543 Y120.607 E.02413
G1 X39.055 Y119.96 E.02586
G1 X39.483 Y119.528 E.01905
G1 X39.702 Y119.335 E.00916
G1 X40.21 Y118.953 E.01994
G1 X40.769 Y118.618 E.02043
G1 X41.385 Y118.338 E.02123
G1 X42.061 Y118.122 E.02223
G1 X42.804 Y117.979 E.02375
G1 X43.181 Y117.94 E.01187
G1 X44.529 Y117.9 E.04229
G1 X45.34 Y117.839 E.02549
G1 X46.035 Y118.162 E.02403
G1 X47.669 Y118.739 E.05434
G1 X48.877 Y119.269 E.04135
G1 X49.675 Y119.681 E.02818
G1 X50.473 Y120.14 E.02884
G1 X51.26 Y120.639 E.02923
G1 X52.035 Y121.172 E.02948
G1 X52.791 Y121.73 E.02947
G1 X54.259 Y122.917 E.05919
G1 X55.656 Y124.14 E.05822
G1 X57.662 Y125.941 E.08453
G1 X58.979 Y127.051 E.05401
G1 X59.65 Y127.569 E.02657
G1 X60.33 Y128.05 E.0261
G1 X61.023 Y128.493 E.02581
G1 X61.734 Y128.895 E.0256
G1 X62.464 Y129.252 E.02547
G1 X63.212 Y129.565 E.02543
G1 X63.979 Y129.834 E.02547
G1 X64.763 Y130.06 E.02559
G1 X65.563 Y130.247 E.02576
G1 X66.377 Y130.4 E.02597
G1 X67.203 Y130.522 E.0262
G1 X68.043 Y130.62 E.02651
G1 X69.737 Y130.76 E.05329
G1 X71.449 Y130.857 E.05376
G1 X76.443 Y131.067 E.15673
G1 X77.982 Y131.084 E.04827
G1 X79.417 Y131.029 E.04501
G1 X80.101 Y130.963 E.02156
G1 X80.752 Y130.867 E.02061
G1 X81.371 Y130.738 E.01984
G1 X81.958 Y130.576 E.01909
G1 X82.511 Y130.384 E.01835
G1 X83.035 Y130.164 E.01782
G1 X83.959 Y129.689 E.03259
G1 X85.564 Y128.782 E.05778
G1 X85.925 Y128.613 E.01251
G1 X86.292 Y128.467 E.0124
G1 X86.664 Y128.35 E.01224
G1 X87.046 Y128.261 E.01229
G1 X87.442 Y128.202 E.01253
G1 X87.894 Y128.176 E.01421
G1 X87.18 Y132.269 E.1303
G1 X86.586 Y132.162 E.01892
G1 X86.158 Y132.131 E.01346
G1 X85.728 Y132.134 E.01349
G1 X85.294 Y132.167 E.01364
