; generated by PrusaSlicer 2.4.2 on 2023-12-13 at 11:53:49 UTC


;
;

;
;
; 

; external perimeters extrusion width = 0.45mm
; perimeters extrusion width = 0.45mm
; infill extrusion width = 0.45mm
; solid infill extrusion width = 0.45mm
; top infill extrusion width = 0.40mm
; support material extrusion width = 0.35mm
; first layer extrusion width = 0.42mm

M73 P0 R243
M201 X2500 Y2500 Z400 E5000 ; sets maximum accelerations, mm/sec^2
M203 X180 Y180 Z12 E80 ; sets maximum feedrates, mm / sec
M204 P1250 R1250 T2500 ; sets acceleration (P, T) and retract acceleration (R), mm/sec^2
M205 X8.00 Y8.00 Z2.00 E10.00 ; sets the jerk limits, mm/sec
M205 S0 T0 ; sets the minimum extruding and travel feed rate, mm/sec
M107
;TYPE:Custom
M862.3 P "MINI" ; printer model check
G90 ; use absolute coordinates
M83 ; extruder relative mode
M104 S170 ; set extruder temp for bed leveling
M140 S85 ; set bed temp
M109 R170 ; wait for bed leveling temp
M190 S85 ; wait for bed temp
M204 T1250 ; set travel acceleration
G28 ; home all without mesh bed level
G29 ; mesh bed leveling 
M204 T2500 ; restore travel acceleration
M104 S250 ; set extruder temp
G92 E0
G1 Y-2 X179 F2400
G1 Z3 F720
M109 S250 ; wait for extruder temp

; intro line
G1 X170 F1000
G1 Z0.2 F720
G1 X110 E8 F900
G1 X40 E10 F700
G92 E0

M221 S95 ; set flow
G21 ; set units to millimeters
G90 ; use absolute coordinates
M83 ; use relative distances for extrusion
M900 K0.2 ; Filament gcode
M107
;LAYER_CHANGE
;Z:0.2
;HEIGHT:0.2
;BEFORE_LAYER_CHANGE
G92 E0.0
;0.2


G1 E-3.2 F2400
G1 Z.2 F720
;AFTER_LAYER_CHANGE
;0.2
G1 Z.4
G1 X39.06 Y63.426 F9000
G1 Z.2 F720
G1 E3.2 F1500
M204 P800
;TYPE:Skirt/Brim
;WIDTH:0.42
G1 F1200
G1 X40 Y63.233 E.03008
G1 X140 Y63.233 E3.13543
G1 X141.307 Y63.624 E.04278
G1 X142.183 Y64.67 E.04278
G1 X142.377 Y65.61 E.03008
G1 X142.377 Y114.39 E1.52948
G1 X141.985 Y115.697 E.04278
G1 X140.94 Y116.574 E.04278
G1 X140 Y116.767 E.03008
G1 X40 Y116.767 E3.13543
G1 X38.693 Y116.376 E.04278
M73 P0 R242
G1 X37.817 Y115.33 E.04278
G1 X37.623 Y114.39 E.03008
G1 X37.623 Y65.61 E1.52948
G1 X38.015 Y64.303 E.04278
G1 X39.014 Y63.465 E.0409
M204 P1000
; printing object krabicka.stl id:0 copy 0
G1 E-2.24 F2400
;WIPE_START
G1 F7200
G1 X40 Y63.233 E-.32069
G1 X41.867 Y63.233 E-.59131
;WIPE_END
G1 E-.048 F2400
G1 Z.4 F720
G1 X40.787 Y66.397 F9000
G1 Z.2 F720
G1 E3.2 F1500
M204 P800
;TYPE:Perimeter
G1 F1200
G1 X87.993 Y66.397 E1.48012
G1 X87.993 Y113.603 E1.48012
G1 X40.787 Y113.603 E1.48012
G1 X40.787 Y66.457 E1.47824
M204 P1000
G1 X40.41 Y66.02 F9000
M204 P800
;TYPE:External perimeter
G1 F1200
G1 X88.37 Y66.02 E1.50377
G1 X88.37 Y113.98 E1.50377
G1 X40.41 Y113.98 E1.50377
G1 X40.41 Y66.08 E1.50189
M204 P1000
G1 X40.796 Y66.123 F9000
G1 E-2.24 F2400
;WIPE_START
G1 F7200
G1 X43.29 Y66.076 E-.912
;WIPE_END
G1 E-.048 F2400
G1 Z.4 F720
G1 X87.88 Y67.274 F9000
G1 Z.2 F720
G1 E3.2 F1500
M204 P800
;TYPE:Solid infill
;WIDTH:0.420722
G1 F1200
G1 X87.286 Y66.68 E.02639
G1 X86.752 Y66.68 E.01678
G1 X87.711 Y67.638 E.04259
G1 X87.711 Y68.173 E.01678
G1 X86.218 Y66.68 E.06633
G1 X85.683 Y66.68 E.01678
G1 X87.711 Y68.707 E.09007
G1 X87.711 Y69.241 E.01678
G1 X85.149 Y66.68 E.1138
G1 X84.615 Y66.68 E.01678
G1 X87.711 Y69.776 E.13754
G1 X87.711 Y70.31 E.01678
G1 X84.08 Y66.68 E.16128
G1 X83.546 Y66.68 E.01678
G1 X87.711 Y70.844 E.18501
G1 X87.711 Y71.378 E.01678
G1 X83.012 Y66.68 E.20875
G1 X82.478 Y66.68 E.01678
G1 X87.711 Y71.913 E.23249
G1 X87.711 Y72.447 E.01678
G1 X81.943 Y66.68 E.25622
G1 X81.409 Y66.68 E.01678
G1 X87.711 Y72.981 E.27996
G1 X87.711 Y73.516 E.01678
G1 X80.875 Y66.68 E.3037
G1 X80.34 Y66.68 E.01678
G1 X87.711 Y74.05 E.32743
G1 X87.711 Y74.584 E.01678
G1 X79.806 Y66.68 E.35117
G1 X79.272 Y66.68 E.01678
G1 X87.711 Y75.118 E.37491
G1 X87.711 Y75.653 E.01678
G1 X78.738 Y66.68 E.39865
G1 X78.203 Y66.68 E.01678
G1 X87.711 Y76.187 E.42238
G1 X87.711 Y76.721 E.01678
G1 X77.669 Y66.68 E.44612
G1 X77.135 Y66.68 E.01678
G1 X87.711 Y77.256 E.46986
G1 X87.711 Y77.79 E.01678
G1 X76.6 Y66.68 E.49359
G1 X76.066 Y66.68 E.01678
G1 X87.711 Y78.324 E.51733
G1 X87.711 Y78.858 E.01678
G1 X75.532 Y66.68 E.54107
G1 X74.997 Y66.68 E.01678
G1 X87.711 Y79.393 E.5648
G1 X87.711 Y79.927 E.01678
G1 X74.463 Y66.68 E.58854
G1 X73.929 Y66.68 E.01678
G1 X87.711 Y80.461 E.61228
G1 X87.711 Y80.996 E.01678
G1 X73.395 Y66.68 E.63601
G1 X72.86 Y66.68 E.01678
G1 X87.711 Y81.53 E.65975
G1 X87.711 Y82.064 E.01678
G1 X72.326 Y66.68 E.68349
G1 X71.792 Y66.68 E.01678
G1 X87.711 Y82.599 E.70722
G1 X87.711 Y83.133 E.01678
G1 X71.257 Y66.68 E.73096
G1 X70.723 Y66.68 E.01678
G1 X87.711 Y83.667 E.7547
G1 X87.711 Y84.201 E.01678
G1 X70.189 Y66.68 E.77843
G1 X69.655 Y66.68 E.01678
G1 X87.711 Y84.736 E.80217
G1 X87.711 Y85.27 E.01678
G1 X69.12 Y66.68 E.82591
G1 X68.586 Y66.68 E.01678
G1 X87.711 Y85.804 E.84964
G1 X87.711 Y86.339 E.01678
G1 X68.052 Y66.68 E.87338
G1 X67.517 Y66.68 E.01678
G1 X87.711 Y86.873 E.89712
G1 X87.711 Y87.407 E.01678
G1 X66.983 Y66.68 E.92086
G1 X66.449 Y66.68 E.01678
G1 X87.711 Y87.941 E.94459
G1 X87.711 Y88.476 E.01678
G1 X65.914 Y66.68 E.96833
G1 X65.38 Y66.68 E.01678
G1 X87.711 Y89.01 E.99207
G1 X87.711 Y89.544 E.01678
M73 P0 R241
G1 X64.846 Y66.68 E1.0158
G1 X64.312 Y66.68 E.01678
G1 X87.711 Y90.079 E1.03954
G1 X87.711 Y90.613 E.01678
G1 X63.777 Y66.68 E1.06328
G1 X63.243 Y66.68 E.01678
G1 X87.711 Y91.147 E1.08701
G1 X87.711 Y91.682 E.01678
G1 X62.709 Y66.68 E1.11075
G1 X62.174 Y66.68 E.01678
G1 X87.711 Y92.216 E1.13449
G1 X87.711 Y92.75 E.01678
G1 X61.64 Y66.68 E1.15822
G1 X61.106 Y66.68 E.01678
G1 X87.711 Y93.284 E1.18196
G1 X87.711 Y93.819 E.01678
G1 X60.572 Y66.68 E1.2057
G1 X60.037 Y66.68 E.01678
G1 X87.711 Y94.353 E1.22943
G1 X87.711 Y94.887 E.01678
G1 X59.503 Y66.68 E1.25317
G1 X58.969 Y66.68 E.01678
G1 X87.711 Y95.422 E1.27691
G1 X87.711 Y95.956 E.01678
G1 X58.434 Y66.68 E1.30064
G1 X57.9 Y66.68 E.01678
G1 X87.711 Y96.49 E1.32438
G1 X87.711 Y97.024 E.01678
G1 X57.366 Y66.68 E1.34812
G1 X56.832 Y66.68 E.01678
G1 X87.711 Y97.559 E1.37185
G1 X87.711 Y98.093 E.01678
G1 X56.297 Y66.68 E1.39559
G1 X55.763 Y66.68 E.01678
G1 X87.711 Y98.627 E1.41933
G1 X87.711 Y99.162 E.01678
G1 X55.229 Y66.68 E1.44307
G1 X54.694 Y66.68 E.01678
G1 X87.711 Y99.696 E1.4668
G1 X87.711 Y100.23 E.01678
G1 X54.16 Y66.68 E1.49054
G1 X53.626 Y66.68 E.01678
G1 X87.711 Y100.764 E1.51428
G1 X87.711 Y101.299 E.01678
G1 X53.091 Y66.68 E1.53801
G1 X52.557 Y66.68 E.01678
G1 X87.711 Y101.833 E1.56175
G1 X87.711 Y102.367 E.01678
G1 X52.023 Y66.68 E1.58549
G1 X51.489 Y66.68 E.01678
G1 X87.711 Y102.902 E1.60922
G1 X87.711 Y103.436 E.01678
G1 X50.954 Y66.68 E1.63296
G1 X50.42 Y66.68 E.01678
G1 X87.711 Y103.97 E1.6567
G1 X87.711 Y104.505 E.01678
M73 P1 R240
G1 X49.886 Y66.68 E1.68043
G1 X49.351 Y66.68 E.01678
G1 X87.711 Y105.039 E1.70417
G1 X87.711 Y105.573 E.01678
G1 X48.817 Y66.68 E1.72791
G1 X48.283 Y66.68 E.01678
G1 X87.711 Y106.107 E1.75164
G1 X87.711 Y106.642 E.01678
G1 X47.749 Y66.68 E1.77538
G1 X47.214 Y66.68 E.01678
G1 X87.711 Y107.176 E1.79912
G1 X87.711 Y107.71 E.01678
G1 X46.68 Y66.68 E1.82285
G1 X46.146 Y66.68 E.01678
G1 X87.711 Y108.245 E1.84659
G1 X87.711 Y108.779 E.01678
G1 X45.611 Y66.68 E1.87033
G1 X45.077 Y66.68 E.01678
G1 X87.711 Y109.313 E1.89406
G1 X87.711 Y109.847 E.01678
G1 X44.543 Y66.68 E1.9178
G1 X44.008 Y66.68 E.01678
G1 X87.711 Y110.382 E1.94154
G1 X87.711 Y110.916 E.01678
G1 X43.474 Y66.68 E1.96528
G1 X42.94 Y66.68 E.01678
G1 X87.711 Y111.45 E1.98901
G1 X87.711 Y111.985 E.01678
G1 X42.406 Y66.68 E2.01275
G1 X41.871 Y66.68 E.01678
G1 X87.711 Y112.519 E2.03649
G1 X87.711 Y113.053 E.01678
G1 X41.337 Y66.68 E2.06022
G1 X41.07 Y66.68 E.00839
G1 X41.07 Y66.947 E.00839
G1 X87.443 Y113.32 E2.06022
G1 X86.909 Y113.32 E.01678
G1 X41.07 Y67.481 E2.03649
G1 X41.07 Y68.015 E.01678
G1 X86.375 Y113.32 E2.01275
G1 X85.841 Y113.32 E.01678
M73 P1 R239
G1 X41.07 Y68.55 E1.98901
G1 X41.07 Y69.084 E.01678
G1 X85.306 Y113.32 E1.96528
G1 X84.772 Y113.32 E.01678
G1 X41.07 Y69.618 E1.94154
G1 X41.07 Y70.153 E.01678
G1 X84.238 Y113.32 E1.9178
G1 X83.703 Y113.32 E.01678
G1 X41.07 Y70.687 E1.89407
G1 X41.07 Y71.221 E.01678
G1 X83.169 Y113.32 E1.87033
G1 X82.635 Y113.32 E.01678
G1 X41.07 Y71.755 E1.84659
G1 X41.07 Y72.29 E.01678
G1 X82.101 Y113.32 E1.82285
G1 X81.566 Y113.32 E.01678
G1 X41.07 Y72.824 E1.79912
G1 X41.07 Y73.358 E.01678
G1 X81.032 Y113.32 E1.77538
G1 X80.498 Y113.32 E.01678
G1 X41.07 Y73.893 E1.75164
G1 X41.07 Y74.427 E.01678
G1 X79.963 Y113.32 E1.72791
G1 X79.429 Y113.32 E.01678
G1 X41.07 Y74.961 E1.70417
G1 X41.07 Y75.495 E.01678
G1 X78.895 Y113.32 E1.68043
G1 X78.361 Y113.32 E.01678
G1 X41.07 Y76.03 E1.6567
G1 X41.07 Y76.564 E.01678
G1 X77.826 Y113.32 E1.63296
G1 X77.292 Y113.32 E.01678
G1 X41.07 Y77.098 E1.60922
G1 X41.07 Y77.633 E.01678
G1 X76.758 Y113.32 E1.58549
G1 X76.223 Y113.32 E.01678
G1 X41.07 Y78.167 E1.56175
G1 X41.07 Y78.701 E.01678
G1 X75.689 Y113.32 E1.53801
G1 X75.155 Y113.32 E.01678
G1 X41.07 Y79.235 E1.51428
G1 X41.07 Y79.77 E.01678
M73 P1 R238
G1 X74.62 Y113.32 E1.49054
G1 X74.086 Y113.32 E.01678
G1 X41.07 Y80.304 E1.4668
G1 X41.07 Y80.838 E.01678
G1 X73.552 Y113.32 E1.44307
G1 X73.018 Y113.32 E.01678
G1 X41.07 Y81.373 E1.41933
G1 X41.07 Y81.907 E.01678
G1 X72.483 Y113.32 E1.39559
G1 X71.949 Y113.32 E.01678
G1 X41.07 Y82.441 E1.37186
G1 X41.07 Y82.976 E.01678
G1 X71.415 Y113.32 E1.34812
G1 X70.88 Y113.32 E.01678
G1 X41.07 Y83.51 E1.32438
G1 X41.07 Y84.044 E.01678
G1 X70.346 Y113.32 E1.30064
G1 X69.812 Y113.32 E.01678
G1 X41.07 Y84.578 E1.27691
G1 X41.07 Y85.113 E.01678
G1 X69.278 Y113.32 E1.25317
G1 X68.743 Y113.32 E.01678
M73 P2 R238
G1 X41.07 Y85.647 E1.22943
G1 X41.07 Y86.181 E.01678
G1 X68.209 Y113.32 E1.2057
G1 X67.675 Y113.32 E.01678
G1 X41.07 Y86.716 E1.18196
G1 X41.07 Y87.25 E.01678
G1 X67.14 Y113.32 E1.15822
G1 X66.606 Y113.32 E.01678
G1 X41.07 Y87.784 E1.13449
G1 X41.07 Y88.318 E.01678
G1 X66.072 Y113.32 E1.11075
G1 X65.537 Y113.32 E.01678
G1 X41.07 Y88.853 E1.08701
G1 X41.07 Y89.387 E.01678
G1 X65.003 Y113.32 E1.06328
G1 X64.469 Y113.32 E.01678
G1 X41.07 Y89.921 E1.03954
G1 X41.07 Y90.456 E.01678
G1 X63.935 Y113.32 E1.0158
G1 X63.4 Y113.32 E.01678
G1 X41.07 Y90.99 E.99207
G1 X41.07 Y91.524 E.01678
G1 X62.866 Y113.32 E.96833
G1 X62.332 Y113.32 E.01678
G1 X41.07 Y92.059 E.94459
G1 X41.07 Y92.593 E.01678
G1 X61.797 Y113.32 E.92086
G1 X61.263 Y113.32 E.01678
G1 X41.07 Y93.127 E.89712
G1 X41.07 Y93.661 E.01678
G1 X60.729 Y113.32 E.87338
G1 X60.195 Y113.32 E.01678
G1 X41.07 Y94.196 E.84965
G1 X41.07 Y94.73 E.01678
G1 X59.66 Y113.32 E.82591
G1 X59.126 Y113.32 E.01678
G1 X41.07 Y95.264 E.80217
G1 X41.07 Y95.799 E.01678
G1 X58.592 Y113.32 E.77843
G1 X58.057 Y113.32 E.01678
G1 X41.07 Y96.333 E.7547
G1 X41.07 Y96.867 E.01678
G1 X57.523 Y113.32 E.73096
G1 X56.989 Y113.32 E.01678
M73 P2 R237
G1 X41.07 Y97.401 E.70722
G1 X41.07 Y97.936 E.01678
G1 X56.455 Y113.32 E.68349
G1 X55.92 Y113.32 E.01678
G1 X41.07 Y98.47 E.65975
G1 X41.07 Y99.004 E.01678
G1 X55.386 Y113.32 E.63601
G1 X54.852 Y113.32 E.01678
G1 X41.07 Y99.539 E.61228
G1 X41.07 Y100.073 E.01678
G1 X54.317 Y113.32 E.58854
G1 X53.783 Y113.32 E.01678
G1 X41.07 Y100.607 E.5648
G1 X41.07 Y101.142 E.01678
G1 X53.249 Y113.32 E.54107
G1 X52.714 Y113.32 E.01678
G1 X41.07 Y101.676 E.51733
G1 X41.07 Y102.21 E.01678
G1 X52.18 Y113.32 E.49359
G1 X51.646 Y113.32 E.01678
G1 X41.07 Y102.744 E.46986
G1 X41.07 Y103.279 E.01678
G1 X51.112 Y113.32 E.44612
G1 X50.577 Y113.32 E.01678
G1 X41.07 Y103.813 E.42238
G1 X41.07 Y104.347 E.01678
G1 X50.043 Y113.32 E.39865
G1 X49.509 Y113.32 E.01678
G1 X41.07 Y104.882 E.37491
G1 X41.07 Y105.416 E.01678
G1 X48.974 Y113.32 E.35117
G1 X48.44 Y113.32 E.01678
G1 X41.07 Y105.95 E.32744
G1 X41.07 Y106.484 E.01678
G1 X47.906 Y113.32 E.3037
G1 X47.372 Y113.32 E.01678
G1 X41.07 Y107.019 E.27996
G1 X41.07 Y107.553 E.01678
G1 X46.837 Y113.32 E.25622
G1 X46.303 Y113.32 E.01678
G1 X41.07 Y108.087 E.23249
G1 X41.07 Y108.622 E.01678
G1 X45.769 Y113.32 E.20875
G1 X45.234 Y113.32 E.01678
G1 X41.07 Y109.156 E.18501
G1 X41.07 Y109.69 E.01678
G1 X44.7 Y113.32 E.16128
G1 X44.166 Y113.32 E.01678
G1 X41.07 Y110.224 E.13754
G1 X41.07 Y110.759 E.01678
G1 X43.631 Y113.32 E.1138
G1 X43.097 Y113.32 E.01678
G1 X41.07 Y111.293 E.09007
G1 X41.07 Y111.827 E.01678
G1 X42.563 Y113.32 E.06633
G1 X42.029 Y113.32 E.01678
G1 X41.07 Y112.362 E.04259
G1 X41.07 Y112.896 E.01678
G1 X41.664 Y113.49 E.02639
M204 P1000
G1 E-2.24 F2400
;WIPE_START
G1 F7200
G1 X41.07 Y112.896 E-.26607
G1 X41.07 Y112.362 E-.16919
G1 X42.029 Y113.32 E-.42935
G1 X42.178 Y113.32 E-.04739
;WIPE_END
G1 E-.048 F2400
G1 Z.4 F720
G1 X92.007 Y113.603 F9000
G1 Z.2 F720
G1 E3.2 F1500
M204 P800
;TYPE:Perimeter
;WIDTH:0.42
G1 F1200
G1 X92.007 Y66.397 E1.48012
G1 X139.213 Y66.397 E1.48012
G1 X139.213 Y113.603 E1.48012
G1 X92.067 Y113.603 E1.47824
M204 P1000
G1 X91.63 Y113.98 F9000
M204 P800
;TYPE:External perimeter
G1 F1200
G1 X91.63 Y66.02 E1.50377
G1 X139.59 Y66.02 E1.50377
G1 X139.59 Y113.98 E1.50377
G1 X91.69 Y113.98 E1.50189
M204 P1000
G1 X91.733 Y113.594 F9000
G1 E-2.24 F2400
;WIPE_START
G1 F7200
G1 X91.686 Y111.1 E-.912
;WIPE_END
G1 E-.048 F2400
G1 Z.4 F720
G1 X139.1 Y67.274 F9000
G1 Z.2 F720
G1 E3.2 F1500
M204 P800
;TYPE:Solid infill
;WIDTH:0.420722
G1 F1200
G1 X138.506 Y66.68 E.02639
G1 X137.971 Y66.68 E.01678
G1 X138.93 Y67.638 E.04259
G1 X138.93 Y68.173 E.01678
G1 X137.437 Y66.68 E.06633
G1 X136.903 Y66.68 E.01678
G1 X138.93 Y68.707 E.09007
G1 X138.93 Y69.241 E.01678
G1 X136.369 Y66.68 E.1138
G1 X135.834 Y66.68 E.01678
G1 X138.93 Y69.776 E.13754
G1 X138.93 Y70.31 E.01678
G1 X135.3 Y66.68 E.16128
G1 X134.766 Y66.68 E.01678
G1 X138.93 Y70.844 E.18501
G1 X138.93 Y71.378 E.01678
G1 X134.231 Y66.68 E.20875
G1 X133.697 Y66.68 E.01678
G1 X138.93 Y71.913 E.23249
G1 X138.93 Y72.447 E.01678
G1 X133.163 Y66.68 E.25622
G1 X132.628 Y66.68 E.01678
G1 X138.93 Y72.981 E.27996
G1 X138.93 Y73.516 E.01678
G1 X132.094 Y66.68 E.3037
G1 X131.56 Y66.68 E.01678
G1 X138.93 Y74.05 E.32743
G1 X138.93 Y74.584 E.01678
G1 X131.026 Y66.68 E.35117
G1 X130.491 Y66.68 E.01678
G1 X138.93 Y75.118 E.37491
G1 X138.93 Y75.653 E.01678
G1 X129.957 Y66.68 E.39865
G1 X129.423 Y66.68 E.01678
G1 X138.93 Y76.187 E.42238
G1 X138.93 Y76.721 E.01678
G1 X128.888 Y66.68 E.44612
G1 X128.354 Y66.68 E.01678
G1 X138.93 Y77.256 E.46986
G1 X138.93 Y77.79 E.01678
G1 X127.82 Y66.68 E.49359
G1 X127.286 Y66.68 E.01678
G1 X138.93 Y78.324 E.51733
G1 X138.93 Y78.858 E.01678
G1 X126.751 Y66.68 E.54107
G1 X126.217 Y66.68 E.01678
G1 X138.93 Y79.393 E.5648
G1 X138.93 Y79.927 E.01678
G1 X125.683 Y66.68 E.58854
G1 X125.148 Y66.68 E.01678
G1 X138.93 Y80.461 E.61228
G1 X138.93 Y80.996 E.01678
G1 X124.614 Y66.68 E.63601
G1 X124.08 Y66.68 E.01678
G1 X138.93 Y81.53 E.65975
G1 X138.93 Y82.064 E.01678
G1 X123.546 Y66.68 E.68349
G1 X123.011 Y66.68 E.01678
G1 X138.93 Y82.599 E.70722
G1 X138.93 Y83.133 E.01678
G1 X122.477 Y66.68 E.73096
G1 X121.943 Y66.68 E.01678
M73 P2 R236
G1 X138.93 Y83.667 E.7547
G1 X138.93 Y84.201 E.01678
G1 X121.408 Y66.68 E.77843
G1 X120.874 Y66.68 E.01678
G1 X138.93 Y84.736 E.80217
G1 X138.93 Y85.27 E.01678
G1 X120.34 Y66.68 E.82591
G1 X119.805 Y66.68 E.01678
G1 X138.93 Y85.804 E.84964
G1 X138.93 Y86.339 E.01678
G1 X119.271 Y66.68 E.87338
G1 X118.737 Y66.68 E.01678
G1 X138.93 Y86.873 E.89712
G1 X138.93 Y87.407 E.01678
G1 X118.203 Y66.68 E.92086
G1 X117.668 Y66.68 E.01678
G1 X138.93 Y87.941 E.94459
G1 X138.93 Y88.476 E.01678
G1 X117.134 Y66.68 E.96833
G1 X116.6 Y66.68 E.01678
G1 X138.93 Y89.01 E.99207
G1 X138.93 Y89.544 E.01678
G1 X116.065 Y66.68 E1.0158
G1 X115.531 Y66.68 E.01678
G1 X138.93 Y90.079 E1.03954
G1 X138.93 Y90.613 E.01678
G1 X114.997 Y66.68 E1.06328
G1 X114.463 Y66.68 E.01678
G1 X138.93 Y91.147 E1.08701
G1 X138.93 Y91.682 E.01678
G1 X113.928 Y66.68 E1.11075
G1 X113.394 Y66.68 E.01678
G1 X138.93 Y92.216 E1.13449
G1 X138.93 Y92.75 E.01678
G1 X112.86 Y66.68 E1.15822
G1 X112.325 Y66.68 E.01678
G1 X138.93 Y93.284 E1.18196
G1 X138.93 Y93.819 E.01678
G1 X111.791 Y66.68 E1.2057
G1 X111.257 Y66.68 E.01678
G1 X138.93 Y94.353 E1.22943
G1 X138.93 Y94.887 E.01678
G1 X110.722 Y66.68 E1.25317
G1 X110.188 Y66.68 E.01678
