; generated by PrusaSlicer 2.7.1 on 2023-12-18 at 20:48:18 UTC


;
;

;
;

;
;

;
;
; 

; external perimeters extrusion width = 0.45mm
; perimeters extrusion width = 0.45mm
; infill extrusion width = 0.45mm
; solid infill extrusion width = 0.45mm
; top infill extrusion width = 0.40mm
; support material extrusion width = 0.35mm
; first layer extrusion width = 0.42mm

M73 P0 R18
M201 X2500 Y2500 Z400 E5000 ; sets maximum accelerations, mm/sec^2
M203 X180 Y180 Z12 E80 ; sets maximum feedrates, mm / sec
M204 P2000 R1250 T2500 ; sets acceleration (P, T) and retract acceleration (R), mm/sec^2
M205 X8.00 Y8.00 Z2.00 E10.00 ; sets the jerk limits, mm/sec
M205 S0 T0 ; sets the minimum extruding and travel feed rate, mm/sec

M486 S0
M486 Aprius3_wheel.stl (Instance 1)
M486 S-1
M486 S1
M486 Aprius3_wheel.stl (Instance 2)
M486 S-1
M486 S2
M486 Aprius3_wheel.stl (Instance 3)
M486 S-1
M486 S3
M486 Aprius3_wheel.stl (Instance 4)
M486 S-1

;TYPE:Custom
M862.3 P "MINI" ; printer model check
G90 ; use absolute coordinates
M83 ; extruder relative mode
M104 S170 ; set extruder temp for bed leveling
M140 S60 ; set bed temp
M109 R170 ; wait for bed leveling temp
M190 S60 ; wait for bed temp
M204 T1250 ; set travel acceleration
G28 ; home all without mesh bed level
G29 ; mesh bed leveling 
M204 T2500 ; restore travel acceleration
M104 S215 ; set extruder temp
G92 E0
G1 Y-2 X179 F2400
G1 Z3 F720
M109 S215 ; wait for extruder temp

; intro line
G1 X170 F1000
G1 Z0.2 F720
G1 X110 E8 F900
G1 X40 E10 F700
M73 P0 R17
G92 E0

M221 S95 ; set flow
G21 ; set units to millimeters
G90 ; use absolute coordinates
M83 ; use relative distances for extrusion
M900 K0.2 ; Filament gcode LA 1.5
; ; Filament gcode LA 1.0

M107
;LAYER_CHANGE
;Z:0.2
;HEIGHT:0.2
;BEFORE_LAYER_CHANGE
G92 E0.0
;0.2


G1 E-3.2 F4200
M73 P1 R17
G1 Z.2 F720
;AFTER_LAYER_CHANGE
;0.2
G1 X73.755 Y74.183 F9000
G1 Z.2 F720
G1 E3.2 F2400
M204 P600
;TYPE:Skirt/Brim
;WIDTH:0.42
G1 F1200
G3 X80.707 Y71.296 I7 J7.041 E.24208
G1 X99.121 Y71.307 E.57736
G3 X108.997 Y81.189 I-.056 J9.931 E.48585
G1 X108.94 Y99.275 E.56708
G3 X99.773 Y108.581 I-9.901 J-.585 E.4471
G1 X80.368 Y108.321 E.60848
G3 X71.255 Y99.633 I.74 J-9.899 E.42762
G1 X70.845 Y80.627 E.59606
G3 X73.713 Y74.226 I9.91 J.597 E.22477
M73 P2 R17
M204 P1000
M486 S2
G1 E-2.24 F4200
;WIPE_START
G1 F7200
G1 X73.755 Y74.183 E-.03331
G3 X75.034 Y73.109 I7 J7.041 E-.92669
;WIPE_END
G1 Z.4 F720
G1 X99.398 Y76.773 F9000
G1 Z.2 F720
G1 E3.2 F2400
M204 P600
;TYPE:Support material
G1 F1200
G3 X99.12 Y76.764 I-.278 J4.41 E.86185
G1 X99.341 Y76.771 E.00693
M204 P1000
G1 X102.891 Y83.14 F9000
M204 P600
G1 F1200
G1 X102.891 Y79.629 E.11008
G2 X101.634 Y77.972 I-3.75 J1.54 E.06595
G1 X101.634 Y84.395 E.20139
G3 X100.377 Y85.065 I-2.517 J-3.206 E.04489
G1 X100.377 Y77.302 E.2434
G1 X99.12 Y77.103 E.0399
G1 X99.12 Y85.264 E.25588
G1 X97.863 Y85.065 E.0399
G1 X97.863 Y77.302 E.2434
G2 X96.606 Y77.972 I1.26 J3.876 E.04489
G1 X96.606 Y84.395 E.20139
G3 X95.349 Y82.739 I2.493 J-3.197 E.06592
G1 X95.349 Y79.227 E.11012
M204 P1000
G1 E-2.24 F4200
;WIPE_START
G1 F7200
G1 X95.349 Y80.959 E-.96
;WIPE_END
G1 Z.4 F720
G1 X93.053 Y84.039 F9000
G1 Z.2 F720
G1 E3.2 F2400
M204 P600
;TYPE:Perimeter
;WIDTH:0.419999
G1 F1200
G3 X97.451 Y74.683 I6.08 J-2.854 E.36989
G3 X104.768 Y77.561 I1.653 J6.536 E.2632
G3 X105.511 Y79.141 I-8.199 J4.823 E.05482
G3 X105.819 Y80.795 I-8.758 J2.482 E.05283
G3 X95.887 Y87.065 I-6.707 J.378 E.44816
G3 X93.079 Y84.093 I3.246 J-5.88 E.13027
M204 P1000
G1 X92.705 Y84.185 F9000
M204 P600
;TYPE:External perimeter
G1 F1200
G3 X92.689 Y78.202 I6.457 J-3.009 E.1936
G3 X96.51 Y74.592 I6.513 J3.066 E.16872
G3 X104.583 Y76.665 I2.598 J6.637 E.27913
G3 X105.877 Y79.048 I-5.955 J4.776 E.08548
G3 X106.196 Y80.795 I-9.143 J2.571 E.05576
G3 X102.535 Y87.396 I-7.116 J.37 E.24942
G3 X94.267 Y86.352 I-3.409 J-6.258 E.27908
G3 X92.73 Y84.239 I4.895 J-5.176 E.08239
M204 P1000
G1 E-2.24 F4200
;WIPE_START
G1 F7200
M73 P3 R17
G1 X92.705 Y84.185 E-.03298
G3 X92.182 Y82.6 I6.457 J-3.008 E-.92702
;WIPE_END
G1 Z.4 F720
G1 X96.699 Y76.045 F9000
G1 Z.2 F720
G1 E3.2 F2400
M204 P600
;TYPE:Perimeter
G1 F1200
G1 X96.748 Y76.017 E.00177
G1 X97.655 Y75.691 E.03022
G3 X99.174 Y75.515 I1.433 J5.724 E.04808
G1 X99.513 Y75.511 E.01063
G3 X102.137 Y76.364 I-.469 J5.908 E.08731
G1 X102.973 Y77.004 E.03301
G1 X103.498 Y77.584 E.02453
G3 X104.394 Y79.057 I-3.978 J3.428 E.0543
G1 X104.694 Y80.067 E.03304
G1 X104.805 Y81.237 E.03685
G1 X104.714 Y82.197 E.03024
G1 X104.505 Y82.951 E.02453
G3 X103.741 Y84.497 I-5.026 J-1.522 E.05432
G1 X103.05 Y85.291 E.033
G1 X102.438 Y85.779 E.02454
G1 X102.121 Y86.012 E.01234
G1 X101.262 Y86.45 E.03023
G3 X98.393 Y86.805 I-2.096 J-5.166 E.09169
G1 X98.002 Y86.758 E.01235
G1 X97.077 Y86.489 E.0302
G3 X95.775 Y85.759 I2.144 J-5.351 E.04693
G3 X95.252 Y85.327 I1.367 J-2.185 E.02133
G3 X93.462 Y81.523 I3.69 J-4.059 E.13528
G1 X93.434 Y81.148 E.01179
G3 X93.82 Y79.123 I6.143 J.123 E.06494
G1 X94.292 Y78.182 E.03301
G1 X95.013 Y77.253 E.03687
G1 X95.736 Y76.616 E.03021
G1 X96.404 Y76.209 E.02453
G1 X96.646 Y76.074 E.00869
M204 P1000
G1 X97.092 Y76.294 F9000
M204 P600
;TYPE:External perimeter
G1 F1200
G1 X97.783 Y76.046 E.02302
G3 X99.186 Y75.892 I1.292 J5.31 E.04438
G3 X102.207 Y76.887 I-.047 J5.225 E.10133
G3 X103.215 Y77.833 I-2.598 J3.775 E.04351
G3 X104.143 Y79.522 I-3.949 J3.27 E.06079
G3 X104.402 Y80.88 I-4.321 J1.528 E.04351
G1 X104.429 Y81.202 E.01013
G1 X104.339 Y82.161 E.0302
G1 X104.143 Y82.845 E.02231
G3 X103.215 Y84.534 I-4.877 J-1.581 E.06079
G3 X102.207 Y85.481 I-3.606 J-2.829 E.04353
G1 X101.95 Y85.676 E.01012
G1 X101.091 Y86.114 E.03023
G3 X98.429 Y86.429 I-1.921 J-4.819 E.08501
G1 X98.107 Y86.396 E.01015
G1 X97.182 Y86.127 E.0302
G3 X95.987 Y85.448 I2.009 J-4.925 E.04322
G3 X95.519 Y85.06 I1.08 J-1.783 E.01913
G3 X93.838 Y81.488 I3.413 J-3.788 E.1271
G3 X94.304 Y78.99 I5.186 J-.326 E.08049
G3 X95.061 Y77.789 I4.313 J1.883 E.04468
G1 X95.262 Y77.536 E.01013
G1 X95.985 Y76.899 E.03021
G1 X96.876 Y76.372 E.03246
G1 X97.035 Y76.315 E.0053
M204 P1000
G1 E-2.24 F4200
;WIPE_START
G1 F7200
G1 X97.092 Y76.294 E-.03366
G1 X97.783 Y76.046 E-.40684
G3 X98.708 Y75.903 I1.294 J5.31 E-.5195
;WIPE_END
G1 Z.4 F720
G1 X104.677 Y77.74 F9000
G1 Z.2 F720
G1 E3.2 F2400
M204 P600
;TYPE:Solid infill
;WIDTH:0.428645
G1 F1200
G1 X103.448 Y76.511 E.05575
G2 X101.816 Y75.424 I-4.224 J4.576 E.06315
G1 X105.203 Y78.811 E.15363
M204 P1000
G1 X104.292 Y78.446 F9000
M204 P600
G1 F1200
G1 X105.221 Y79.375 E.04214
G1 X105.392 Y80.091 E.02361
G1 X104.912 Y79.611 E.02177
G3 X105.065 Y80.31 I-2.291 J.868 E.02303
G1 X105.471 Y80.715 E.01839
G1 X105.479 Y81.27 E.0178
G1 X105.122 Y80.912 E.01622
G3 X105.121 Y81.457 I-1.742 J.272 E.01755
G1 X105.453 Y81.789 E.01506
G1 X105.392 Y82.273 E.01565
G1 X105.074 Y81.956 E.0144
G3 X105.005 Y82.432 I-1.862 J-.027 E.01547
G1 X105.291 Y82.718 E.01297
G1 X105.18 Y83.152 E.01437
G1 X104.881 Y82.853 E.01356
G1 X104.756 Y83.274 E.01409
G1 X105.025 Y83.543 E.0122
G1 X104.885 Y83.897 E.01221
G1 X104.867 Y83.93 E.00121
G1 X104.601 Y83.665 E.01204
G1 X104.426 Y84.035 E.01313
G1 X104.673 Y84.282 E.0112
G1 X104.476 Y84.63 E.01283
G1 X104.219 Y84.374 E.01163
G1 X104.008 Y84.708 E.01267
G1 X104.247 Y84.946 E.01082
G1 X104.015 Y85.26 E.01252
G1 X103.755 Y85 E.01179
G1 X103.499 Y85.29 E.01241
G1 X103.751 Y85.542 E.01143
G1 X103.487 Y85.823 E.01237
G1 X103.243 Y85.58 E.01104
G1 X102.936 Y85.818 E.01246
G1 X103.189 Y86.071 E.01148
G1 X102.89 Y86.318 E.01244
G1 X102.629 Y86.056 E.01186
G1 X102.317 Y86.29 E.01251
G1 X102.56 Y86.532 E.011
G1 X102.226 Y86.744 E.01269
G1 X101.955 Y86.474 E.01227
G1 X101.594 Y86.658 E.013
G1 X101.859 Y86.923 E.01202
G1 X101.488 Y87.097 E.01314
G1 X101.217 Y86.827 E.01227
G1 X100.806 Y86.961 E.01386
G1 X101.079 Y87.234 E.01238
G1 X100.705 Y87.355 E.01261
G1 X100.663 Y87.363 E.00137
G1 X100.369 Y87.069 E.01334
G1 X99.91 Y87.156 E.01498
G1 X100.205 Y87.451 E.01338
G3 X99.726 Y87.517 I-.57 J-2.338 E.01553
G1 X99.4 Y87.191 E.01479
G3 X98.848 Y87.185 I-.253 J-2.048 E.01776
G1 X99.213 Y87.55 E.01656
G1 X98.643 Y87.525 E.0183
G1 X98.246 Y87.128 E.01801
G3 X97.548 Y86.975 I.169 J-2.443 E.023
G1 X98.02 Y87.448 E.02143
G3 X97.308 Y87.281 I.52 J-3.836 E.02349
G1 X96.374 Y86.348 E.04234
M204 P1000
G1 E-2.24 F4200
;WIPE_START
G1 F7200
G1 X97.308 Y87.281 E-.73159
G2 X97.705 Y87.391 I1.234 J-3.668 E-.22841
;WIPE_END
G1 Z.4 F720
G1 X101.879 Y76.033 F9000
G1 Z.2 F720
G1 E3.2 F2400
M204 P600
G1 F1200
G1 X100.932 Y75.086 E.04295
G2 X100.22 Y74.92 I-1.233 J3.67 E.02348
G1 X100.673 Y75.372 E.02052
G2 X99.985 Y75.23 I-1.058 J3.382 E.02257
G1 X99.596 Y74.841 E.01764
G2 X99.032 Y74.823 I-.397 J3.464 E.01812
G1 X99.381 Y75.171 E.01581
G1 X98.851 Y75.187 E.01701
G1 X98.516 Y74.852 E.0152
G2 X98.035 Y74.917 I.064 J2.279 E.0156
G1 X98.329 Y75.211 E.01334
G1 X97.871 Y75.297 E.01495
G1 X97.577 Y75.004 E.01331
G1 X97.535 Y75.012 E.00137
G1 X97.161 Y75.134 E.01262
G1 X97.443 Y75.415 E.01277
G1 X97.04 Y75.558 E.01372
G1 X96.752 Y75.27 E.01306
G1 X96.381 Y75.445 E.01316
G1 X96.637 Y75.7 E.01159
G2 X96.282 Y75.891 I.634 J1.609 E.01296
G1 X96.014 Y75.623 E.01216
G1 X95.681 Y75.835 E.01266
G1 X95.939 Y76.094 E.01173
G1 X95.596 Y76.296 E.01277
G1 X95.357 Y76.056 E.01086
G1 X95.055 Y76.3 E.01245
G1 X95.304 Y76.549 E.01129
G1 X95.014 Y76.805 E.01241
G1 X94.753 Y76.544 E.01184
G1 X94.489 Y76.826 E.01239
G1 X94.724 Y77.061 E.01066
G1 X94.486 Y77.368 E.01246
G1 X94.225 Y77.107 E.01184
G1 X93.994 Y77.421 E.0125
G1 X94.248 Y77.675 E.01152
G1 X94.014 Y77.987 E.01251
G1 X93.764 Y77.737 E.01134
G1 X93.741 Y77.768 E.00124
G1 X93.568 Y78.086 E.01161
G1 X93.83 Y78.349 E.01191
G1 X93.646 Y78.71 E.013
G1 X93.376 Y78.44 E.01225
G1 X93.214 Y78.824 E.01337
G1 X93.477 Y79.086 E.01191
G1 X93.343 Y79.498 E.0139
G1 X93.06 Y79.215 E.01284
G1 X92.949 Y79.649 E.01437
G1 X93.234 Y79.935 E.01295
G1 X93.147 Y80.393 E.01495
G1 X92.848 Y80.094 E.01356
G1 X92.787 Y80.578 E.01565
G1 X93.112 Y80.904 E.01476
G2 X93.119 Y81.455 I2.049 J.253 E.01773
G1 X92.761 Y81.098 E.01622
G1 X92.77 Y81.652 E.01777
G1 X93.175 Y82.058 E.01839
G2 X93.309 Y82.737 I2.812 J-.2 E.02225
G1 X92.848 Y82.276 E.02091
G1 X93.022 Y82.995 E.02373
G1 X93.963 Y83.936 E.04268
M204 P1000
G1 X93.038 Y83.557 F9000
M204 P600
G1 F1200
G1 X96.424 Y86.943 E.15358
G3 X94.79 Y85.854 I2.623 J-5.708 E.06324
G1 X93.563 Y84.627 E.05565
M204 P1000
M486 S-1
M486 S3
G1 E-2.24 F4200
;WIPE_START
G1 F7200
G1 X94.788 Y85.852 E-.96
;WIPE_END
G1 Z.4 F720
G1 X99.356 Y94.318 F9000
G1 Z.2 F720
G1 E3.2 F2400
M204 P600
;TYPE:Support material
;WIDTH:0.42
G1 F1200
G3 X99.079 Y94.309 I-.277 J4.41 E.86188
M73 P4 R17
G1 X99.3 Y94.316 E.00693
M204 P1000
G1 X102.849 Y100.685 F9000
M204 P600
G1 F1200
G1 X102.849 Y97.174 E.11008
G2 X101.592 Y95.518 I-3.749 J1.54 E.06592
G1 X101.592 Y101.94 E.20136
G3 X100.336 Y102.611 I-2.516 J-3.205 E.04488
G1 X100.336 Y94.847 E.24343
G1 X99.079 Y94.649 E.0399
G1 X99.079 Y102.809 E.25585
G1 X97.822 Y102.611 E.0399
G1 X97.822 Y94.847 E.24343
G2 X96.565 Y95.518 I1.26 J3.877 E.04491
G1 X96.565 Y101.94 E.20136
G3 X95.308 Y100.284 I2.492 J-3.196 E.06592
G1 X95.308 Y96.773 E.11008
M204 P1000
G1 E-2.24 F4200
;WIPE_START
G1 F7200
G1 X95.308 Y98.505 E-.96
;WIPE_END
G1 Z.4 F720
G1 X93.011 Y101.584 F9000
G1 Z.2 F720
G1 E3.2 F2400
M204 P600
;TYPE:Perimeter
;WIDTH:0.419999
G1 F1200
G3 X97.409 Y92.228 I6.081 J-2.853 E.36989
G3 X104.726 Y95.107 I1.654 J6.536 E.26322
G3 X105.47 Y96.687 I-8.198 J4.822 E.05483
G3 X105.777 Y98.341 I-8.759 J2.482 E.05282
G3 X95.845 Y104.611 I-6.707 J.377 E.44816
G3 X93.037 Y101.638 I3.247 J-5.88 E.13029
M204 P1000
G1 X92.663 Y101.73 F9000
M204 P600
;TYPE:External perimeter
G1 F1200
G3 X92.648 Y95.747 I6.458 J-3.008 E.1936
G3 X96.469 Y92.137 I6.512 J3.066 E.16872
G3 X104.541 Y94.21 I2.598 J6.638 E.27909
G3 X105.835 Y96.593 I-5.955 J4.777 E.08548
G3 X106.154 Y98.341 I-9.142 J2.572 E.05579
G3 X102.494 Y104.942 I-7.116 J.369 E.24941
G3 X94.225 Y103.897 I-3.41 J-6.259 E.27913
G3 X92.689 Y101.784 I4.896 J-5.175 E.08237
M204 P1000
G1 E-2.24 F4200
;WIPE_START
G1 F7200
G1 X92.663 Y101.73 E-.03321
G3 X92.141 Y100.145 I6.458 J-3.008 E-.92679
;WIPE_END
G1 Z.4 F720
G1 X96.657 Y93.59 F9000
G1 Z.2 F720
G1 E3.2 F2400
M204 P600
;TYPE:Perimeter
G1 F1200
G1 X96.707 Y93.563 E.00178
G1 X97.614 Y93.236 E.03023
G3 X99.133 Y93.06 I1.433 J5.725 E.04808
G1 X99.471 Y93.056 E.0106
G3 X102.095 Y93.909 I-.469 J5.908 E.08731
G1 X102.932 Y94.549 E.03304
G1 X103.456 Y95.129 E.02451
G3 X104.352 Y96.603 I-3.978 J3.428 E.05433
G1 X104.653 Y97.612 E.03301
G1 X104.763 Y98.783 E.03688
G1 X104.673 Y99.742 E.0302
G1 X104.464 Y100.496 E.02453
G3 X103.7 Y102.043 I-5.026 J-1.522 E.05434
G1 X103.009 Y102.837 E.033
G1 X102.397 Y103.324 E.02452
G1 X102.079 Y103.558 E.01238
G1 X101.22 Y103.995 E.03022
G3 X98.352 Y104.35 I-2.095 J-5.166 E.09166
G1 X97.961 Y104.303 E.01235
G1 X97.035 Y104.034 E.03023
G3 X95.734 Y103.305 I2.144 J-5.351 E.04689
G3 X95.211 Y102.872 I1.367 J-2.185 E.02135
G3 X93.421 Y99.069 I3.689 J-4.059 E.13525
G1 X93.393 Y98.693 E.01182
G3 X93.779 Y96.669 I6.143 J.123 E.06491
G1 X94.251 Y95.728 E.03301
G1 X94.971 Y94.799 E.03685
G1 X95.694 Y94.161 E.03023
G1 X96.362 Y93.755 E.02451
G1 X96.605 Y93.619 E.00873
M204 P1000
G1 X97.05 Y93.84 F9000
M204 P600
;TYPE:External perimeter
G1 F1200
G1 X97.741 Y93.591 E.02303
G3 X99.145 Y93.437 I1.293 J5.311 E.04441
G3 X102.166 Y94.432 I-.047 J5.225 E.10133
G3 X103.173 Y95.378 I-2.598 J3.776 E.04349
G3 X104.102 Y97.067 I-3.948 J3.271 E.0608
G3 X104.361 Y98.425 I-4.321 J1.528 E.04351
G1 X104.388 Y98.747 E.01013
G1 X104.297 Y99.707 E.03024
G1 X104.102 Y100.391 E.0223
G3 X103.173 Y102.08 I-4.877 J-1.582 E.0608
G3 X102.166 Y103.026 I-3.605 J-2.83 E.04349
M73 P5 R17
G1 X101.908 Y103.222 E.01016
G1 X101.049 Y103.659 E.03022
G3 X98.388 Y103.975 I-1.921 J-4.819 E.08498
G1 X98.066 Y103.941 E.01015
G1 X97.14 Y103.672 E.03023
G3 X95.946 Y102.993 I2.01 J-4.924 E.04319
G3 X95.477 Y102.605 I1.079 J-1.782 E.01915
G3 X93.796 Y99.033 I3.414 J-3.787 E.1271
G3 X94.262 Y96.536 I5.186 J-.325 E.08046
G3 X95.02 Y95.335 I4.313 J1.882 E.0447
G1 X95.221 Y95.081 E.01016
G1 X95.944 Y94.444 E.03021
G1 X96.834 Y93.917 E.03243
G1 X96.994 Y93.86 E.00533
M204 P1000
G1 E-2.24 F4200
;WIPE_START
G1 F7200
G1 X97.05 Y93.84 E-.03295
G1 X97.741 Y93.591 E-.40703
G3 X98.667 Y93.448 I1.293 J5.311 E-.52002
;WIPE_END
G1 Z.4 F720
G1 X104.636 Y95.286 F9000
G1 Z.2 F720
G1 E3.2 F2400
M204 P600
;TYPE:Solid infill
;WIDTH:0.428645
G1 F1200
G1 X103.407 Y94.057 E.05575
G2 X101.774 Y92.97 I-4.225 J4.575 E.06318
G1 X105.161 Y96.356 E.15361
M204 P1000
G1 X104.25 Y95.991 F9000
M204 P600
G1 F1200
G1 X105.18 Y96.92 E.04216
G1 X105.35 Y97.637 E.02363
G1 X104.87 Y97.157 E.02177
G3 X105.023 Y97.855 I-2.291 J.867 E.023
G1 X105.429 Y98.261 E.01842
G1 X105.438 Y98.815 E.01777
G1 X105.08 Y98.458 E.01622
G3 X105.08 Y99.003 I-1.742 J.272 E.01755
G1 X105.412 Y99.335 E.01506
G1 X105.351 Y99.819 E.01565
G1 X105.033 Y99.501 E.01442
G3 X104.964 Y99.978 I-1.862 J-.026 E.0155
G1 X105.25 Y100.264 E.01297
G1 X105.138 Y100.698 E.01438
G1 X104.839 Y100.399 E.01356
G1 X104.715 Y100.819 E.01405
G1 X104.984 Y101.089 E.01222
G1 X104.844 Y101.442 E.01218
G1 X104.825 Y101.476 E.00125
G1 X104.56 Y101.21 E.01204
G1 X104.385 Y101.58 E.01313
G1 X104.632 Y101.828 E.01123
G1 X104.435 Y102.176 E.01283
G1 X104.178 Y101.919 E.01166
G1 X103.966 Y102.253 E.01269
G1 X104.205 Y102.492 E.01084
G1 X103.974 Y102.806 E.0125
G1 X103.713 Y102.546 E.01182
G1 X103.458 Y102.836 E.01239
G1 X103.709 Y103.087 E.01138
G1 X103.445 Y103.369 E.01239
G1 X103.202 Y103.125 E.01104
G1 X102.894 Y103.363 E.01248
G1 X103.147 Y103.616 E.01148
G1 X102.849 Y103.863 E.01241
G1 X102.587 Y103.602 E.01186
G1 X102.275 Y103.835 E.01249
G1 X102.518 Y104.078 E.01102
G1 X102.184 Y104.29 E.01269
G1 X101.914 Y104.019 E.01227
G1 X101.552 Y104.203 E.01302
G1 X101.817 Y104.468 E.01202
G1 X101.447 Y104.643 E.01313
G1 X101.176 Y104.372 E.01229
G1 X100.764 Y104.506 E.0139
G1 X101.037 Y104.779 E.01238
G1 X100.663 Y104.901 E.01262
G1 X100.621 Y104.909 E.00137
G1 X100.328 Y104.615 E.01331
G1 X99.869 Y104.702 E.01498
