; generated by PrusaSlicer 2.7.1 on 2023-12-18 at 13:35:00 UTC


;
;

;
;

;
;

;
;
; 

; external perimeters extrusion width = 0.45mm
; perimeters extrusion width = 0.45mm
; infill extrusion width = 0.45mm
; solid infill extrusion width = 0.45mm
; top infill extrusion width = 0.40mm
; first layer extrusion width = 0.42mm

M73 P0 R25
M201 X2500 Y2500 Z400 E5000 ; sets maximum accelerations, mm/sec^2
M203 X180 Y180 Z12 E80 ; sets maximum feedrates, mm / sec
M204 P2000 R1250 T2500 ; sets acceleration (P, T) and retract acceleration (R), mm/sec^2
M205 X8.00 Y8.00 Z2.00 E10.00 ; sets the jerk limits, mm/sec
M205 S0 T0 ; sets the minimum extruding and travel feed rate, mm/sec

M486 S0
M486 Arav4_keytag.stl (Instance 1)
M486 S-1
M486 S1
M486 Arav4_keytag.stl (Instance 2)
M486 S-1

;TYPE:Custom
M862.3 P "MINI" ; printer model check
G90 ; use absolute coordinates
M83 ; extruder relative mode
M104 S170 ; set extruder temp for bed leveling
M140 S60 ; set bed temp
M109 R170 ; wait for bed leveling temp
M190 S60 ; wait for bed temp
M204 T1250 ; set travel acceleration
G28 ; home all without mesh bed level
G29 ; mesh bed leveling 
M204 T2500 ; restore travel acceleration
M104 S215 ; set extruder temp
G92 E0
G1 Y-2 X179 F2400
G1 Z3 F720
M109 S215 ; wait for extruder temp

; intro line
G1 X170 F1000
G1 Z0.2 F720
G1 X110 E8 F900
G1 X40 E10 F700
G92 E0

M221 S95 ; set flow
G21 ; set units to millimeters
G90 ; use absolute coordinates
M83 ; use relative distances for extrusion
M900 K0.2 ; Filament gcode LA 1.5
; ; Filament gcode LA 1.0

M107
;LAYER_CHANGE
;Z:0.2
;HEIGHT:0.2
;BEFORE_LAYER_CHANGE
G92 E0.0
;0.2


G1 E-3.2 F4200
M73 P1 R25
G1 Z.2 F720
;AFTER_LAYER_CHANGE
;0.2
G1 X69.188 Y58.55 F9000
G1 Z.2 F720
G1 E3.2 F2400
M204 P600
;TYPE:Skirt/Brim
;WIDTH:0.42
G1 F1200
G3 X77.456 Y52.314 I17.935 J15.178 E.32739
G3 X96.39 Y49.14 I15.63 J35.182 E.60836
G3 X111.406 Y53.727 I-2.518 J35.12 E.49647
G3 X118.334 Y60.336 I-10.83 J18.287 E.30281
G3 X120.436 Y66.5 I-12.255 J7.619 E.20597
G1 X121.198 Y104.741 E1.19926
G3 X118.313 Y113.172 I-14.602 J-.288 E.28392
G3 X109.476 Y120.108 I-18.504 J-14.478 E.35568
G3 X78.056 Y120.056 I-15.651 J-35.28 E1.01461
G3 X69.33 Y113.172 I9.866 J-21.48 E.35178
G3 X66.496 Y105.922 I11.758 J-8.774 E.24703
G1 X65.734 Y67.68 E1.19929
G3 X68.619 Y59.249 I14.603 J.288 E.28392
G3 X69.15 Y58.596 I18.504 J14.479 E.02639
M204 P1000
M486 S0
G1 E-2.24 F4200
;WIPE_START
G1 F7200
G1 X69.188 Y58.55 E-.03306
G3 X70.313 Y57.313 I17.934 J15.178 E-.92694
;WIPE_END
G1 Z.4 F720
G1 X115.993 Y69.627 F9000
G1 Z.2 F720
G1 E3.2 F2400
M204 P600
;TYPE:Perimeter
;WIDTH:0.419999
G1 F1200
G2 X116.31 Y69.546 I-.374 J-2.14 E.01027
G2 X117.229 Y68.877 I-.831 J-2.106 E.03603
G3 X116.182 Y72.304 I-10.447 J-1.317 E.1129
G3 X113.655 Y75.792 I-12.915 J-6.699 E.13555
G3 X108.673 Y79.462 I-14.849 J-14.94 E.19472
G3 X100.673 Y82.319 I-14.192 J-27.112 E.26721
G3 X84.104 Y81.981 I-7.547 J-36.308 E.52404
G3 X76.408 Y78.809 I7.052 J-28.028 E.26191
G3 X71.805 Y74.955 I9.983 J-16.6 E.18899
G3 X69.629 Y71.387 I10.229 J-8.684 E.13157
G3 X69.629 Y63.883 I9.405 J-3.752 E.24103
M73 P2 R25
G3 X71.805 Y60.315 I12.405 J5.116 E.13157
G3 X76.408 Y56.461 I14.586 J12.746 E.18899
G3 X84.104 Y53.288 I14.748 J24.856 E.26192
G3 X103.525 Y53.684 I8.988 J35.627 E.61638
G3 X110.887 Y57.158 I-7.768 J25.998 E.25621
G3 X115.093 Y61.177 I-10.011 J14.689 E.18323
G3 X116.912 Y64.812 I-10.078 J7.316 E.12802
G3 X117.238 Y66.424 I-10.373 J2.939 E.05162
G2 X114.458 Y65.957 I-1.634 J1.222 E.09757
G2 X113.817 Y66.682 I1.419 J1.901 E.03056
G2 X113.576 Y67.582 I2.188 J1.069 E.02939
G2 X114.697 Y69.453 I2.102 J.013 E.0719
G2 X115.933 Y69.636 I.922 J-1.966 E.03974
M204 P1000
G1 E-2.24 F4200
;WIPE_START
G1 F7200
G1 X115.993 Y69.627 E-.03362
G2 X116.31 Y69.546 I-.378 J-2.139 E-.18149
G2 X117.229 Y68.877 I-.831 J-2.107 E-.63674
G3 X117.203 Y69.07 I-10.447 J-1.317 E-.10815
;WIPE_END
G1 Z.4 F720
G1 X117.687 Y67.645 F9000
G1 Z.2 F720
G1 E3.2 F2400
M204 P600
;TYPE:External perimeter
;WIDTH:0.463123
G1 F1200
G2 X117.653 Y68.616 I9.702 J.825 E.03396
;WIDTH:0.419999
G3 X116.005 Y73.404 I-11.504 J-1.283 E.16006
G3 X113.063 Y76.881 I-13.739 J-8.642 E.14328
G3 X107.63 Y80.411 I-15.243 J-17.513 E.20381
G3 X97.745 Y83.19 I-13.797 J-30.103 E.32326
G3 X82.586 Y81.946 I-4.605 J-36.87 E.48029
G3 X75.12 Y78.422 I7.881 J-26.363 E.25984
G3 X70.823 Y74.313 I10.231 J-15.005 E.18726
G3 X68.948 Y70.564 I10.396 J-7.543 E.13202
G3 X69.278 Y63.744 I10.081 J-2.929 E.21805
G3 X71.517 Y60.071 I12.768 J5.263 E.13543
G3 X76.211 Y56.139 I14.879 J12.996 E.19277
G3 X84.01 Y52.923 I14.947 J25.183 E.26543
G3 X103.635 Y53.324 I9.082 J35.993 E.62286
G3 X111.101 Y56.848 I-7.88 J26.362 E.25984
G3 X115.399 Y60.956 I-10.23 J15.004 E.18726
G3 X117.274 Y64.705 I-10.396 J7.544 E.13202
G3 X117.623 Y66.449 I-11.104 J3.129 E.05582
;WIDTH:0.431441
G1 X117.662 Y66.956 E.01643
;WIDTH:0.445982
G1 X117.685 Y67.585 E.02109
M204 P1000
G1 E-2.24 F4200
;WIPE_START
G1 F7200
G1 X117.687 Y67.645 E-.03327
G2 X117.653 Y68.616 I9.702 J.826 E-.53865
;WIPE_END
G1 E-.38808 F4200
G1 Z.4 F720
G1 X115.857 Y69.268 F9000
G1 Z.2 F720
G1 E3.2 F2400
M204 P600
;WIDTH:0.419999
G1 F1200
G3 X114.621 Y68.967 I-.248 J-1.669 E.0409
G3 X114.075 Y68.262 I1.427 J-1.671 E.02815
G3 X114.63 Y66.295 I1.58 J-.615 E.06877
G3 X116.547 Y66.269 I.978 J1.369 E.06396
G3 X117.056 Y66.828 I-1.175 J1.578 E.02385
;WIDTH:0.457795
G1 X117.256 Y67.301 E.01772
G1 X117.283 Y67.66 E.01242
;WIDTH:0.457445
G1 X117.231 Y68.071 E.01428
G1 X116.964 Y68.596 E.0203
;WIDTH:0.419999
G1 X116.734 Y68.857 E.01091
G3 X115.916 Y69.258 I-1.125 J-1.258 E.02892
M204 P1000
G1 E-2.24 F4200
;WIPE_START
G1 F7200
G1 X115.857 Y69.268 E-.03316
G3 X114.621 Y68.967 I-.248 J-1.669 E-.72283
G3 X114.362 Y68.706 I1.427 J-1.671 E-.20401
;WIPE_END
G1 Z.4 F720
G1 X114.895 Y61.199 F9000
G1 Z.2 F720
G1 E3.2 F2400
M204 P600
;TYPE:Solid infill
;WIDTH:0.423
G1 F1200
G2 X112.584 Y58.923 I-68.615 J67.329 E.10251
G2 X110.413 Y57.255 I-13.332 J15.111 E.08659
G1 X115.383 Y62.225 E.22213
G3 X115.993 Y63.372 I-10.405 J6.265 E.04108
G1 X109.014 Y56.394 E.3119
G2 X107.86 Y55.778 I-7.646 J12.927 E.04135
G1 X116.374 Y64.291 E.38051
G3 X116.627 Y65.081 I-6.362 J2.469 E.02623
G1 X106.838 Y55.292 E.43751
G1 X105.894 Y54.886 E.03248
G1 X116.419 Y65.411 E.47041
G2 X115.747 Y65.277 I-.672 J1.613 E.0218
G1 X105.02 Y54.55 E.47944
G1 X104.197 Y54.264 E.02754
M73 P3 R24
G1 X115.231 Y65.299 E.49318
G2 X114.806 Y65.411 I.253 J1.812 E.01392
G1 X103.396 Y54 E.50999
G1 X102.648 Y53.79 E.02455
G1 X114.442 Y65.584 E.52713
G2 X114.117 Y65.797 I.511 J1.134 E.01233
G1 X101.908 Y53.588 E.54568
G1 X101.206 Y53.424 E.02278
G1 X113.838 Y66.056 E.56458
G1 X113.605 Y66.359 E.01208
G1 X100.51 Y53.265 E.58525
G1 X99.848 Y53.14 E.02129
G1 X113.423 Y66.716 E.60675
G1 X113.292 Y67.122 E.01348
G1 X99.185 Y53.015 E.63051
G1 X98.554 Y52.921 E.02016
G1 X113.415 Y67.783 E.66423
M204 P1000
G1 E-2.24 F4200
;WIPE_START
G1 F7200
G1 X112.19 Y66.558 E-.96
;WIPE_END
G1 Z.4 F720
G1 X116.398 Y69.69 F9000
G1 Z.2 F720
G1 E3.2 F2400
M204 P600
G1 F1200
G1 X116.678 Y69.97 E.01251
G1 X116.572 Y70.402 E.01406
G1 X116.116 Y69.946 E.02038
G3 X115.638 Y70.006 I-.443 J-1.61 E.01528
G1 X116.435 Y70.802 E.0356
G1 X116.297 Y71.202 E.01337
G1 X115.027 Y69.932 E.05676
G3 X113.317 Y68.222 I.57 J-2.28 E.08028
G1 X97.925 Y52.83 E.68794
G1 X97.313 Y52.755 E.01949
G1 X116.135 Y71.578 E.84126
G1 X115.969 Y71.949 E.01285
G1 X96.714 Y52.694 E.86059
G1 X96.116 Y52.634 E.01899
G1 X115.792 Y72.309 E.87939
G1 X115.6 Y72.655 E.01251
G1 X95.544 Y52.599 E.89639
G1 X94.971 Y52.563 E.01814
M73 P4 R24
G1 X115.409 Y73.001 E.91347
G1 X115.196 Y73.326 E.01228
G1 X94.408 Y52.538 E.92911
G1 X93.859 Y52.527 E.01735
G1 X114.981 Y73.648 E.94401
G1 X114.761 Y73.966 E.01222
G1 X93.316 Y52.521 E.95847
G1 X92.785 Y52.528 E.01678
G1 X114.525 Y74.267 E.97164
G1 X114.289 Y74.569 E.01211
G1 X92.254 Y52.534 E.98484
G1 X91.724 Y52.541 E.01675
G1 X114.044 Y74.861 E.99758
G1 X113.788 Y75.142 E.01201
G1 X91.211 Y52.566 E1.00905
G1 X90.704 Y52.597 E.01605
G1 X113.531 Y75.424 E1.02024
G1 X113.265 Y75.695 E.012
G1 X90.198 Y52.628 E1.03097
G1 X89.706 Y52.673 E.01561
M73 P5 R24
G1 X112.991 Y75.958 E1.04071
G1 X112.716 Y76.221 E.01203
G1 X89.218 Y52.724 E1.05021
G1 X88.731 Y52.774 E.01547
G1 X112.432 Y76.474 E1.05928
G1 X112.139 Y76.72 E.01209
G1 X88.256 Y52.836 E1.06746
G1 X87.786 Y52.904 E.01501
G1 X111.847 Y76.965 E1.07539
G1 X111.677 Y77.107 E.007
G1 X111.547 Y77.203 E.00511
G1 X87.317 Y52.972 E1.08297
G1 X86.856 Y53.049 E.01477
G1 X111.238 Y77.431 E1.08974
G1 X110.929 Y77.659 E.01214
G1 X86.404 Y53.134 E1.09613
G1 X85.952 Y53.22 E.01454
G1 X110.615 Y77.883 E1.1023
G1 X110.29 Y78.095 E.01226
M73 P6 R24
G1 X85.504 Y53.309 E1.1078
G1 X85.069 Y53.411 E.01412
G1 X109.964 Y78.306 E1.11267
G1 X109.638 Y78.518 E.01229
G1 X84.633 Y53.513 E1.11759
G1 X84.197 Y53.615 E.01415
G1 X109.296 Y78.714 E1.12179
G1 X108.955 Y78.91 E.01243
G1 X83.778 Y53.733 E1.12527
G1 X83.358 Y53.851 E.01379
G1 X108.613 Y79.106 E1.12876
G1 X108.26 Y79.291 E.0126
G1 X82.939 Y53.969 E1.13173
G1 X82.529 Y54.097 E.01357
M73 P6 R23
G1 X107.903 Y79.471 E1.13408
G1 X107.546 Y79.651 E.01264
M73 P7 R23
G1 X82.126 Y54.231 E1.13613
G1 X81.722 Y54.365 E.01345
G1 X107.182 Y79.825 E1.13792
G1 X106.81 Y79.99 E.01286
G1 X81.323 Y54.503 E1.13913
G1 X80.935 Y54.653 E.01315
G1 X106.437 Y80.155 E1.1398
G1 X106.063 Y80.319 E.01291
G1 X80.546 Y54.802 E1.14047
G1 X80.158 Y54.951 E.01314
G1 X105.675 Y80.468 E1.14047
G1 X105.287 Y80.617 E.01314
G1 X79.785 Y55.115 E1.1398
G1 X79.412 Y55.28 E.01289
G1 X104.899 Y80.766 E1.13911
G1 X104.5 Y80.905 E.01335
M73 P8 R23
G1 X79.039 Y55.445 E1.13794
G1 X78.676 Y55.619 E.01272
G1 X104.096 Y81.039 E1.13613
G1 X103.692 Y81.173 E.01345
G1 X78.319 Y55.799 E1.13406
G1 X77.961 Y55.979 E.01266
G1 X103.283 Y81.301 E1.13175
G1 X102.864 Y81.419 E.01376
G1 X77.609 Y56.164 E1.12876
G1 X77.267 Y56.36 E.01246
G1 X102.444 Y81.537 E1.12527
G1 X102.024 Y81.655 E.01379
G1 X76.925 Y56.556 E1.12179
G1 X76.584 Y56.751 E.01241
G1 X101.589 Y81.757 E1.11761
G1 X101.153 Y81.858 E.01414
G1 X76.258 Y56.963 E1.11267
G1 X75.932 Y57.175 E.01229
M73 P9 R23
G1 X100.717 Y81.96 E1.10775
G1 X100.27 Y82.05 E.01441
G1 X75.606 Y57.387 E1.10232
G1 X75.293 Y57.611 E.01216
G1 X99.818 Y82.136 E1.09613
G1 X99.365 Y82.221 E.01457
G1 X74.983 Y57.839 E1.08974
G1 X74.674 Y58.067 E.01214
G1 X98.905 Y82.298 E1.08299
G1 X98.435 Y82.366 E.01501
G1 X74.375 Y58.305 E1.07537
G1 X74.082 Y58.55 E.01207
G1 X97.966 Y82.434 E1.06748
G1 X97.49 Y82.496 E.01517
G1 X73.79 Y58.795 E1.05928
G1 X73.506 Y59.049 E.01204
G1 X97.003 Y82.546 E1.05019
G1 X96.516 Y82.596 E.01547
M73 P10 R23
G1 X73.231 Y59.312 E1.04069
G1 X72.956 Y59.574 E.012
G1 X96.024 Y82.642 E1.03101
G1 X95.517 Y82.673 E.01605
G1 X72.69 Y59.846 E1.02024
G1 X72.434 Y60.127 E.01201
G1 X95.011 Y82.704 E1.00907
G1 X94.499 Y82.73 E.0162
G1 X72.178 Y60.409 E.99763
G1 X71.933 Y60.701 E.01205
G1 X93.972 Y82.741 E.98504
G1 X93.446 Y82.751 E.01663
G1 X71.697 Y61.002 E.97206
G1 X71.461 Y61.304 E.01211
M73 P10 R22
G1 X92.911 Y82.754 E.9587
G1 X92.362 Y82.743 E.01735
G1 X71.241 Y61.621 E.94401
G1 X71.026 Y61.944 E.01226
M73 P11 R22
G1 X91.813 Y82.732 E.92909
G1 X91.251 Y82.706 E.01778
G1 X70.813 Y62.269 E.91344
G1 X70.621 Y62.615 E.01251
G1 X90.678 Y82.671 E.89642
G1 X90.105 Y82.636 E.01814
G1 X70.43 Y62.961 E.87936
G1 X70.252 Y63.32 E.01266
G1 X89.508 Y82.576 E.86064
G1 X88.908 Y82.514 E.01906
G1 X70.086 Y63.692 E.84124
G1 X69.924 Y64.068 E.01294
G1 X88.297 Y82.44 E.82115
G1 X87.668 Y82.349 E.02009
G1 X69.787 Y64.468 E.79918
G1 X69.649 Y64.868 E.01337
G1 X87.037 Y82.255 E.77713
G1 X86.374 Y82.13 E.02132
G1 X69.541 Y65.297 E.75234
G1 X69.436 Y65.729 E.01405
G1 X85.711 Y82.005 E.72743
G1 X85.015 Y81.846 E.02256
G1 X69.36 Y66.191 E.69969
G1 X69.292 Y66.66 E.01498
M73 P12 R22
G1 X84.313 Y81.682 E.67138
G1 X83.574 Y81.48 E.02421
G1 X69.261 Y67.167 E.63971
G1 X69.241 Y67.684 E.01635
G1 X82.826 Y81.269 E.60717
G1 X82.024 Y81.005 E.02668
G1 X69.268 Y68.249 E.57012
G2 X69.326 Y68.844 I3.781 J-.066 E.01891
G1 X81.201 Y80.72 E.53077
G1 X80.328 Y80.384 E.02956
G1 X69.42 Y69.476 E.48753
G1 X69.593 Y70.186 E.0231
G1 X79.384 Y79.977 E.4376
G3 X78.361 Y79.492 I5.273 J-12.434 E.03579
G1 X69.848 Y70.979 E.38048
G2 X70.229 Y71.898 I7.273 J-2.481 E.03146
G1 X77.207 Y78.876 E.31188
G3 X75.808 Y78.014 I8.732 J-15.748 E.05195
G1 X70.839 Y73.045 E.22209
G2 X72.79 Y75.533 I12.856 J-8.07 E.1001
G1 X74.658 Y77.401 E.08349
M204 P1000
M486 S-1
M486 S1
G1 E-2.24 F4200
;WIPE_START
G1 F7200
G1 X73.433 Y76.176 E-.96
;WIPE_END
G1 Z.4 F720
G1 X116.703 Y106.779 F9000
G1 Z.2 F720
G1 E3.2 F2400
M204 P600
;TYPE:Perimeter
;WIDTH:0.419999
G1 F1200
G2 X117.021 Y106.698 I-.373 J-2.14 E.0103
G2 X117.94 Y106.029 I-.832 J-2.106 E.03603
G3 X116.893 Y109.457 I-10.448 J-1.317 E.11293
G3 X114.366 Y112.944 I-12.916 J-6.7 E.13552
G3 X109.384 Y116.614 I-14.85 J-14.94 E.19472
G3 X101.384 Y119.471 I-14.193 J-27.112 E.26721
G3 X84.814 Y119.133 I-7.548 J-36.308 E.52407
G3 X77.118 Y115.961 I7.052 J-28.028 E.26191
G3 X72.515 Y112.107 I9.983 J-16.6 E.18899
G3 X70.34 Y108.539 I10.229 J-8.684 E.13155
G3 X70.34 Y101.035 I9.404 J-3.752 E.24103
G3 X72.515 Y97.467 I12.404 J5.116 E.13155
G3 X77.118 Y93.613 I14.586 J12.746 E.18899
G3 X84.814 Y90.44 I14.748 J24.856 E.26192
G3 X104.235 Y90.836 I8.989 J35.627 E.61638
G3 X111.597 Y94.31 I-7.768 J25.998 E.25621
M73 P13 R22
G3 X115.804 Y98.33 I-10.011 J14.689 E.18327
G3 X117.622 Y101.964 I-10.078 J7.315 E.12798
G3 X117.949 Y103.576 I-10.373 J2.94 E.05162
G2 X115.168 Y103.109 I-1.635 J1.222 E.09761
G2 X114.528 Y103.834 I1.419 J1.901 E.03054
G2 X114.286 Y104.734 I2.187 J1.069 E.0294
G2 X115.407 Y106.606 I2.102 J.013 E.07193
G2 X116.644 Y106.788 I.923 J-1.967 E.03977
M204 P1000
G1 E-2.24 F4200
;WIPE_START
G1 F7200
G1 X116.703 Y106.779 E-.03307
G2 X117.021 Y106.698 I-.376 J-2.14 E-.18203
G2 X117.94 Y106.029 I-.831 J-2.107 E-.63674
G3 X117.914 Y106.222 I-10.447 J-1.318 E-.10816
;WIPE_END
G1 Z.4 F720
G1 X118.397 Y104.797 F9000
G1 Z.2 F720
G1 E3.2 F2400
M204 P600
;TYPE:External perimeter
;WIDTH:0.463123
G1 F1200
G2 X118.363 Y105.768 I9.702 J.825 E.03396
;WIDTH:0.419999
G3 X116.715 Y110.556 I-11.504 J-1.283 E.16006
G3 X113.773 Y114.033 I-13.739 J-8.642 E.14328
G3 X108.341 Y117.563 I-15.242 J-17.513 E.20378
G3 X98.455 Y120.342 I-13.798 J-30.103 E.32329
G3 X83.297 Y119.098 I-4.604 J-36.87 E.48026
G3 X75.831 Y115.574 I7.88 J-26.363 E.25984
G3 X71.533 Y111.465 I10.23 J-15.005 E.18728
G3 X69.658 Y107.716 I10.396 J-7.543 E.13202
G3 X69.988 Y100.896 I10.082 J-2.929 E.21805
G3 X72.227 Y97.223 I12.768 J5.263 E.13543
G3 X76.921 Y93.291 I14.879 J12.996 E.19277
G3 X84.72 Y90.075 I14.947 J25.183 E.26543
G3 X104.346 Y90.476 I9.083 J35.993 E.62289
G3 X111.812 Y94 I-7.88 J26.362 E.25984
G3 X116.109 Y98.108 I-10.231 J15.004 E.18724
G3 X117.985 Y101.857 I-10.396 J7.544 E.13203
G3 X118.333 Y103.601 I-11.105 J3.129 E.05582
;WIDTH:0.431441
G1 X118.372 Y104.108 E.01643
;WIDTH:0.445982
G1 X118.395 Y104.737 E.02109
M204 P1000
G1 E-2.24 F4200
;WIPE_START
G1 F7200
G1 X118.397 Y104.797 E-.03327
G2 X118.363 Y105.768 I9.702 J.826 E-.53865
;WIPE_END
G1 E-.38808 F4200
G1 Z.4 F720
G1 X116.567 Y106.42 F9000
G1 Z.2 F720
G1 E3.2 F2400
M204 P600
;WIDTH:0.419999
G1 F1200
G3 X115.332 Y106.119 I-.248 J-1.669 E.04086
G3 X114.785 Y105.414 I1.427 J-1.671 E.02817
G3 X115.341 Y103.447 I1.581 J-.615 E.06879
G3 X117.258 Y103.421 I.978 J1.369 E.06396
G3 X117.766 Y103.98 I-1.176 J1.578 E.02383
;WIDTH:0.457795
G1 X117.966 Y104.453 E.01772
G1 X117.993 Y104.813 E.01245
;WIDTH:0.457445
G1 X117.942 Y105.223 E.01424
G1 X117.674 Y105.748 E.02032
;WIDTH:0.419999
G1 X117.444 Y106.009 E.01091
G3 X116.626 Y106.41 I-1.125 J-1.258 E.02892
M204 P1000
G1 E-2.24 F4200
;WIPE_START
G1 F7200
G1 X116.567 Y106.42 E-.03316
G3 X115.332 Y106.119 I-.247 J-1.669 E-.72225
G3 X115.073 Y105.857 I1.426 J-1.672 E-.20459
;WIPE_END
G1 Z.4 F720
G1 X115.605 Y98.351 F9000
G1 Z.2 F720
G1 E3.2 F2400
M204 P600
;TYPE:Solid infill
;WIDTH:0.423
G1 F1200
G2 X113.295 Y96.075 I-68.615 J67.329 E.10249
G2 X111.124 Y94.407 I-13.333 J15.111 E.08659
G1 X116.093 Y99.377 E.22211
