; generated by PrusaSlicer 2.7.1 on 2023-12-18 at 09:47:50 UTC


;
;

;
;

;
;

;
;
; 

; external perimeters extrusion width = 0.45mm
; perimeters extrusion width = 0.45mm
; infill extrusion width = 0.45mm
; solid infill extrusion width = 0.45mm
; top infill extrusion width = 0.40mm
; first layer extrusion width = 0.42mm

; external perimeters extrusion width = 0.45mm
; perimeters extrusion width = 0.45mm
; infill extrusion width = 0.45mm
; solid infill extrusion width = 0.45mm
; top infill extrusion width = 0.40mm
; first layer extrusion width = 0.42mm

M73 P0 R67
M201 X2500 Y2500 Z400 E5000 ; sets maximum accelerations, mm/sec^2
M203 X180 Y180 Z12 E80 ; sets maximum feedrates, mm / sec
M204 P2000 R1250 T2500 ; sets acceleration (P, T) and retract acceleration (R), mm/sec^2
M205 X8.00 Y8.00 Z2.00 E10.00 ; sets the jerk limits, mm/sec
M205 S0 T0 ; sets the minimum extruding and travel feed rate, mm/sec

M486 S0
M486 AToyota-Emblem-Small.stl
M486 S-1
M486 S1
M486 AToyota-Emblem-Small.stl
M486 S-1

;TYPE:Custom
M862.3 P "MINI" ; printer model check
G90 ; use absolute coordinates
M83 ; extruder relative mode
M104 S170 ; set extruder temp for bed leveling
M140 S60 ; set bed temp
M109 R170 ; wait for bed leveling temp
M190 S60 ; wait for bed temp
M204 T1250 ; set travel acceleration
G28 ; home all without mesh bed level
G29 ; mesh bed leveling 
M204 T2500 ; restore travel acceleration
M104 S215 ; set extruder temp
G92 E0
G1 Y-2 X179 F2400
G1 Z3 F720
M109 S215 ; wait for extruder temp

; intro line
G1 X170 F1000
G1 Z0.2 F720
G1 X110 E8 F900
G1 X40 E10 F700
G92 E0

M221 S95 ; set flow
G21 ; set units to millimeters
G90 ; use absolute coordinates
M83 ; use relative distances for extrusion
M900 K0.2 ; Filament gcode LA 1.5
; ; Filament gcode LA 1.0

M107
;LAYER_CHANGE
;Z:0.2
;HEIGHT:0.2
;BEFORE_LAYER_CHANGE
G92 E0.0
;0.2


G1 E-3.2 F4200
G1 Z.2 F720
;AFTER_LAYER_CHANGE
;0.2
G1 X61.27 Y64.761 F9000
G1 Z.2 F720
G1 E3.2 F2400
M204 P600
;TYPE:Skirt/Brim
;WIDTH:0.42
G1 F1200
G3 X61.451 Y64.596 I4.561 J4.821 E.00768
G1 X74.522 Y56.023 E.49012
G3 X90.895 Y51.038 I17.856 J29.269 E.54236
G3 X95.345 Y51.024 I2.38 J49.975 E.13957
G3 X112.654 Y56.414 I-1.206 J34.363 E.57521
G3 X119.651 Y64.935 I-9.652 J15.06 E.35142
G3 X120.364 Y68.813 I-12.958 J4.385 E.12406
G1 X120.457 Y110.822 E1.31717
G3 X117.119 Y119.534 I-14.03 J-.379 E.2982
G3 X108.178 Y125.995 I-18.579 J-16.294 E.34881
G3 X78.384 Y126.067 I-14.983 J-35.408 E.95928
G1 X75.551 Y124.609 E.0999
G1 X62.183 Y116.508 E.4901
G3 X59.286 Y111.248 I3.595 J-5.406 E.19573
G1 X59.196 Y69.466 E1.31005
G3 X61.227 Y64.803 I6.635 J.116 E.16366
M204 P1000
M486 S0
G1 E-2.24 F4200
;WIPE_START
G1 F7200
G1 X61.27 Y64.761 E-.03331
G3 X61.451 Y64.596 I4.56 J4.821 E-.13573
G1 X62.644 Y63.813 E-.79096
;WIPE_END
G1 Z.4 F720
G1 X110.885 Y59.628 F9000
G1 Z.2 F720
G1 E3.2 F2400
M204 P600
;TYPE:Perimeter
;WIDTH:0.615458
G1 F1200
G1 X110.95 Y59.644 E.00319
;WIDTH:0.573641
G1 X111.014 Y59.66 E.00291
;WIDTH:0.531824
G1 X111.079 Y59.676 E.00272
;WIDTH:0.490007
G1 X111.143 Y59.692 E.00245
;WIDTH:0.44819
G1 X111.207 Y59.709 E.00223
;WIDTH:0.406373
G1 X111.272 Y59.725 E.00202
;WIDTH:0.389948
G1 X111.581 Y59.964 E.01127
;WIDTH:0.431204
G1 X112.134 Y60.431 E.02337
;WIDTH:0.474432
G1 X112.751 Y61.001 E.03014
;WIDTH:0.506966
G1 X113.154 Y61.42 E.02243
;WIDTH:0.5395
G1 X113.557 Y61.84 E.02403
;WIDTH:0.570251
G1 X113.877 Y62.219 E.02175
;WIDTH:0.601002
G2 X114.285 Y62.673 I2.918 J-2.205 E.02836
;WIDTH:0.555752
G1 X114.372 Y62.749 E.00493
;WIDTH:0.510501
G1 X114.459 Y62.825 E.00449
;WIDTH:0.46525
G1 X114.546 Y62.901 E.00406
;WIDTH:0.419999
G3 X116.693 Y67.472 I-8.363 J6.718 E.15984
G3 X116.842 Y68.901 I-11.165 J1.885 E.04508
G3 X116.48 Y71.588 I-9.06 J.149 E.08533
;WIDTH:0.464419
G1 X116.427 Y71.686 E.0039
;WIDTH:0.508839
G1 X116.374 Y71.783 E.00428
;WIDTH:0.553259
G1 X116.321 Y71.88 E.00469
;WIDTH:0.597678
G2 X116.081 Y72.5 I3.944 J1.887 E.0307
;WIDTH:0.552906
G1 X115.893 Y73.022 E.02353
;WIDTH:0.508133
G1 X115.643 Y73.541 E.02228
;WIDTH:0.4592
G1 X115.392 Y74.061 E.01999
;WIDTH:0.410267
G1 X115.071 Y74.623 E.01977
;WIDTH:0.407492
G1 X114.997 Y74.688 E.00299
;WIDTH:0.451164
G1 X114.922 Y74.754 E.00339
;WIDTH:0.494836
G1 X114.847 Y74.819 E.00373
;WIDTH:0.538508
G1 X114.772 Y74.884 E.00409
;WIDTH:0.58218
G1 X114.698 Y74.949 E.00442
G1 X114.716 Y74.854 E.00434
;WIDTH:0.538508
G1 X114.734 Y74.759 E.00398
;WIDTH:0.494836
G1 X114.752 Y74.664 E.00363
;WIDTH:0.451164
G1 X114.77 Y74.57 E.00325
;WIDTH:0.407492
G1 X114.788 Y74.475 E.00293
;WIDTH:0.407071
G1 X114.99 Y74.029 E.01483
;WIDTH:0.450322
G1 X115.192 Y73.583 E.01659
;WIDTH:0.492868
G1 X115.359 Y73.112 E.0187
;WIDTH:0.535414
G1 X115.526 Y72.641 E.02046
;WIDTH:0.566546
G1 X115.632 Y72.23 E.01848
;WIDTH:0.597678
G1 X115.738 Y71.82 E.01953
G1 X115.729 Y71.726 E.00436
;WIDTH:0.553259
G1 X115.72 Y71.632 E.00401
;WIDTH:0.508839
G1 X115.711 Y71.538 E.00366
;WIDTH:0.464419
G1 X115.702 Y71.444 E.00331
;WIDTH:0.419999
G2 X115.416 Y66.83 I-11.377 J-1.612 E.14594
G2 X113.898 Y63.335 I-12.518 J3.361 E.11991
;WIDTH:0.46525
G1 X113.864 Y63.238 E.00361
;WIDTH:0.510501
G1 X113.83 Y63.14 E.00403
;WIDTH:0.555752
G1 X113.795 Y63.042 E.00444
;WIDTH:0.601002
G1 X113.761 Y62.944 E.00481
G1 X113.409 Y62.478 E.0271
;WIDTH:0.56722
G1 X113.057 Y62.013 E.02543
;WIDTH:0.533437
G1 X112.71 Y61.615 E.02154
;WIDTH:0.501814
G1 X112.364 Y61.218 E.02009
;WIDTH:0.47019
G1 X111.993 Y60.844 E.01872
;WIDTH:0.437875
G1 X111.622 Y60.469 E.01732
;WIDTH:0.405559
G1 X111.067 Y59.972 E.02246
;WIDTH:0.406373
G1 X111.037 Y59.914 E.00197
;WIDTH:0.44819
G1 X111.006 Y59.857 E.00219
;WIDTH:0.490007
G1 X110.976 Y59.8 E.00239
;WIDTH:0.531824
G1 X110.946 Y59.743 E.00262
;WIDTH:0.573641
G1 X110.916 Y59.685 E.00288
;WIDTH:0.615458
G1 X110.913 Y59.681 E.00024
M204 P1000
G1 E-2.24 F4200
;WIPE_START
G1 F7200
G1 X110.885 Y59.628 E-.03322
G1 X110.95 Y59.644 E-.0371
;WIPE_END
G1 E-.88968 F4200
G1 Z.4 F720
G1 X111.08 Y78.62 F9000
G1 Z.2 F720
G1 E3.2 F2400
M204 P600
;WIDTH:0.419999
G1 F1200
G3 X107.07 Y80.878 I-16.361 J-24.366 E.14444
G2 X108.343 Y79.531 I-3.182 J-4.282 E.05841
G2 X108.703 Y78.69 I-2.831 J-1.709 E.02878
G2 X108.807 Y77.583 I-2.984 J-.838 E.03505
G2 X108.572 Y76.719 I-7.068 J1.457 E.02809
G2 X107.193 Y75.021 I-4.445 J2.203 E.06915
G2 X104.879 Y73.684 I-5.955 J7.628 E.08406
G2 X100.115 Y72.28 I-8.754 J20.929 E.15604
G1 X98.678 Y72.037 E.0457
G2 X98.252 Y72.137 I-.064 J.686 E.01396
;WIDTH:0.463753
G1 X98.117 Y72.324 E.00807
;WIDTH:0.507506
G1 X97.981 Y72.51 E.0089
G1 X97.891 Y72.297 E.00893
;WIDTH:0.463753
G1 X97.802 Y72.084 E.00808
;WIDTH:0.419999
G2 X97.419 Y71.89 I-.493 J.497 E.01368
G2 X91.345 Y71.733 I-4.209 J45.182 E.19065
G1 X88.991 Y71.883 E.07396
G2 X88.571 Y72.096 I.08 J.678 E.01508
;WIDTH:0.468183
G1 X88.517 Y72.201 E.00418
;WIDTH:0.516366
G1 X88.463 Y72.306 E.00465
;WIDTH:0.564549
G1 X88.409 Y72.411 E.00512
;WIDTH:0.612732
G1 X88.355 Y72.516 E.00559
G1 X88.277 Y72.428 E.00557
;WIDTH:0.564549
G1 X88.198 Y72.34 E.00513
;WIDTH:0.516366
G1 X88.119 Y72.253 E.00463
;WIDTH:0.468183
G1 X88.041 Y72.165 E.00416
;WIDTH:0.419999
G2 X87.604 Y72.06 I-.374 J.596 E.01434
G2 X83.157 Y73.065 I4.541 J30.441 E.14308
G2 X80.809 Y74.023 I6.616 J19.569 E.07956
G2 X78.856 Y75.403 I3.732 J7.356 E.07524
G2 X77.927 Y76.78 I2.903 J2.96 E.05244
G2 X77.742 Y78.044 I2.818 J1.057 E.04036
G2 X78.369 Y79.761 I3.526 J-.314 E.05797
G2 X79.912 Y81.227 I5.275 J-4.008 E.06702
G3 X75.762 Y78.94 I11.535 J-25.834 E.14874
G1 X75.832 Y78.92 E.00228
G1 X76.222 Y78.532 E.01725
G1 X76.234 Y78.274 E.0081
G3 X75.984 Y76.653 I12.615 J-2.776 E.05146
G3 X76.283 Y75.509 I3.202 J.226 E.03729
G3 X77.479 Y74.036 I4.801 J2.677 E.05979
G3 X80.479 Y72.153 I8.368 J9.995 E.1114
G3 X86.209 Y70.496 I8.187 J17.583 E.18777
G1 X87.434 Y70.449 E.03844
G1 X87.742 Y70.379 E.0099
G1 X87.929 Y70.217 E.00776
G1 X87.97 Y70.041 E.00567
;WIDTH:0.393199
G1 X88.012 Y69.866 E.00524
;WIDTH:0.366399
G1 X87.996 Y69.626 E.00647
;WIDTH:0.384959
G1 X87.981 Y68.523 E.03137
;WIDTH:0.401373
G1 X88.008 Y67.466 E.03151
;WIDTH:0.422094
G1 X88.091 Y66.293 E.03708
;WIDTH:0.424311
G1 X88.096 Y66.222 E.00226
;WIDTH:0.438267
G1 X88.175 Y65.53 E.0229
;WIDTH:0.462853
G1 X88.328 Y64.516 E.03581
;WIDTH:0.468702
G1 X88.351 Y64.376 E.00502
;WIDTH:0.486005
G1 X88.474 Y63.746 E.02365
;WIDTH:0.520542
G1 X88.714 Y62.747 E.0408
;WIDTH:0.531315
G1 X88.761 Y62.565 E.00763
;WIDTH:0.559217
G1 X88.943 Y61.948 E.02762
;WIDTH:0.596179
G1 X89.171 Y61.289 E.03208
G1 X89.188 Y61.162 E.00589
;WIDTH:0.552134
G1 X89.206 Y61.034 E.00547
;WIDTH:0.508089
G1 X89.223 Y60.907 E.00496
;WIDTH:0.464044
G1 X89.24 Y60.78 E.00449
;WIDTH:0.419999
G3 X92.131 Y55.542 I16.834 J5.874 E.18848
G1 X92.489 Y55.003 E.02029
G1 X92.645 Y54.512 E.01615
G1 X92.636 Y54.336 E.00553
G2 X93.288 Y54.339 I.337 J-2.275 E.02051
G1 X93.18 Y54.575 E.00814
G2 X93.331 Y54.921 I.681 J-.093 E.01199
G3 X94.174 Y55.554 I-5.492 J8.182 E.03307
G3 X95.524 Y56.834 I-2.749 J4.254 E.05866
G3 X96.86 Y59.482 I-9.227 J6.317 E.09327
G1 X97.154 Y60.356 E.02891
;WIDTH:0.459182
G1 X97.221 Y60.669 E.01108
;WIDTH:0.498365
G1 X97.288 Y60.981 E.01208
;WIDTH:0.537548
G1 X97.455 Y61.652 E.02844
;WIDTH:0.496995
G1 X97.554 Y62.01 E.01402
;WIDTH:0.456441
G1 X97.659 Y62.441 E.01525
;WIDTH:0.424916
G1 X97.764 Y62.872 E.01409
;WIDTH:0.39339
G1 X97.882 Y63.47 E.01776
;WIDTH:0.405958
G1 X97.868 Y63.54 E.00215
;WIDTH:0.452588
G1 X97.854 Y63.61 E.00243
;WIDTH:0.499218
G1 X97.84 Y63.68 E.00271
;WIDTH:0.545848
G1 X97.826 Y63.75 E.00299
;WIDTH:0.592478
G1 X97.811 Y63.82 E.00327
;WIDTH:0.639108
G1 X97.797 Y63.89 E.00354
G1 X97.76 Y63.832 E.00341
;WIDTH:0.592478
G1 X97.723 Y63.773 E.00318
;WIDTH:0.545848
G1 X97.686 Y63.715 E.00288
;WIDTH:0.499218
G1 X97.649 Y63.657 E.00261
;WIDTH:0.452588
G1 X97.612 Y63.598 E.00237
;WIDTH:0.405958
G1 X97.574 Y63.54 E.00209
;WIDTH:0.386635
G1 X97.466 Y63.137 E.01192
;WIDTH:0.413942
G1 X97.357 Y62.735 E.01285
;WIDTH:0.46276
G1 X97.141 Y62.075 E.02424
;WIDTH:0.489185
G1 X96.976 Y61.696 E.01534
;WIDTH:0.515609
G2 X96.573 Y60.974 I-2.41 J.872 E.03264
;WIDTH:0.467804
G1 X96.334 Y60.631 E.01477
;WIDTH:0.419999
G2 X95.313 Y59.529 I-5.53 J4.105 E.0472
G2 X94.159 Y58.899 I-2.709 J3.584 E.04137
G2 X92.916 Y58.729 I-1.182 J4.011 E.03949
G2 X90.89 Y59.815 I.504 J3.373 E.07351
G2 X90.117 Y60.865 I5.504 J4.862 E.04094
;WIDTH:0.464044
G1 X90.01 Y61.019 E.00657
;WIDTH:0.508089
G1 X89.903 Y61.174 E.00729
;WIDTH:0.552134
G1 X89.795 Y61.329 E.008
;WIDTH:0.596179
G1 X89.688 Y61.484 E.00866
G1 X89.411 Y62.167 E.03391
;WIDTH:0.556637
G1 X89.177 Y62.866 E.03149
;WIDTH:0.520542
G1 X88.903 Y63.856 E.0408
;WIDTH:0.486005
G1 X88.895 Y63.888 E.00122
;WIDTH:0.48484
G1 X88.743 Y64.583 E.02614
;WIDTH:0.462853
G1 X88.565 Y65.594 E.03584
;WIDTH:0.438267
G1 X88.555 Y65.667 E.00242
;WIDTH:0.437694
G1 X88.469 Y66.323 E.02172
;WIDTH:0.422094
G1 X88.365 Y67.494 E.03707
;WIDTH:0.401373
G1 X88.348 Y67.721 E.00678
;WIDTH:0.392527
G1 X88.323 Y68.532 E.02359
;WIDTH:0.384959
G1 X88.302 Y69.627 E.03115
;WIDTH:0.353645
G1 X88.31 Y69.754 E.00329
;WIDTH:0.386822
G1 X88.413 Y69.934 E.00593
;WIDTH:0.419999
G2 X88.662 Y70.186 I.357 J-.104 E.01158
G1 X88.869 Y70.211 E.00654
G3 X95.072 Y70.094 I3.89 J41.837 E.1947
G3 X97.486 Y70.27 I-3.415 J63.567 E.07589
G2 X97.821 Y70.194 I-.059 J-1.037 E.01082
G1 X98.062 Y69.826 E.01379
G1 X98.194 Y70.245 E.01377
G2 X98.583 Y70.418 I.471 J-.534 E.01356
G3 X106.598 Y72.309 I-.115 J18.419 E.2604
G3 X109.032 Y73.955 I-5.517 J10.785 E.09236
G3 X110.081 Y75.185 I-5.223 J5.515 E.05078
G3 X110.613 Y76.383 I-4.386 J2.666 E.04121
G1 X110.712 Y76.933 E.01752
G1 X110.77 Y78.205 E.03992
G1 X111.044 Y78.572 E.01436
M204 P1000
G1 X111.282 Y78.346 F9000
M204 P600
;TYPE:External perimeter
G1 F1200
G1 X111.146 Y78.173 E.0069
G1 X111.087 Y76.891 E.04024
G1 X110.98 Y76.289 E.01917
G2 X110.401 Y74.984 I-5.344 J1.587 E.04489
G2 X109.29 Y73.678 I-6.652 J4.54 E.05386
G2 X106.768 Y71.973 I-8.214 J9.425 E.09569
G2 X98.596 Y70.041 I-8.299 J16.863 E.26553
G1 X98.466 Y69.984 E.00445
G1 X98.419 Y69.781 E.00653
G2 X98.413 Y64.897 I-24.286 J-2.412 E.15339
G2 X97.124 Y59.09 I-23.458 J2.16 E.187
G2 X95.83 Y56.613 I-10.745 J4.036 E.08784
G2 X94.588 Y55.379 I-4.388 J3.173 E.05514
G1 X93.641 Y54.692 E.03668
G1 X93.556 Y54.547 E.00527
G3 X93.838 Y54.249 I.442 J.136 E.01333
;WIDTH:0.390804
G1 X94.156 Y54.232 E.00921
;WIDTH:0.3862
G1 X95.148 Y54.29 E.02836
;WIDTH:0.387134
G1 X96.102 Y54.351 E.02736
;WIDTH:0.398577
G1 X97.044 Y54.453 E.02802
;WIDTH:0.409681
G1 X98.073 Y54.591 E.03166
;WIDTH:0.42152
G1 X99.639 Y54.866 E.05005
;WIDTH:0.424128
G1 X101.194 Y55.216 E.05052
;WIDTH:0.421812
G1 X102.347 Y55.531 E.03766
;WIDTH:0.418956
G1 X103.483 Y55.889 E.03724
;WIDTH:0.42169
G1 X103.584 Y55.925 E.00338
M73 P1 R67
;WIDTH:0.424193
G1 X104.996 Y56.452 E.04778
;WIDTH:0.443145
G1 X106.087 Y56.94 E.03977
;WIDTH:0.487084
G1 X106.811 Y57.308 E.02999
;WIDTH:0.513973
G1 X107.317 Y57.59 E.02269
;WIDTH:0.540862
G1 X107.823 Y57.872 E.02398
;WIDTH:0.565771
G3 X108.485 Y58.311 I-1.529 J3.026 E.03461
;WIDTH:0.517181
G1 X108.661 Y58.46 E.00909
;WIDTH:0.46859
G1 X108.837 Y58.608 E.00814
;WIDTH:0.419999
G3 X110.553 Y59.969 I-12.184 J17.137 E.0687
G3 X113.827 Y63.962 I-10.612 J12.037 E.16261
G3 X115.447 Y69.79 I-10.386 J6.028 E.19173
G3 X115.101 Y72.548 I-12.222 J-.133 E.08734
G3 X113.795 Y75.657 I-13.08 J-3.669 E.10601
;WIDTH:0.468564
G1 X113.75 Y75.776 E.0045
;WIDTH:0.517129
G1 X113.704 Y75.896 E.00507
;WIDTH:0.565694
G3 X113.496 Y76.242 I-.989 J-.36 E.01766
;WIDTH:0.540617
G1 X113.332 Y76.469 E.01159
;WIDTH:0.51554
G1 X113.062 Y76.817 E.01731
;WIDTH:0.480325
G1 X112.792 Y77.164 E.01599
;WIDTH:0.44511
G1 X112.41 Y77.585 E.01901
;WIDTH:0.427237
G1 X111.864 Y78.144 E.02497
;WIDTH:0.423265
G1 X111.696 Y78.298 E.00721
;WIDTH:0.419999
G1 X111.341 Y78.339 E.0112
M204 P1000
G1 E-2.24 F4200
;WIPE_START
G1 F7200
G1 X111.282 Y78.346 E-.03293
G1 X111.146 Y78.173 E-.12195
G1 X111.087 Y76.891 E-.71119
G1 X111.057 Y76.724 E-.09393
;WIPE_END
G1 Z.4 F720
G1 X88.844 Y69.834 F9000
G1 Z.2 F720
G1 E3.2 F2400
M204 P600
G1 F1200
G1 X88.726 Y69.802 E.00383
G1 X88.643 Y69.639 E.00574
G3 X88.845 Y66.359 I33.163 J.391 E.10308
G3 X89.83 Y62.32 I17.272 J2.072 E.13066
G3 X91.177 Y60.059 I7.019 J2.651 E.08295
G3 X92.455 Y59.212 I2.409 J2.248 E.04852
G3 X93.404 Y59.119 I.692 J2.159 E.03012
G3 X95.485 Y60.196 I-.47 J3.456 E.07493
G3 X96.78 Y62.244 I-5.058 J4.631 E.07637
G3 X97.603 Y65.564 I-12.721 J4.917 E.10753
G3 X97.723 Y69.71 I-25.767 J2.817 E.13019
G1 X97.63 Y69.869 E.00578
G1 X97.518 Y69.894 E.0036
G1 X96.4 Y69.799 E.03518
G1 X95.09 Y69.717 E.04115
G2 X88.904 Y69.829 I-2.33 J42.296 E.19416
M204 P1000
G1 E-2.24 F4200
;WIPE_START
G1 F7200
G1 X88.844 Y69.834 E-.03337
G1 X88.726 Y69.802 E-.06775
G1 X88.643 Y69.639 E-.10137
G3 X88.687 Y68.273 I33.163 J.396 E-.75751
;WIPE_END
G1 Z.4 F720
G1 X98.062 Y69.826 F9000
G1 Z.2 F720
G1 E3.2 F2400
M204 P600
;TYPE:Perimeter
;WIDTH:0.371062
G1 F1200
G1 X98.073 Y69.718 E.00296
;WIDTH:0.399718
G1 X98.101 Y69.19 E.01569
;WIDTH:0.432912
G1 X98.129 Y68.663 E.01711
;WIDTH:0.463072
G1 X98.141 Y67.404 E.04399
;WIDTH:0.49944
G1 X98.099 Y66.328 E.04088
;WIDTH:0.521616
G1 X98.03 Y65.529 E.03192
;WIDTH:0.56849
G1 X97.964 Y64.941 E.02586
;WIDTH:0.603799
G1 X97.88 Y64.416 E.0248
;WIDTH:0.639108
G1 X97.797 Y63.89 E.0264
M204 P1000
G1 E-2.24 F4200
;WIPE_START
G1 F7200
G1 X97.88 Y64.416 E-.2951
;WIPE_END
G1 E-.6649 F4200
G1 Z.4 F720
G1 X96.924 Y76.817 F9000
G1 Z.2 F720
G1 E3.2 F2400
M204 P600
;WIDTH:0.622901
G1 F1200
G1 X96.927 Y76.884 E.00323
;WIDTH:0.579871
G1 X96.93 Y76.951 E.00299
;WIDTH:0.53684
G1 X96.933 Y77.018 E.00275
;WIDTH:0.49381
G1 X96.935 Y77.086 E.00255
;WIDTH:0.450779
G1 X96.938 Y77.153 E.00227
;WIDTH:0.407749
G1 X96.941 Y77.22 E.00203
;WIDTH:0.370333
G1 X96.908 Y77.306 E.00251
;WIDTH:0.402659
G1 X96.616 Y77.985 E.02211
;WIDTH:0.449686
G1 X96.373 Y78.468 E.01829
;WIDTH:0.467878
G1 X95.73 Y79.66 E.04786
;WIDTH:0.419999
G3 X94.41 Y81.179 I-5.739 J-3.655 E.06333
G3 X93.507 Y81.666 I-2.13 J-2.869 E.03228
G3 X92.572 Y81.65 I-.435 J-1.973 E.02959
G3 X91.397 Y80.885 I1.048 J-2.894 E.04435
G1 X91.054 Y80.496 E.01626
