; generated by PrusaSlicer 2.7.1 on 2023-12-18 at 16:25:52 UTC


;
;

;
;

;
;

;
;
; 

; external perimeters extrusion width = 0.45mm
; perimeters extrusion width = 0.45mm
; infill extrusion width = 0.45mm
; solid infill extrusion width = 0.45mm
; top infill extrusion width = 0.40mm
; support material extrusion width = 0.35mm
; first layer extrusion width = 0.42mm

M73 P0 R38
M201 X2500 Y2500 Z400 E5000 ; sets maximum accelerations, mm/sec^2
M203 X180 Y180 Z12 E80 ; sets maximum feedrates, mm / sec
M204 P2000 R1250 T2500 ; sets acceleration (P, T) and retract acceleration (R), mm/sec^2
M205 X8.00 Y8.00 Z2.00 E10.00 ; sets the jerk limits, mm/sec
M205 S0 T0 ; sets the minimum extruding and travel feed rate, mm/sec

M486 S0
M486 Atoyota_visacka.stl (Instance 1)
M486 S-1
M486 S1
M486 Atoyota_visacka.stl (Instance 2)
M486 S-1

;TYPE:Custom
M862.3 P "MINI" ; printer model check
G90 ; use absolute coordinates
M83 ; extruder relative mode
M104 S170 ; set extruder temp for bed leveling
M140 S60 ; set bed temp
M109 R170 ; wait for bed leveling temp
M190 S60 ; wait for bed temp
M204 T1250 ; set travel acceleration
G28 ; home all without mesh bed level
G29 ; mesh bed leveling 
M204 T2500 ; restore travel acceleration
M104 S215 ; set extruder temp
G92 E0
G1 Y-2 X179 F2400
G1 Z3 F720
M109 S215 ; wait for extruder temp

; intro line
G1 X170 F1000
G1 Z0.2 F720
G1 X110 E8 F900
G1 X40 E10 F700
G92 E0

M221 S95 ; set flow
G21 ; set units to millimeters
G90 ; use absolute coordinates
M83 ; use relative distances for extrusion
M900 K0.2 ; Filament gcode LA 1.5
; ; Filament gcode LA 1.0

M107
;LAYER_CHANGE
;Z:0.2
;HEIGHT:0.2
;BEFORE_LAYER_CHANGE
G92 E0.0
;0.2


G1 E-3.2 F4200
G1 Z.2 F720
;AFTER_LAYER_CHANGE
;0.2
G1 X64.548 Y58.803 F9000
G1 Z.2 F720
G1 E3.2 F2400
M204 P600
;TYPE:Skirt/Brim
;WIDTH:0.42
G1 F1200
G1 X66.855 Y56.496 E.1023
G1 X68.4 Y55.804 E.05308
G1 X82.483 Y55.022 E.44224
G1 X97.389 Y55.022 E.46737
G1 X111.472 Y55.804 E.44224
G1 X113.017 Y56.496 E.05308
G1 X115.324 Y58.803 E.1023
G1 X116.011 Y60.276 E.05096
G1 X117.214 Y74.064 E.43396
G1 X116.942 Y121.16 E1.47669
G1 X115.731 Y135.125 E.43951
M73 P0 R37
G1 X115.043 Y136.598 E.05097
G1 X112.736 Y138.905 E.1023
G1 X111.191 Y139.597 E.05308
G1 X97.013 Y140.381 E.44522
M73 P1 R37
G1 X82.203 Y140.379 E.46436
G1 X68.119 Y139.597 E.44227
G1 X66.575 Y138.905 E.05305
G1 X64.267 Y136.598 E.10232
G1 X63.58 Y135.125 E.05096
G1 X62.377 Y121.337 E.43396
G1 X62.65 Y74.241 E1.47669
G1 X63.861 Y60.276 E.43951
G1 X64.522 Y58.858 E.04905
M204 P1000
M486 S0
G1 E-2.24 F4200
;WIPE_START
G1 F7200
G1 X64.548 Y58.803 E-.03371
G1 X65.73 Y57.621 E-.92629
;WIPE_END
G1 Z.4 F720
G1 X66.818 Y128.907 F9000
G1 Z.2 F720
G1 E3.2 F2400
M204 P600
;TYPE:Support material
G1 F1200
G2 X74.505 Y136.268 I15.394 J-8.38 E.33906
G1 X74.208 Y137.224 E.03139
G1 X68.255 Y137.224 E.18665
G1 X68.255 Y134.917 E.07233
G1 X65.948 Y134.917 E.07233
G1 X65.948 Y129.173 E.1801
G1 X66.776 Y128.896 E.02738
M204 P1000
G1 E-2.24 F4200
;WIPE_START
G1 F7200
G1 X65.948 Y129.173 E-.48385
G1 X65.948 Y130.032 E-.47615
;WIPE_END
G1 Z.4 F720
G1 X73.734 Y137.054 F9000
G1 Z.2 F720
G1 E3.2 F2400
M204 P600
G1 F1200
G1 X73.734 Y136.258 E.02496
G1 X73.315 Y136.016 E.01517
G1 X73.315 Y136.885 E.02725
G1 X72.896 Y136.885 E.01314
G1 X72.896 Y135.774 E.03483
G1 X72.477 Y135.509 E.01554
G1 X72.477 Y136.885 E.04314
G1 X72.058 Y136.885 E.01314
G1 X72.058 Y135.22 E.0522
G1 X71.639 Y134.931 E.01596
G1 X71.639 Y136.885 E.06127
G1 X71.22 Y136.885 E.01314
G1 X71.22 Y134.608 E.07139
G1 X70.801 Y134.266 E.01696
G1 X70.801 Y136.885 E.08212
G1 X70.382 Y136.885 E.01314
G1 X70.382 Y133.924 E.09284
G1 X69.964 Y133.524 E.01814
G1 X69.964 Y136.885 E.10538
G1 X69.545 Y136.885 E.01314
G1 X69.545 Y133.121 E.11802
G1 X69.126 Y132.686 E.01894
G1 X69.126 Y136.885 E.13166
G1 X68.707 Y136.885 E.01314
G1 X68.707 Y132.213 E.14649
G1 X68.288 Y131.726 E.02014
G1 X68.288 Y134.578 E.08942
G1 X67.869 Y134.578 E.01314
G1 X67.869 Y131.169 E.10689
G1 X67.45 Y130.602 E.02211
G1 X67.45 Y134.578 E.12466
G1 X67.031 Y134.578 E.01314
G1 X67.031 Y129.939 E.14545
G1 X66.641 Y129.299 E.0235
G1 X66.612 Y134.747 E.17082
M204 P1000
G1 E-2.24 F4200
;WIPE_START
G1 F7200
G1 X66.621 Y133.015 E-.96
;WIPE_END
G1 Z.4 F720
G1 X74.505 Y104.608 F9000
G1 Z.2 F720
G1 E3.2 F2400
M204 P600
G1 F1200
G2 X66.807 Y111.99 I7.704 J15.738 E.3398
G1 X65.948 Y111.704 E.02839
G1 X65.948 Y105.959 E.18013
G1 X68.255 Y105.959 E.07233
G1 X68.255 Y103.652 E.07233
G1 X74.207 Y103.652 E.18662
G1 X74.488 Y104.554 E.02962
M204 P1000
G1 X73.734 Y104.815 F9000
M204 P600
G1 F1200
G1 X73.734 Y103.992 E.0258
G1 X73.315 Y103.992 E.01314
G1 X73.315 Y104.861 E.02725
G1 X72.896 Y105.103 E.01517
G1 X72.896 Y103.992 E.03483
G1 X72.477 Y103.992 E.01314
G1 X72.477 Y105.367 E.04311
G1 X72.058 Y105.657 E.01598
G1 X72.058 Y103.992 E.0522
G1 X71.639 Y103.992 E.01314
G1 X71.639 Y105.946 E.06127
G1 X71.22 Y106.269 E.01659
G1 X71.22 Y103.992 E.07139
G1 X70.801 Y103.992 E.01314
G1 X70.801 Y106.611 E.08212
G1 X70.382 Y106.953 E.01696
G1 X70.382 Y103.992 E.09284
G1 X69.964 Y103.992 E.01311
G1 X69.964 Y107.353 E.10538
G1 X69.545 Y107.755 E.01821
G1 X69.545 Y103.992 E.11799
G1 X69.126 Y103.992 E.01314
G1 X69.126 Y108.19 E.13163
G1 X68.707 Y108.663 E.01981
G1 X68.707 Y103.992 E.14646
G1 X68.595 Y103.992 E.00351
G1 X68.595 Y106.299 E.07233
G1 X68.288 Y106.299 E.00963
G1 X68.288 Y109.15 E.08939
G1 X67.869 Y109.708 E.02188
G1 X67.869 Y106.299 E.10689
G1 X67.45 Y106.299 E.01314
G1 X67.45 Y110.275 E.12466
G1 X67.031 Y110.937 E.02456
G1 X67.031 Y106.299 E.14542
G1 X66.612 Y106.299 E.01314
G1 X66.612 Y111.746 E.17079
M204 P1000
G1 E-2.24 F4200
;WIPE_START
G1 F7200
G1 X66.612 Y110.014 E-.96
;WIPE_END
G1 Z.4 F720
G1 X97.926 Y106 F9000
G1 Z.2 F720
G1 E3.2 F2400
M204 P600
G1 F1200
G3 X97.002 Y134.917 I-.916 J14.444 E1.39771
G1 X82.309 Y134.914 E.46069
G3 X67.898 Y122.191 I.046 J-14.575 E.65817
G2 X67.071 Y121.64 I-1.103 J.761 E.03192
G3 X67.549 Y119.032 I.692 J-1.221 E.10883
G2 X67.95 Y118.532 I-.353 J-.693 E.02071
M73 P2 R37
G3 X82.308 Y105.96 I14.368 J1.925 E.65313
G1 X97.87 Y105.998 E.48794
M204 P1000
G1 X111.023 Y123.284 F9000
M204 P600
G1 F1200
G1 X111.023 Y118.646 E.14542
G1 X110.604 Y116.573 E.06631
G1 X110.604 Y124.303 E.24237
G1 X110.185 Y125.546 E.04113
G1 X110.185 Y115.33 E.32032
G1 X109.766 Y114.348 E.03348
G1 X109.766 Y126.528 E.3819
G1 X109.347 Y127.333 E.02845
G1 X109.347 Y113.543 E.43238
G1 X108.928 Y112.854 E.02528
G1 X108.928 Y128.023 E.47561
G1 X108.509 Y128.658 E.02385
G1 X108.509 Y112.219 E.51543
G1 X108.09 Y111.673 E.02158
G1 X108.09 Y129.204 E.54967
G1 X107.671 Y129.713 E.02067
G1 X107.671 Y111.163 E.58162
G1 X107.252 Y110.706 E.01944
G1 X107.252 Y130.171 E.61031
G1 X106.833 Y130.597 E.01873
G1 X106.833 Y110.279 E.63706
G1 X106.415 Y109.895 E.0178
G1 X106.414 Y130.981 E.66114
G1 X105.996 Y131.349 E.01746
G1 X105.996 Y109.527 E.68421
G1 X105.577 Y109.206 E.01655
G1 X105.577 Y131.671 E.70437
G1 X105.158 Y131.992 E.01655
G1 X105.158 Y108.884 E.72454
G1 X104.739 Y108.613 E.01565
G1 X104.739 Y132.264 E.74156
G1 X104.32 Y132.531 E.01558
G1 X104.32 Y108.346 E.7583
G1 X103.901 Y108.1 E.01523
G1 X103.901 Y132.776 E.7737
G1 X103.482 Y132.995 E.01482
G1 X103.482 Y107.882 E.7874
G1 X103.063 Y107.664 E.01481
G1 X103.063 Y133.213 E.80107
G1 X102.644 Y133.394 E.01431
G1 X102.644 Y107.482 E.81245
G1 X102.225 Y107.309 E.01421
G1 X102.225 Y133.568 E.82333
G1 X101.806 Y133.737 E.01417
M73 P3 R37
G1 X101.806 Y107.139 E.83396
G1 X101.387 Y107.007 E.01377
G1 X101.387 Y133.869 E.84224
G1 X100.968 Y134.001 E.01377
G1 X100.968 Y106.875 E.85052
G1 X100.549 Y106.754 E.01367
G1 X100.549 Y134.122 E.8581
G1 X100.13 Y134.215 E.01346
G1 X100.13 Y106.662 E.8639
G1 X99.711 Y106.569 E.01346
G1 X99.711 Y134.308 E.86974
G1 X99.292 Y134.385 E.01336
G1 X99.292 Y106.492 E.87457
G1 X98.873 Y106.436 E.01325
G1 X98.873 Y134.44 E.87805
G1 X98.454 Y134.495 E.01325
M73 P3 R36
G1 X98.454 Y106.381 E.88149
G1 X98.245 Y106.354 E.00661
G1 X98.035 Y106.345 E.00659
G1 X98.035 Y134.532 E.88378
G1 X97.616 Y134.55 E.01315
G1 X97.616 Y106.326 E.88494
G1 X97.197 Y106.308 E.01315
G1 X97.197 Y134.568 E.88607
G1 X96.778 Y134.577 E.01314
G1 X96.778 Y106.299 E.88664
G1 X96.359 Y106.299 E.01314
G1 X96.359 Y134.577 E.88664
G1 X95.94 Y134.578 E.01314
G1 X95.94 Y106.299 E.88667
G1 X95.521 Y106.299 E.01314
G1 X95.521 Y134.578 E.88667
G1 X95.102 Y134.578 E.01314
M73 P4 R36
G1 X95.102 Y106.299 E.88667
G1 X94.683 Y106.299 E.01314
G1 X94.683 Y134.578 E.88667
G1 X94.264 Y134.578 E.01314
G1 X94.264 Y106.299 E.88667
G1 X93.845 Y106.299 E.01314
G1 X93.845 Y134.578 E.88667
G1 X93.426 Y134.579 E.01314
G1 X93.426 Y106.299 E.8867
G1 X93.007 Y106.299 E.01314
G1 X93.007 Y134.579 E.8867
G1 X92.588 Y134.579 E.01314
G1 X92.588 Y106.299 E.8867
G1 X92.169 Y106.299 E.01314
G1 X92.169 Y134.579 E.8867
G1 X91.75 Y134.579 E.01314
G1 X91.75 Y106.299 E.8867
G1 X91.331 Y106.299 E.01314
G1 X91.331 Y134.579 E.8867
G1 X90.912 Y134.58 E.01314
G1 X90.912 Y106.299 E.88673
G1 X90.493 Y106.299 E.01314
G1 X90.493 Y134.58 E.88673
G1 X90.074 Y134.58 E.01314
G1 X90.074 Y106.299 E.88673
G1 X89.655 Y106.299 E.01314
G1 X89.655 Y134.58 E.88673
G1 X89.236 Y134.58 E.01314
G1 X89.236 Y106.299 E.88673
G1 X88.817 Y106.299 E.01314
M73 P5 R36
G1 X88.817 Y134.58 E.88673
G1 X88.398 Y134.581 E.01314
G1 X88.398 Y106.299 E.88676
G1 X87.98 Y106.299 E.01311
G1 X87.98 Y134.581 E.88676
G1 X87.561 Y134.581 E.01314
G1 X87.561 Y106.299 E.88676
G1 X87.142 Y106.299 E.01314
G1 X87.142 Y134.581 E.88676
G1 X86.723 Y134.581 E.01314
G1 X86.723 Y106.299 E.88676
G1 X86.304 Y106.299 E.01314
G1 X86.304 Y134.58 E.88673
G1 X85.885 Y134.58 E.01314
G1 X85.885 Y106.299 E.88673
G1 X85.466 Y106.299 E.01314
G1 X85.466 Y134.579 E.8867
G1 X85.047 Y134.579 E.01314
G1 X85.047 Y106.299 E.8867
G1 X84.628 Y106.299 E.01314
G1 X84.628 Y134.578 E.88667
G1 X84.209 Y134.577 E.01314
G1 X84.209 Y106.299 E.88664
G1 X83.79 Y106.299 E.01314
G1 X83.79 Y134.577 E.88664
G1 X83.371 Y134.576 E.01314
G1 X83.371 Y106.299 E.88661
G1 X82.952 Y106.299 E.01314
G1 X82.952 Y134.576 E.88661
G1 X82.533 Y134.575 E.01314
G1 X82.533 Y106.299 E.88657
G1 X82.114 Y106.308 E.01314
M73 P6 R36
G1 X82.114 Y134.566 E.88601
G1 X81.695 Y134.548 E.01315
G1 X81.695 Y106.326 E.88488
G1 X81.276 Y106.344 E.01315
M73 P6 R35
G1 X81.276 Y134.53 E.88375
G1 X80.857 Y134.492 E.01319
G1 X80.857 Y106.382 E.88137
G1 X80.438 Y106.436 E.01325
G1 X80.438 Y134.438 E.87798
G1 X80.019 Y134.384 E.01325
G1 X80.019 Y106.49 E.8746
G1 X79.6 Y106.57 E.01337
G1 X79.6 Y134.304 E.86958
G1 X79.181 Y134.213 E.01344
G1 X79.181 Y106.66 E.8639
G1 X78.762 Y106.751 E.01344
G1 X78.762 Y134.122 E.8582
G1 X78.343 Y133.997 E.01371
G1 X78.343 Y106.876 E.85036
G1 X77.924 Y107.005 E.01375
G1 X77.924 Y133.868 E.84227
G1 X77.505 Y133.734 E.01379
G1 X77.505 Y107.14 E.83384
G1 X77.086 Y107.309 E.01417
G1 X77.086 Y133.564 E.82321
G1 X76.667 Y133.395 E.01417
G1 X76.667 Y107.479 E.81258
G1 X76.248 Y107.668 E.01441
G1 X76.248 Y133.205 E.80069
G1 X75.829 Y132.992 E.01474
G1 X75.829 Y107.881 E.78734
G1 X75.41 Y108.094 E.01474
G1 X75.41 Y132.78 E.77401
G1 X74.991 Y132.525 E.01538
M73 P7 R35
G1 X74.991 Y108.349 E.75802
G1 X74.572 Y108.608 E.01544
G1 X74.572 Y132.265 E.74175
G1 X74.153 Y131.981 E.01587
G1 X74.153 Y108.892 E.72394
G1 X73.734 Y109.204 E.01638
G1 X73.734 Y131.669 E.70437
G1 X73.315 Y131.348 E.01655
G1 X73.315 Y109.524 E.68428
G1 X72.896 Y109.896 E.01757
G1 X72.896 Y130.977 E.66098
G1 X72.477 Y130.605 E.01757
G1 X72.477 Y110.268 E.63765
G1 X72.058 Y110.708 E.01905
G1 X72.058 Y130.164 E.61003
G1 X71.639 Y129.723 E.01907
G1 X71.639 Y111.15 E.58234
G1 X71.22 Y111.674 E.02104
G1 X71.22 Y129.198 E.54945
G1 X70.801 Y128.652 E.02158
G1 X70.801 Y112.219 E.51525
G1 X70.382 Y112.847 E.02367
G1 X70.382 Y128.025 E.4759
G1 X69.964 Y127.317 E.02578
G1 X69.964 Y113.554 E.43153
G1 X69.545 Y114.354 E.02832
G1 X69.545 Y126.516 E.38133
G1 X69.126 Y125.559 E.03276
G1 X69.126 Y115.309 E.32138
G1 X68.707 Y116.569 E.04163
G1 X68.707 Y124.297 E.24231
G1 X68.288 Y122.301 E.06395
G1 X68.288 Y118.569 E.11701
G3 X67.869 Y119.23 I-1.062 J-.209 E.02511
G1 X67.869 Y121.647 E.07578
G1 X67.45 Y121.43 E.01479
G1 X67.45 Y119.446 E.06221
G1 X67.031 Y119.679 E.01503
G1 X67.031 Y121.414 E.0544
M204 P1000
G1 E-2.24 F4200
;WIPE_START
G1 F7200
G1 X67.031 Y119.681 E-.96
;WIPE_END
G1 Z.4 F720
G1 X111.056 Y105.959 F9000
G1 Z.2 F720
G1 E3.2 F2400
M204 P600
G1 F1200
G1 X113.363 Y105.959 E.07233
G1 X113.363 Y111.704 E.18013
G1 X112.504 Y111.99 E.02839
G2 X104.806 Y104.608 I-15.402 J8.356 E.3398
G1 X105.103 Y103.652 E.03139
G1 X111.056 Y103.652 E.18665
G1 X111.056 Y105.903 E.07058
M204 P1000
G1 X112.699 Y111.746 F9000
M204 P600
G1 F1200
G1 X112.699 Y106.299 E.17079
G1 X112.28 Y106.299 E.01314
G1 X112.28 Y110.937 E.14542
G1 X111.861 Y110.275 E.02456
G1 X111.861 Y106.299 E.12466
G1 X111.442 Y106.299 E.01314
G1 X111.442 Y109.708 E.10689
G1 X111.023 Y109.15 E.02188
G1 X111.023 Y106.299 E.08939
G1 X110.716 Y106.299 E.00963
G1 X110.716 Y103.992 E.07233
G1 X110.604 Y103.992 E.00351
G1 X110.604 Y108.663 E.14646
G1 X110.185 Y108.19 E.01981
G1 X110.185 Y103.992 E.13163
G1 X109.766 Y103.992 E.01314
G1 X109.766 Y107.755 E.11799
G1 X109.347 Y107.353 E.01821
G1 X109.347 Y103.992 E.10538
G1 X108.928 Y103.992 E.01314
G1 X108.928 Y106.953 E.09284
G1 X108.509 Y106.611 E.01696
G1 X108.509 Y103.992 E.08212
G1 X108.09 Y103.992 E.01314
G1 X108.09 Y106.269 E.07139
G1 X107.671 Y105.946 E.01659
G1 X107.671 Y103.992 E.06127
G1 X107.252 Y103.992 E.01314
G1 X107.252 Y105.657 E.0522
G1 X106.833 Y105.367 E.01598
G1 X106.833 Y103.992 E.04311
G1 X106.415 Y103.992 E.01311
G1 X106.415 Y105.103 E.03483
G1 X105.996 Y104.861 E.01517
G1 X105.996 Y103.992 E.02725
G1 X105.577 Y103.992 E.01314
G1 X105.577 Y104.815 E.0258
M204 P1000
G1 E-2.24 F4200
;WIPE_START
G1 F7200
G1 X105.577 Y103.992 E-.45608
G1 X105.996 Y103.992 E-.2322
G1 X105.996 Y104.482 E-.27172
M73 P8 R35
;WIPE_END
G1 Z.4 F720
G1 X113.363 Y129.173 F9000
G1 Z.2 F720
G1 E3.2 F2400
M204 P600
G1 F1200
G1 X113.363 Y134.917 E.1801
G1 X111.056 Y134.917 E.07233
G1 X111.056 Y137.224 E.07233
G1 X105.103 Y137.224 E.18665
G1 X104.806 Y136.268 E.03139
G2 X112.504 Y128.886 I-7.704 J-15.737 E.3398
G1 X113.309 Y129.155 E.02661
M204 P1000
G1 X112.699 Y134.747 F9000
M204 P600
G1 F1200
G1 X112.67 Y129.299 E.17082
G1 X112.28 Y129.939 E.0235
G1 X112.28 Y134.578 E.14545
G1 X111.861 Y134.578 E.01314
G1 X111.861 Y130.602 E.12466
G1 X111.442 Y131.169 E.02211
G1 X111.442 Y134.578 E.10689
G1 X111.023 Y134.578 E.01314
G1 X111.023 Y131.726 E.08942
G1 X110.604 Y132.213 E.02014
G1 X110.604 Y136.885 E.14649
G1 X110.185 Y136.885 E.01314
G1 X110.185 Y132.686 E.13166
G1 X109.766 Y133.121 E.01894
G1 X109.766 Y136.885 E.11802
G1 X109.347 Y136.885 E.01314
G1 X109.347 Y133.524 E.10538
G1 X108.928 Y133.924 E.01816
G1 X108.928 Y136.885 E.09284
G1 X108.509 Y136.885 E.01314
G1 X108.509 Y134.266 E.08212
G1 X108.09 Y134.608 E.01696
G1 X108.09 Y136.885 E.07139
G1 X107.671 Y136.885 E.01314
G1 X107.671 Y134.931 E.06127
G1 X107.252 Y135.22 E.01596
G1 X107.252 Y136.885 E.0522
G1 X106.833 Y136.885 E.01314
G1 X106.833 Y135.509 E.04314
G1 X106.414 Y135.774 E.01554
G1 X106.414 Y136.885 E.03483
G1 X105.996 Y136.885 E.01311
G1 X105.996 Y136.016 E.02725
G1 X105.577 Y136.258 E.01517
G1 X105.577 Y137.054 E.02496
M204 P1000
G1 E-2.24 F4200
;WIPE_START
G1 F7200
G1 X105.577 Y136.258 E-.44112
G1 X105.996 Y136.016 E-.26814
G1 X105.996 Y136.468 E-.25074
;WIPE_END
G1 Z.4 F720
G1 X66.114 Y118.281 F9000
G1 Z.2 F720
G1 E3.2 F2400
M204 P600
;TYPE:Perimeter
;WIDTH:0.555189
G1 F1200
G1 X66.328 Y117.081 E.05192
;WIDTH:0.554996
G1 X66.672 Y115.738 E.05903
;WIDTH:0.556248
G1 X67.129 Y114.428 E.05922
;WIDTH:0.557314
G3 X67.704 Y113.146 I16.346 J6.559 E.06011
;WIDTH:0.548419
G1 X68.38 Y111.929 E.05852
;WIDTH:0.547725
G1 X69.156 Y110.775 E.05837
;WIDTH:0.559379
G3 X70.027 Y109.69 I11.522 J8.368 E.05977
;WIDTH:0.55976
G3 X73.148 Y106.934 I12.152 J10.611 E.17944
;WIDTH:0.559508
G3 X74.266 Y106.24 I7.853 J11.412 E.05654
;WIDTH:0.559074
G3 X75.911 Y105.421 I9.323 J16.66 E.0789
;WIDTH:0.558448
G1 X77.14 Y104.955 E.05634
;WIDTH:0.557633
