; generated by PrusaSlicer 2.4.2 on 2023-12-15 at 10:40:37 UTC


;
;

;
;
; 

; external perimeters extrusion width = 0.45mm
; perimeters extrusion width = 0.45mm
; infill extrusion width = 0.45mm
; solid infill extrusion width = 0.45mm
; top infill extrusion width = 0.40mm
; support material extrusion width = 0.35mm
; first layer extrusion width = 0.42mm

M73 P0 R39
M201 X2500 Y2500 Z400 E5000 ; sets maximum accelerations, mm/sec^2
M203 X180 Y180 Z12 E80 ; sets maximum feedrates, mm / sec
M204 P1250 R1250 T2500 ; sets acceleration (P, T) and retract acceleration (R), mm/sec^2
M205 X8.00 Y8.00 Z2.00 E10.00 ; sets the jerk limits, mm/sec
M205 S0 T0 ; sets the minimum extruding and travel feed rate, mm/sec
M107
;TYPE:Custom
M862.3 P "MINI" ; printer model check
G90 ; use absolute coordinates
M83 ; extruder relative mode
M104 S170 ; set extruder temp for bed leveling
M140 S90 ; set bed temp
M109 R170 ; wait for bed leveling temp
M190 S90 ; wait for bed temp
M204 T1250 ; set travel acceleration
G28 ; home all without mesh bed level
G29 ; mesh bed leveling 
M204 T2500 ; restore travel acceleration
M104 S250 ; set extruder temp
G92 E0
G1 Y-2 X179 F2400
G1 Z3 F720
M109 S250 ; wait for extruder temp

; intro line
G1 X170 F1000
G1 Z0.2 F720
G1 X110 E8 F900
G1 X40 E10 F700
G92 E0

M221 S95 ; set flow
G21 ; set units to millimeters
G90 ; use absolute coordinates
M83 ; use relative distances for extrusion
M900 K0.2 ; Filament gcode
M107
;LAYER_CHANGE
;Z:0.2
;HEIGHT:0.2
;BEFORE_LAYER_CHANGE
G92 E0.0
;0.2


G1 E-3.2 F2400
M73 P0 R38
G1 Z.2 F720
;AFTER_LAYER_CHANGE
;0.2
G1 Z.4
G1 X72.68 Y80.736 F9000
G1 Z.2 F720
G1 E3.2 F1500
M204 P800
;TYPE:Skirt/Brim
;WIDTH:0.42
G1 F1200
G1 X74.061 Y79.628 E.05552
G1 X75.971 Y78.537 E.06897
G1 X77.926 Y77.826 E.06522
G1 X79.662 Y77.481 E.05552
G1 X81.74 Y77.39 E.06522
G1 X82.957 Y77.496 E.03828
G1 X84.458 Y77.795 E.048
G1 X85.51 Y78.121 E.03452
G1 X86.638 Y78.588 E.03828
G1 X114.493 Y92.678 E.97876
G1 X115.581 Y93.668 E.04612
G1 X116.004 Y95.135 E.04788
G1 X116.004 Y99.866 E.14834
G1 X115.611 Y101.283 E.04612
G1 X114.545 Y102.297 E.04612
G1 X113.25 Y102.62 E.04186
G1 X80.76 Y102.61 E1.01871
G1 X79.118 Y102.438 E.05176
G1 X77.398 Y102.017 E.05552
G1 X75.476 Y101.221 E.06522
G1 X73.963 Y100.303 E.05552
G1 X72.284 Y98.881 E.06897
G1 X70.947 Y97.287 E.06522
G1 X70.029 Y95.774 E.05552
G1 X69.233 Y93.852 E.06522
G1 X68.812 Y92.132 E.05552
G1 X68.63 Y90.06 E.06522
G1 X68.746 Y88.293 E.05552
G1 X69.233 Y86.148 E.06897
G1 X70.084 Y84.12 E.06897
G1 X71.202 Y82.365 E.06522
G1 X72.64 Y80.781 E.06709
M204 P1000
G1 X72.918 Y81.034 F9000
M204 P800
G1 F1200
G1 X74.27 Y79.942 E.0545
G1 X76.123 Y78.883 E.06691
G1 X78.031 Y78.188 E.06367
G1 X79.703 Y77.855 E.05346
G1 X81.732 Y77.767 E.06367
G1 X82.899 Y77.869 E.03674
G1 X84.369 Y78.161 E.04697
G1 X85.486 Y78.514 E.03674
G1 X86.471 Y78.926 E.03349
G1 X114.323 Y93.014 E.97864
G1 X115.313 Y93.954 E.04278
M73 P1 R38
G1 X115.627 Y95.135 E.03834
G1 X115.627 Y99.866 E.14834
G1 X115.235 Y101.173 E.04278
G1 X114.19 Y102.049 E.04278
G1 X113.25 Y102.243 E.03008
G1 X80.768 Y102.233 E1.01846
G1 X79.073 Y102.048 E.05346
G1 X77.519 Y101.66 E.05021
G1 X76.029 Y101.074 E.05021
G1 X74.27 Y100.058 E.06367
G1 X72.941 Y98.991 E.05346
G1 X71.506 Y97.412 E.06691
G1 X70.367 Y95.607 E.06691
G1 X69.59 Y93.731 E.06367
G1 X69.184 Y92.075 E.05346
G1 X69.007 Y90.052 E.06367
G1 X69.119 Y88.351 E.05346
G1 X69.59 Y86.269 E.06691
G1 X70.367 Y84.393 E.06367
G1 X71.506 Y82.588 E.06691
G1 X72.878 Y81.078 E.06397
M204 P1000
; printing object Better_Whistle_V2.stl id:0 copy 0
G1 E-2.24 F2400
;WIPE_START
G1 F7200
G1 X74.27 Y79.942 E-.56922
G1 X75.21 Y79.405 E-.34278
;WIPE_END
G1 E-.048 F2400
G1 Z.4 F720
G1 X112.463 Y96.257 F9000
G1 Z.2 F720
G1 E3.2 F1500
M204 P800
;TYPE:Perimeter
G1 F1200
G1 X112.463 Y98.648 E.07498
G1 X80.866 Y98.64 E.99068
G1 X80.501 Y98.616 E.01147
G1 X79.874 Y98.536 E.01985
G1 X79.009 Y98.352 E.0277
G1 X78.286 Y98.124 E.02377
G1 X77.945 Y97.992 E.01147
G1 X77.364 Y97.724 E.02006
G1 X76.923 Y97.488 E.01568
G1 X76.609 Y97.297 E.01153
G1 X75.986 Y96.861 E.02385
G1 X75.408 Y96.376 E.02365
G1 X74.874 Y95.842 E.02365
G1 X74.389 Y95.264 E.02365
G1 X73.957 Y94.646 E.02365
G1 X73.579 Y93.993 E.02365
G1 X73.261 Y93.309 E.02366
G1 X73.003 Y92.6 E.02365
G1 X72.807 Y91.872 E.02365
G1 X72.676 Y91.128 E.02369
G1 X72.618 Y90.497 E.01986
G1 X72.602 Y90.003 E.01548
G1 X72.635 Y89.246 E.02376
G1 X72.734 Y88.498 E.02365
G1 X72.897 Y87.762 E.02365
G1 X73.124 Y87.042 E.02365
G1 X73.412 Y86.345 E.02365
G1 X73.761 Y85.676 E.02365
G1 X74.166 Y85.04 E.02365
G1 X74.625 Y84.441 E.02365
G1 X75.139 Y83.88 E.02386
G1 X75.403 Y83.628 E.01143
G1 X75.986 Y83.139 E.02385
G1 X76.604 Y82.707 E.02365
G1 X77.257 Y82.329 E.02365
G1 X77.941 Y82.011 E.02365
G1 X78.65 Y81.753 E.02365
G1 X79.378 Y81.557 E.02365
G1 X80.121 Y81.426 E.02365
G1 X80.874 Y81.36 E.02369
G1 X81.507 Y81.358 E.01986
G1 X82 Y81.385 E.01548
G1 X82.758 Y81.484 E.02396
G1 X83.116 Y81.556 E.01143
G1 X83.857 Y81.754 E.02406
G1 X84.202 Y81.871 E.01143
G1 X84.911 Y82.165 E.02406
G1 X85.238 Y82.326 E.01143
G1 X85.896 Y82.707 E.02386
G1 X86.52 Y83.143 E.02386
G1 X87.092 Y83.624 E.02345
G1 X88.692 Y85.157 E.06948
G1 X90.072 Y86.372 E.05765
G1 X91.502 Y87.528 E.05764
G1 X92.979 Y88.622 E.05765
G1 X94.501 Y89.654 E.05765
G1 X96.066 Y90.619 E.05765
G1 X97.669 Y91.518 E.05765
G1 X99.31 Y92.349 E.05765
G1 X100.984 Y93.109 E.05765
G1 X102.688 Y93.799 E.05765
G1 X104.42 Y94.415 E.05765
G1 X106.177 Y94.958 E.05765
G1 X107.955 Y95.426 E.05765
G1 X109.751 Y95.819 E.05764
G1 X111.561 Y96.136 E.05762
G1 X112.403 Y96.249 E.02666
M204 P1000
G1 X112.84 Y95.927 F9000
M204 P800
;TYPE:External perimeter
G1 F1200
G1 X112.84 Y99.025 E.09715
G1 X80.854 Y99.017 E1.0029
G1 X80.465 Y98.991 E.01222
G1 X79.81 Y98.908 E.0207
G1 X78.913 Y98.717 E.02876
G1 X78.161 Y98.48 E.02473
G1 X77.798 Y98.339 E.01222
G1 X77.196 Y98.062 E.02077
G1 X76.736 Y97.816 E.01635
G1 X76.403 Y97.613 E.01224
G1 X75.756 Y97.16 E.02476
G1 X75.153 Y96.654 E.02469
G1 X74.596 Y96.097 E.02469
G1 X74.09 Y95.494 E.02469
G1 X73.638 Y94.849 E.02469
G1 X73.245 Y94.167 E.02469
G1 X72.912 Y93.454 E.02469
G1 X72.643 Y92.714 E.02469
G1 X72.439 Y91.953 E.02469
G1 X72.302 Y91.178 E.0247
G1 X72.242 Y90.52 E.0207
G1 X72.225 Y90.001 E.01628
G1 X72.259 Y89.213 E.02472
G1 X72.362 Y88.433 E.02469
G1 X72.532 Y87.664 E.02469
G1 X72.769 Y86.913 E.02469
G1 X73.07 Y86.186 E.02469
G1 X73.434 Y85.487 E.02469
G1 X73.857 Y84.823 E.02469
G1 X74.336 Y84.199 E.02469
G1 X74.87 Y83.617 E.02476
G1 X75.151 Y83.347 E.0122
G1 X75.756 Y82.84 E.02476
G1 X76.401 Y82.388 E.02469
G1 X77.083 Y81.995 E.02469
G1 X77.796 Y81.662 E.02469
G1 X78.536 Y81.393 E.02469
G1 X79.297 Y81.189 E.02469
G1 X80.072 Y81.052 E.02469
G1 X80.857 Y80.983 E.0247
G1 X81.517 Y80.981 E.0207
G1 X82.035 Y81.009 E.01628
G1 X82.819 Y81.112 E.0248
G1 X83.201 Y81.188 E.0122
G1 X83.966 Y81.393 E.02483
G1 X84.335 Y81.518 E.0122
G1 X85.066 Y81.821 E.02483
G1 X85.415 Y81.993 E.0122
G1 X86.099 Y82.388 E.02476
G1 X86.746 Y82.841 E.02476
G1 X87.051 Y83.086 E.01227
G1 X87.347 Y83.346 E.01234
G1 X88.948 Y84.879 E.06949
G1 X90.315 Y86.084 E.05715
G1 X91.733 Y87.23 E.05715
G1 X93.197 Y88.315 E.05715
G1 X94.706 Y89.337 E.05715
G1 X96.257 Y90.294 E.05715
G1 X97.847 Y91.186 E.05715
G1 X99.473 Y92.009 E.05715
G1 X101.132 Y92.763 E.05715
G1 X102.822 Y93.446 E.05715
G1 X104.539 Y94.057 E.05715
G1 X106.28 Y94.596 E.05715
G1 X108.043 Y95.06 E.05715
G1 X109.823 Y95.449 E.05715
G1 X111.618 Y95.763 E.05713
G1 X112.781 Y95.919 E.03677
M204 P1000
G1 X112.622 Y96.262 F9000
G1 E-2.24 F2400
;WIPE_START
G1 F7200
G1 X112.836 Y98.798 E-.912
;WIPE_END
G1 E-.048 F2400
G1 Z.4 F720
G1 X111.461 Y96.233 F9000
G1 Z.2 F720
G1 E3.2 F1500
M204 P800
;TYPE:Solid infill
;WIDTH:0.420702
G1 F1200
G1 X112.18 Y96.952 E.03194
G1 X112.18 Y97.486 E.01678
G1 X111.023 Y96.329 E.05143
G1 X110.375 Y96.216 E.02065
G1 X112.18 Y98.021 E.08019
G1 X112.18 Y98.365 E.01083
G1 X111.99 Y98.365 E.00596
G1 X109.728 Y96.102 E.10053
G1 X109.046 Y95.955 E.02192
G1 X111.456 Y98.365 E.10709
G1 X110.922 Y98.365 E.01679
G1 X108.362 Y95.805 E.11372
G1 X107.665 Y95.643 E.02247
G1 X110.387 Y98.365 E.12093
G1 X109.853 Y98.365 E.01679
G1 X106.94 Y95.452 E.12941
G1 X106.214 Y95.261 E.02356
G1 X109.318 Y98.365 E.13789
G1 X108.784 Y98.364 E.01679
G1 X105.449 Y95.029 E.14816
G1 X104.676 Y94.79 E.02542
G1 X108.25 Y98.364 E.15877
G1 X107.715 Y98.364 E.01679
G1 X103.871 Y94.52 E.17077
G1 X103.042 Y94.225 E.02766
G1 X107.181 Y98.364 E.18388
G1 X106.646 Y98.364 E.01679
G1 X102.181 Y93.899 E.19835
G1 X101.285 Y93.536 E.03039
G1 X106.112 Y98.364 E.21446
G1 X105.578 Y98.363 E.01679
G1 X100.343 Y93.129 E.23253
G1 X99.364 Y92.684 E.03378
G1 X105.043 Y98.363 E.25229
G1 X104.509 Y98.363 E.01679
G1 X98.301 Y92.155 E.2758
G1 X97.179 Y91.568 E.03977
G1 X103.974 Y98.363 E.30188
G1 X103.44 Y98.363 E.01679
G1 X95.963 Y90.886 E.33215
G1 X94.573 Y90.03 E.05129
G1 X102.906 Y98.363 E.37017
G1 X102.371 Y98.363 E.01679
G1 X92.959 Y88.95 E.41814
G1 X91.329 Y87.752 E.06355
G1 X90.793 Y87.318 E.02165
M73 P2 R38
G1 X101.837 Y98.362 E.49063
G1 X101.302 Y98.362 E.01679
G1 X86.215 Y83.275 E.67026
G1 X85.744 Y82.945 E.01803
G1 X85.104 Y82.576 E.02322
G1 X84.862 Y82.456 E.00848
G1 X100.768 Y98.362 E.70661
G1 X100.233 Y98.362 E.01679
G1 X83.959 Y82.088 E.72298
G1 X83.211 Y81.874 E.02443
G1 X99.699 Y98.362 E.73246
G1 X99.165 Y98.362 E.01679
G1 X82.545 Y81.742 E.73834
G1 X81.933 Y81.664 E.01937
G1 X98.63 Y98.362 E.74177
G1 X98.096 Y98.361 E.01679
G1 X81.375 Y81.641 E.74279
G1 X80.847 Y81.647 E.01661
G1 X97.561 Y98.361 E.74253
G1 X97.027 Y98.361 E.01679
G1 X80.355 Y81.69 E.74062
G1 X79.886 Y81.755 E.01488
G1 X96.493 Y98.361 E.73772
G1 X95.958 Y98.361 E.01679
G1 X79.433 Y81.835 E.73413
G1 X79.011 Y81.948 E.0137
G1 X95.424 Y98.361 E.72911
G1 X94.889 Y98.361 E.01679
G1 X78.6 Y82.071 E.72363
G1 X78.209 Y82.214 E.01309
G1 X94.355 Y98.36 E.71729
G1 X93.821 Y98.36 E.01679
G1 X77.833 Y82.373 E.71023
G1 X77.469 Y82.543 E.01263
G1 X93.286 Y98.36 E.70268
G1 X92.752 Y98.36 E.01679
G1 X77.124 Y82.733 E.69424
G1 X76.786 Y82.928 E.01229
G1 X92.217 Y98.36 E.68554
G1 X91.683 Y98.36 E.01679
G1 X76.469 Y83.146 E.67586
G1 X76.155 Y83.366 E.01205
G1 X91.148 Y98.36 E.66607
G1 X90.614 Y98.359 E.01679
M73 P3 R37
G1 X75.865 Y83.61 E.65523
G1 X75.575 Y83.855 E.01191
G1 X90.08 Y98.359 E.64435
G1 X89.545 Y98.359 E.01679
G1 X75.305 Y84.119 E.63262
G1 X75.049 Y84.397 E.01188
G1 X89.011 Y98.359 E.62023
G1 X88.476 Y98.359 E.01679
G1 X74.798 Y84.681 E.60764
G1 X74.566 Y84.983 E.01197
G1 X87.942 Y98.359 E.5942
G1 X87.408 Y98.358 E.01679
G1 X74.341 Y85.292 E.58048
G1 X74.133 Y85.618 E.01216
G1 X86.873 Y98.358 E.56597
G1 X86.339 Y98.358 E.01679
G1 X73.935 Y85.954 E.55103
G1 X73.752 Y86.306 E.01244
G1 X85.804 Y98.358 E.53542
G1 X85.27 Y98.358 E.01679
G1 X73.584 Y86.671 E.51916
G1 X73.427 Y87.049 E.01284
G1 X84.736 Y98.358 E.50237
G1 X84.201 Y98.358 E.01679
G1 X73.292 Y87.449 E.48462
G1 X73.166 Y87.856 E.01341
G1 X83.667 Y98.357 E.4665
G1 X83.132 Y98.357 E.01679
G1 X73.069 Y88.294 E.44707
G1 X72.986 Y88.746 E.01443
G1 X82.598 Y98.357 E.42699
G1 X82.063 Y98.357 E.01679
G1 X72.924 Y89.218 E.40601
G1 X72.897 Y89.725 E.01596
G1 X81.529 Y98.357 E.38346
G1 X80.995 Y98.357 E.01679
G1 X72.893 Y90.255 E.3599
G1 X72.933 Y90.829 E.01806
G1 X80.424 Y98.321 E.33281
G1 X79.8 Y98.231 E.0198
G1 X73.02 Y91.451 E.3012
G1 X73.084 Y91.81 E.01147
G1 X73.171 Y92.136 E.01058
G1 X79.122 Y98.087 E.26439
G1 X78.344 Y97.843 E.02561
G1 X73.419 Y92.918 E.2188
G1 X73.522 Y93.201 E.00945
G1 X73.833 Y93.866 E.02305
G1 X77.376 Y97.409 E.15741
G1 X76.763 Y97.06 E.02214
G1 X76.158 Y96.636 E.02322
G1 X75.602 Y96.17 E.0228
G1 X74.132 Y94.7 E.06531
M204 P1000
; stop printing object Better_Whistle_V2.stl id:0 copy 0
;LAYER_CHANGE
;Z:0.4
;HEIGHT:0.2
;BEFORE_LAYER_CHANGE
G92 E0.0
;0.4


G1 E-2.24 F2400
;WIPE_START
G1 F7200
G1 X75.602 Y96.17 E-.65834
G1 X76.158 Y96.636 E-.22984
G1 X76.22 Y96.679 E-.02382
;WIPE_END
G1 E-.048 F2400
G1 Z.4 F720
;AFTER_LAYER_CHANGE
;0.4
G1 Z.6
G1 X73.489 Y99.902 F9000
G1 Z.4 F720
G1 E3.2 F1500
;TYPE:Skirt/Brim
;WIDTH:0.42
G1 F2400
G1 X72.284 Y98.881 E.04952
G1 X70.947 Y97.287 E.06522
G1 X70.029 Y95.774 E.05552
G1 X69.233 Y93.852 E.06522
G1 X68.812 Y92.132 E.05552
G1 X68.63 Y90.06 E.06522
G1 X68.746 Y88.293 E.05552
G1 X69.233 Y86.148 E.06897
G1 X70.084 Y84.12 E.06897
G1 X71.202 Y82.365 E.06522
G1 X72.68 Y80.736 E.06897
G1 X74.061 Y79.628 E.05552
G1 X75.971 Y78.537 E.06897
G1 X77.926 Y77.826 E.06522
G1 X79.662 Y77.481 E.05552
G1 X81.74 Y77.39 E.06522
G1 X82.957 Y77.496 E.03828
G1 X84.458 Y77.795 E.048
G1 X85.51 Y78.121 E.03452
G1 X86.638 Y78.588 E.03828
G1 X114.493 Y92.678 E.97876
G1 X115.581 Y93.668 E.04612
G1 X116.004 Y95.135 E.04788
G1 X116.004 Y99.866 E.14834
G1 X115.611 Y101.283 E.04612
G1 X114.545 Y102.297 E.04612
G1 X113.25 Y102.62 E.04186
G1 X80.76 Y102.61 E1.01871
G1 X79.118 Y102.438 E.05176
G1 X77.398 Y102.017 E.05552
G1 X75.476 Y101.221 E.06522
G1 X73.963 Y100.303 E.05552
G1 X73.535 Y99.941 E.01757
M73 P4 R37
G1 X73.766 Y99.653 F9000
G1 F2400
G1 X72.941 Y98.991 E.03316
G1 X71.506 Y97.412 E.06691
G1 X70.367 Y95.607 E.06691
G1 X69.59 Y93.731 E.06367
G1 X69.184 Y92.075 E.05346
G1 X69.007 Y90.052 E.06367
G1 X69.119 Y88.351 E.05346
G1 X69.59 Y86.269 E.06691
G1 X70.367 Y84.393 E.06367
G1 X71.506 Y82.588 E.06691
G1 X72.941 Y81.009 E.06691
G1 X74.27 Y79.942 E.05346
G1 X76.123 Y78.883 E.06691
G1 X78.031 Y78.188 E.06367
G1 X79.703 Y77.855 E.05346
G1 X81.732 Y77.767 E.06367
G1 X82.899 Y77.869 E.03674
G1 X84.369 Y78.161 E.04697
G1 X85.486 Y78.514 E.03674
G1 X86.471 Y78.926 E.03349
G1 X114.323 Y93.014 E.97864
G1 X115.313 Y93.954 E.04278
G1 X115.627 Y95.135 E.03834
G1 X115.627 Y99.866 E.14834
G1 X115.235 Y101.173 E.04278
G1 X114.19 Y102.049 E.04278
G1 X113.25 Y102.243 E.03008
G1 X80.768 Y102.233 E1.01846
G1 X79.073 Y102.048 E.05346
G1 X77.519 Y101.66 E.05021
G1 X76.029 Y101.074 E.05021
G1 X74.27 Y100.058 E.06367
G1 X73.813 Y99.691 E.01841
; printing object Better_Whistle_V2.stl id:0 copy 0
G1 E-2.24
;WIPE_START
G1 F7200
G1 X72.941 Y98.991 E-.35394
G1 X71.756 Y97.687 E-.55806
;WIPE_END
G1 E-.048 F2400
G1 Z.6 F720
G1 X112.618 Y95.841 F9000
G1 Z.4 F720
G1 E3.2 F1500
M204 P800
;TYPE:Perimeter
;WIDTH:0.45
G1 F2400
G1 X112.618 Y99.082 E.1097
G1 X80.853 Y99.073 E1.0752
G1 X80.15 Y99.013 E.0239
G1 X79.676 Y98.944 E.01619
G1 X78.983 Y98.792 E.02404
G1 X78.523 Y98.662 E.01616
G1 X77.768 Y98.388 E.0272
G1 X77.418 Y98.234 E.01294
G1 X76.703 Y97.861 E.02728
G1 X76.376 Y97.663 E.01294
G1 X75.722 Y97.205 E.02705
G1 X75.115 Y96.695 E.02682
G1 X74.55 Y96.13 E.02705
G1 X74.298 Y95.843 E.01295
G1 X73.811 Y95.209 E.02705
G1 X73.385 Y94.541 E.02682
G1 X73.02 Y93.838 E.02682
G1 X72.716 Y93.106 E.02681
G1 X72.478 Y92.35 E.02682
G1 X72.307 Y91.577 E.02682
G1 X72.203 Y90.791 E.02682
G1 X72.169 Y90 E.02682
G1 X72.203 Y89.209 E.02682
G1 X72.307 Y88.422 E.02685
G1 X72.458 Y87.733 E.02389
G1 X72.588 Y87.273 E.01615
G1 X72.86 Y86.524 E.02699
G1 X73.157 Y85.883 E.02389
G1 X73.383 Y85.463 E.01615
G1 X73.811 Y84.791 E.02696
G1 X74.293 Y84.163 E.02682
G1 X74.829 Y83.579 E.02682
G1 X75.413 Y83.043 E.02682
G1 X76.041 Y82.561 E.02682
G1 X76.715 Y82.132 E.02705
G1 X77.05 Y81.948 E.01294
G1 X77.775 Y81.61 E.02705
G1 X78.519 Y81.339 E.02682
G1 X79.284 Y81.134 E.02682
G1 X80.065 Y80.996 E.02682
G1 X80.855 Y80.927 E.02685
G1 X81.561 Y80.925 E.02389
G1 X82.037 Y80.953 E.01615
G1 X82.828 Y81.057 E.02699
G1 X83.517 Y81.208 E.02389
G1 X83.978 Y81.338 E.01618
G1 X84.646 Y81.579 E.02404
G1 X85.085 Y81.768 E.01618
G1 X85.716 Y82.094 E.02404
G1 X86.126 Y82.338 E.01616
G1 X86.784 Y82.799 E.0272
G1 X87.088 Y83.043 E.01318
G1 X87.385 Y83.304 E.01341
G1 X88.986 Y84.838 E.07503
G1 X90.352 Y86.041 E.06161
G1 X91.767 Y87.185 E.06161
G1 X93.23 Y88.269 E.06161
G1 X94.737 Y89.29 E.06161
G1 X96.286 Y90.246 E.06161
G1 X97.873 Y91.136 E.06161
G1 X99.497 Y91.958 E.06161
G1 X101.155 Y92.711 E.06161
G1 X102.842 Y93.393 E.06161
G1 X104.557 Y94.004 E.06161
G1 X106.296 Y94.541 E.06161
G1 X108.056 Y95.005 E.06161
G1 X109.834 Y95.394 E.06161
G1 X111.626 Y95.707 E.06158
G1 X112.558 Y95.833 E.03184
M204 P1000
