; generated by PrusaSlicer 2.4.2 on 2023-12-14 at 22:53:17 UTC


;
;

;
;
; 

; external perimeters extrusion width = 0.45mm
; perimeters extrusion width = 0.45mm
; infill extrusion width = 0.45mm
; solid infill extrusion width = 0.45mm
; top infill extrusion width = 0.40mm
; support material extrusion width = 0.35mm
; first layer extrusion width = 0.42mm

M73 P0 R59
M201 X2500 Y2500 Z400 E5000 ; sets maximum accelerations, mm/sec^2
M203 X180 Y180 Z12 E80 ; sets maximum feedrates, mm / sec
M204 P1250 R1250 T2500 ; sets acceleration (P, T) and retract acceleration (R), mm/sec^2
M205 X8.00 Y8.00 Z2.00 E10.00 ; sets the jerk limits, mm/sec
M205 S0 T0 ; sets the minimum extruding and travel feed rate, mm/sec
M107
;TYPE:Custom
M862.3 P "MINI" ; printer model check
G90 ; use absolute coordinates
M83 ; extruder relative mode
M104 S170 ; set extruder temp for bed leveling
M140 S90 ; set bed temp
M109 R170 ; wait for bed leveling temp
M190 S90 ; wait for bed temp
M204 T1250 ; set travel acceleration
G28 ; home all without mesh bed level
G29 ; mesh bed leveling 
M204 T2500 ; restore travel acceleration
M104 S250 ; set extruder temp
G92 E0
G1 Y-2 X179 F2400
G1 Z3 F720
M109 S250 ; wait for extruder temp

; intro line
G1 X170 F1000
G1 Z0.2 F720
G1 X110 E8 F900
G1 X40 E10 F700
G92 E0

M221 S95 ; set flow
G21 ; set units to millimeters
G90 ; use absolute coordinates
M83 ; use relative distances for extrusion
M900 K0.2 ; Filament gcode
M107
;LAYER_CHANGE
;Z:0.2
;HEIGHT:0.2
;BEFORE_LAYER_CHANGE
G92 E0.0
;0.2


G1 E-3.2 F2400
G1 Z.2 F720
;AFTER_LAYER_CHANGE
;0.2
G1 Z.4
G1 X69.024 Y86.28 F9000
G1 Z.2 F720
G1 E3.2 F1500
M204 P800
;TYPE:Skirt/Brim
;WIDTH:0.42
G1 F1200
G1 X86.317 Y72.446 E.69435
G1 X87.802 Y71.925 E.04934
G1 X107.922 Y71.958 E.63085
G1 X121.764 Y74.265 E.44001
G1 X122.989 Y74.866 E.04278
G1 X123.751 Y76.61 E.05965
G1 X123.751 Y91.725 E.47393
G1 X123.054 Y93.406 E.05704
G1 X111.519 Y104.941 E.5115
G1 X110.59 Y105.515 E.03425
M73 P0 R58
G1 X96.747 Y110.129 E.4575
G1 X95.996 Y110.251 E.02388
G1 X64.731 Y110.251 E.98029
G1 X63.424 Y109.86 E.04278
G1 X62.547 Y108.814 E.04278
G1 X62.354 Y107.874 E.03008
G1 X62.354 Y92.759 E.47393
G1 X62.745 Y91.452 E.04278
G1 X63.246 Y90.903 E.0233
G1 X68.977 Y86.318 E.23014
M204 P1000
; printing object whistle.stl id:0 copy 0
G1 E-2.24 F2400
;WIPE_START
G1 F7200
G1 X71.226 Y84.519 E-.912
;WIPE_END
G1 E-.048 F2400
G1 Z.4 F720
G1 X107.531 Y76.61 F9000
G1 Z.2 F720
G1 E3.2 F1500
M204 P800
;TYPE:Support material
G1 F1200
G1 X121.373 Y76.61 E.43402
G1 X121.373 Y91.725 E.47393
G1 X116.759 Y91.725 E.14467
G1 X116.759 Y94.032 E.07234
G1 X114.452 Y94.032 E.07234
G1 X114.452 Y98.646 E.14467
G1 X112.145 Y98.646 E.07234
G1 X112.145 Y100.953 E.07234
G1 X109.838 Y100.953 E.07234
G1 X109.838 Y103.26 E.07234
G1 X102.917 Y103.26 E.21701
G1 X102.917 Y105.567 E.07234
G1 X95.996 Y105.567 E.21701
G1 X95.996 Y107.874 E.07234
G1 X64.731 Y107.874 E.98029
G1 X64.731 Y92.759 E.47393
G1 X78.573 Y92.759 E.43402
G1 X78.573 Y90.452 E.07234
G1 X80.88 Y90.452 E.07234
G1 X80.88 Y83.531 E.21701
G1 X83.187 Y83.531 E.07234
G1 X83.187 Y78.917 E.14467
G1 X85.495 Y78.917 E.07234
G1 X85.495 Y76.61 E.07234
G1 X87.802 Y76.61 E.07234
G1 X87.802 Y74.302 E.07234
G1 X107.531 Y74.302 E.6186
G1 X107.531 Y76.553 E.07056
M204 P1000
G1 X97.806 Y78.217 F9000
M204 P800
G1 F1200
G1 X97.053 Y78.251 E.02363
G1 X96.296 Y78.332 E.02386
G1 X95.167 Y78.54 E.03601
G1 X94.439 Y78.733 E.02363
G1 X93.716 Y78.972 E.02385
G1 X92.657 Y79.415 E.03601
G1 X91.986 Y79.757 E.02363
G1 X91.33 Y80.144 E.02385
G1 X90.7 Y80.569 E.02386
G1 X90.164 Y80.978 E.02112
G1 X89.799 Y81.283 E.01489
G1 X89.241 Y81.799 E.02385
G1 X88.72 Y82.344 E.02363
G1 X88.228 Y82.924 E.02386
M73 P1 R58
G1 X87.559 Y83.848 E.03578
G1 X86.974 Y84.836 E.03601
G1 X86.637 Y85.519 E.02386
G1 X86.345 Y86.213 E.02363
G1 X85.982 Y87.303 E.03601
G1 X85.722 Y88.414 E.03578
G1 X85.565 Y89.537 E.03555
G1 X85.511 Y90.684 E.03601
G1 X85.532 Y91.437 E.02363
G1 X85.577 Y92.113 E.02124
G1 X85.573 Y92.406 E.0092
G1 X85.549 Y92.699 E.0092
G1 X85.48 Y93.103 E.01288
G1 X85.306 Y93.694 E.0193
G1 X85.13 Y94.097 E.01379
G1 X84.99 Y94.355 E.0092
G1 X84.832 Y94.602 E.0092
G1 X84.583 Y94.929 E.01288
G1 X84.154 Y95.37 E.0193
G1 X83.928 Y95.557 E.0092
G1 X83.567 Y95.808 E.01379
G1 X83.074 Y96.068 E.01747
G1 X82.637 Y96.237 E.01471
G1 X82.211 Y96.35 E.01379
G1 X81.631 Y96.431 E.01839
G1 X69.166 Y96.441 E.39082
G1 X68.863 Y96.5 E.00967
G1 X68.712 Y96.572 E.00524
G1 X68.575 Y96.668 E.00524
G1 X68.437 Y96.813 E.00629
G1 X68.331 Y96.983 E.00629
G1 X68.263 Y97.172 E.00629
G1 X68.236 Y97.394 E.00701
G1 X68.237 Y103.038 E.17696
G1 X68.258 Y103.204 E.00524
G1 X68.304 Y103.356 E.00498
G1 X68.463 Y103.62 E.00967
G1 X68.608 Y103.759 E.00629
G1 X68.778 Y103.864 E.00629
G1 X68.967 Y103.932 E.00629
G1 X69.189 Y103.959 E.00701
G1 X89.11 Y103.96 E.6246
G1 X89.477 Y103.944 E.01154
G1 X89.785 Y103.908 E.00972
G1 X90.248 Y103.812 E.01483
G1 X90.828 Y103.617 E.01917
G1 X91.278 Y103.4 E.01568
G1 X91.777 Y103.08 E.01858
G1 X92.129 Y102.79 E.01431
G1 X92.456 Y102.46 E.01457
G1 X92.836 Y101.97 E.01942
G1 X93.183 Y101.389 E.02122
G1 X93.331 Y101.247 E.00643
G1 X93.512 Y101.151 E.00643
G1 X93.655 Y101.115 E.00462
G1 X100.086 Y100.127 E.20399
G1 X101.758 Y100.125 E.05242
G1 X102.236 Y100.084 E.01505
G1 X102.716 Y99.993 E.01531
G1 X103.037 Y99.903 E.01046
G1 X103.486 Y99.734 E.01504
G1 X104.281 Y99.333 E.02792
G1 X105.197 Y98.762 E.03384
G1 X106.055 Y98.107 E.03384
G1 X106.84 Y97.378 E.0336
G1 X107.332 Y96.842 E.0228
G1 X107.991 Y95.997 E.0336
G1 X108.391 Y95.39 E.0228
G1 X108.908 Y94.451 E.0336
G1 X109.206 Y93.788 E.0228
G1 X109.459 Y93.114 E.02256
G1 X109.754 Y92.084 E.0336
G1 X109.897 Y91.379 E.02257
G1 X109.995 Y90.658 E.0228
G1 X110.054 Y89.588 E.0336
G1 X110.036 Y88.861 E.0228
G1 X109.925 Y87.795 E.0336
G1 X109.791 Y87.08 E.0228
G1 X109.511 Y86.046 E.0336
G1 X109.266 Y85.361 E.0228
G1 X108.825 Y84.385 E.0336
G1 X108.474 Y83.748 E.0228
G1 X107.883 Y82.854 E.0336
G1 X107.435 Y82.281 E.0228
G1 X106.956 Y81.744 E.02256
G1 X106.182 Y81.003 E.0336
G1 X105.618 Y80.544 E.0228
G1 X104.736 Y79.936 E.0336
G1 X104.106 Y79.572 E.02281
G1 X103.138 Y79.112 E.0336
G1 X102.458 Y78.854 E.0228
G1 X101.43 Y78.554 E.0336
G1 X100.725 Y78.408 E.02256
G1 X100.005 Y78.306 E.0228
G1 X99.287 Y78.252 E.02256
G1 X97.862 Y78.217 E.04469
M204 P1000
G1 E-2.24 F2400
;WIPE_START
G1 F7200
G1 X99.287 Y78.252 E-.45136
G1 X100.005 Y78.306 E-.22788
G1 X100.725 Y78.408 E-.23029
G1 X100.733 Y78.409 E-.00247
;WIPE_END
G1 E-.048 F2400
G1 Z.4 F720
G1 X113.704 Y81.099 F9000
G1 Z.2 F720
G1 E3.2 F1500
M204 P800
G1 F1200
G1 X113.402 Y81.115 E.00948
G1 X113.111 Y81.162 E.00922
G1 X112.819 Y81.24 E.00948
G1 X112.536 Y81.348 E.00949
G1 X112.089 Y81.596 E.01606
G1 X111.847 Y81.779 E.00949
G1 X111.632 Y81.979 E.00922
G1 X111.31 Y82.378 E.01606
G1 X111.159 Y82.63 E.00922
G1 X111.031 Y82.904 E.00948
G1 X110.932 Y83.19 E.00948
G1 X110.864 Y83.484 E.00948
G1 X110.819 Y83.995 E.01606
G1 X110.835 Y84.288 E.00922
G1 X110.882 Y84.587 E.00948
G1 X110.96 Y84.879 E.00948
G1 X111.068 Y85.162 E.00949
G1 X111.317 Y85.61 E.01606
G1 X111.494 Y85.844 E.00922
G1 X111.7 Y86.066 E.00948
G1 X112.098 Y86.388 E.01606
G1 X112.358 Y86.543 E.00948
G1 X112.624 Y86.667 E.00922
G1 X113.114 Y86.817 E.01606
G1 X113.413 Y86.864 E.00948
G1 X113.707 Y86.879 E.00922
G1 X114.217 Y86.834 E.01606
G1 X114.503 Y86.768 E.00922
G1 X114.789 Y86.67 E.00949
G1 X115.246 Y86.437 E.01606
G1 X115.493 Y86.263 E.00949
G1 X115.721 Y86.064 E.00948
G1 X115.927 Y85.842 E.00948
G1 X116.104 Y85.607 E.00922
G1 X116.352 Y85.159 E.01606
G1 X116.46 Y84.877 E.00948
G1 X116.536 Y84.593 E.00922
G1 X116.583 Y84.294 E.00948
G1 X116.599 Y83.992 E.00948
G1 X116.554 Y83.482 E.01606
G1 X116.486 Y83.187 E.00949
G1 X116.39 Y82.909 E.00922
G1 X116.157 Y82.453 E.01606
G1 X115.983 Y82.205 E.00948
G1 X115.784 Y81.977 E.00949
G1 X115.563 Y81.772 E.00948
G1 X115.328 Y81.595 E.00922
G1 X114.88 Y81.347 E.01606
G1 X114.605 Y81.241 E.00922
G1 X114.313 Y81.163 E.00949
G1 X114.014 Y81.115 E.00948
G1 X113.76 Y81.1 E.00798
M204 P1000
G1 E-2.24 F2400
;WIPE_START
G1 F7200
G1 X114.014 Y81.115 E-.08055
G1 X114.313 Y81.163 E-.09577
G1 X114.605 Y81.241 E-.09581
G1 X114.88 Y81.347 E-.09314
G1 X115.328 Y81.595 E-.16216
G1 X115.563 Y81.772 E-.09315
G1 X115.784 Y81.977 E-.09577
G1 X115.983 Y82.205 E-.09581
G1 X116.157 Y82.453 E-.09578
G1 X116.163 Y82.464 E-.00406
;WIPE_END
G1 E-.048 F2400
G1 Z.4 F720
G1 X120.705 Y91.555 F9000
G1 Z.2 F720
G1 E3.2 F1500
M204 P800
G1 F1200
G1 X120.705 Y76.949 E.45797
G1 X120.286 Y76.949 E.01314
G1 X120.286 Y91.385 E.45265
G1 X119.867 Y91.385 E.01314
G1 X119.867 Y76.949 E.45265
G1 X119.448 Y76.949 E.01314
G1 X119.448 Y91.385 E.45265
G1 X119.029 Y91.385 E.01314
G1 X119.029 Y76.949 E.45265
G1 X118.61 Y76.949 E.01314
G1 X118.61 Y91.385 E.45265
G1 X118.191 Y91.385 E.01314
G1 X118.191 Y76.949 E.45265
G1 X117.772 Y76.949 E.01314
G1 X117.772 Y91.385 E.45265
G1 X117.353 Y91.385 E.01314
G1 X117.353 Y76.949 E.45265
G1 X116.934 Y76.949 E.01314
G1 X116.934 Y91.385 E.45265
G1 X116.515 Y91.385 E.01314
G1 X116.515 Y85.588 E.18177
G1 X116.319 Y85.892 E.01133
G1 X116.096 Y86.164 E.01104
G1 X116.096 Y93.692 E.23604
G1 X115.677 Y93.692 E.01314
G1 X115.677 Y86.549 E.22396
G1 X115.258 Y86.822 E.01568
G1 X115.258 Y93.692 E.2154
G1 X114.839 Y93.692 E.01314
G1 X114.839 Y87.014 E.2094
G1 X114.42 Y87.139 E.01371
G1 X114.42 Y93.692 E.20548
G1 X114.113 Y93.692 E.00963
G1 X114.113 Y98.307 E.14467
G1 X114.001 Y98.307 E.00351
G1 X114.001 Y87.205 E.34809
G1 X113.582 Y87.216 E.01314
G1 X113.582 Y98.307 E.34775
G1 X113.163 Y98.307 E.01314
G1 X113.163 Y87.172 E.34913
G1 X112.744 Y87.07 E.01352
G1 X112.744 Y98.307 E.3523
G1 X112.325 Y98.307 E.01314
G1 X112.325 Y86.906 E.35745
G1 X111.906 Y86.668 E.01511
G1 X111.906 Y98.307 E.36492
G1 X111.806 Y98.307 E.00315
G1 X111.806 Y100.614 E.07234
G1 X111.487 Y100.614 E.00999
G1 X111.487 Y86.332 E.4478
G1 X111.241 Y86.071 E.01123
G1 X111.068 Y85.846 E.0089
G1 X111.068 Y100.614 E.46302
G1 X110.649 Y100.614 E.01314
G1 X110.649 Y76.949 E.74199
G1 X111.068 Y76.949 E.01314
G1 X111.068 Y82.131 E.16249
G1 X111.239 Y81.909 E.0088
G1 X111.487 Y81.646 E.01133
G1 X111.487 Y76.949 E.14728
G1 X111.906 Y76.949 E.01314
G1 X111.906 Y81.31 E.13674
G1 X112.325 Y81.072 E.01511
G1 X112.325 Y76.949 E.12927
G1 X112.744 Y76.949 E.01314
G1 X112.744 Y80.908 E.12412
G1 X113.163 Y80.806 E.01352
G1 X113.163 Y76.949 E.12095
G1 X113.582 Y76.949 E.01314
G1 X113.582 Y80.762 E.11956
G1 X114.001 Y80.773 E.01314
G1 X114.001 Y76.949 E.11991
G1 X114.42 Y76.949 E.01314
G1 X114.42 Y80.839 E.12197
G1 X114.839 Y80.964 E.01371
G1 X114.839 Y76.949 E.12589
G1 X115.258 Y76.949 E.01314
G1 X115.258 Y81.155 E.13189
G1 X115.677 Y81.428 E.01568
G1 X115.677 Y76.949 E.14045
G1 X116.096 Y76.949 E.01314
G1 X116.096 Y81.814 E.15253
G1 X116.325 Y82.095 E.01139
G1 X116.515 Y82.39 E.01098
G1 X116.515 Y76.779 E.17592
M204 P1000
G1 E-2.24 F2400
;WIPE_START
G1 F7200
G1 X116.515 Y79.659 E-.912
;WIPE_END
G1 E-.048 F2400
G1 Z.4 F720
G1 X110.23 Y100.783 F9000
G1 Z.2 F720
G1 E3.2 F1500
M204 P800
G1 F1200
G1 X110.23 Y76.949 E.74731
G1 X109.811 Y76.949 E.01314
G1 X109.811 Y85.873 E.27982
G1 X109.586 Y85.246 E.02089
G1 X109.392 Y84.788 E.01558
G1 X109.392 Y76.949 E.2458
G1 X108.973 Y76.949 E.01314
G1 X108.973 Y83.94 E.21919
G1 X108.554 Y83.233 E.02575
G1 X108.554 Y76.949 E.19704
G1 X108.135 Y76.949 E.01314
G1 X108.135 Y82.624 E.17795
G1 X107.716 Y82.089 E.02132
G1 X107.716 Y76.949 E.16115
G1 X107.297 Y76.949 E.01314
G1 X107.297 Y81.613 E.14624
G1 X106.878 Y81.184 E.01881
G1 X106.878 Y74.642 E.20512
G1 X106.459 Y74.642 E.01314
G1 X106.459 Y80.796 E.19296
G1 X106.04 Y80.444 E.01715
G1 X106.04 Y74.642 E.18193
G1 X105.621 Y74.642 E.01314
G1 X105.621 Y80.125 E.17191
G1 X105.202 Y79.832 E.01602
G1 X105.202 Y74.642 E.16275
G1 X104.784 Y74.642 E.01314
G1 X104.784 Y79.569 E.15448
G1 X104.365 Y79.328 E.01516
G1 X104.365 Y74.642 E.14692
G1 X103.946 Y74.642 E.01314
G1 X103.946 Y79.108 E.14003
G1 X103.527 Y78.912 E.01451
G1 X103.527 Y74.642 E.13388
G1 X103.108 Y74.642 E.01314
G1 X103.108 Y78.735 E.12833
G1 X102.689 Y78.576 E.01405
G1 X102.689 Y74.642 E.12335
G1 X102.27 Y74.642 E.01314
G1 X102.27 Y78.435 E.11893
G1 X101.851 Y78.311 E.0137
G1 X101.851 Y74.642 E.11506
G1 X101.432 Y74.642 E.01314
G1 X101.432 Y78.206 E.11176
G1 X101.013 Y78.117 E.01343
M73 P2 R58
G1 X101.013 Y74.642 E.10896
G1 X100.594 Y74.642 E.01314
G1 X100.594 Y78.043 E.10665
G1 X100.175 Y77.985 E.01326
G1 X100.175 Y74.642 E.10483
G1 X99.756 Y74.642 E.01314
G1 X99.756 Y77.942 E.10349
G1 X99.337 Y77.915 E.01317
G1 X99.337 Y74.642 E.10262
G1 X98.918 Y74.642 E.01314
G1 X98.918 Y77.902 E.10223
G1 X98.499 Y77.887 E.01315
G1 X98.499 Y74.642 E.10176
G1 X98.08 Y74.642 E.01314
G1 X98.08 Y77.878 E.10146
G1 X97.661 Y77.882 E.01314
G1 X97.661 Y74.642 E.1016
G1 X97.242 Y74.642 E.01314
G1 X97.242 Y77.9 E.10216
G1 X96.823 Y77.932 E.01317
G1 X96.823 Y74.642 E.10315
G1 X96.404 Y74.642 E.01314
G1 X96.404 Y77.977 E.10457
G1 X95.985 Y78.036 E.01327
G1 X95.985 Y74.642 E.10643
G1 X95.566 Y74.642 E.01314
G1 X95.566 Y78.11 E.10873
G1 X95.147 Y78.197 E.01342
G1 X95.147 Y74.642 E.11148
G1 X94.728 Y74.642 E.01314
G1 X94.728 Y78.3 E.11469
G1 X94.309 Y78.418 E.01365
G1 X94.309 Y74.642 E.1184
G1 X93.89 Y74.642 E.01314
G1 X93.89 Y78.552 E.12261
G1 X93.471 Y78.702 E.01395
G1 X93.471 Y74.642 E.12731
G1 X93.052 Y74.642 E.01314
G1 X93.052 Y78.869 E.13254
G1 X92.633 Y79.053 E.01434
G1 X92.633 Y74.642 E.1383
G1 X92.214 Y74.642 E.01314
G1 X92.214 Y79.254 E.14461
G1 X91.795 Y79.475 E.01485
G1 X91.795 Y74.642 E.15154
G1 X91.376 Y74.642 E.01314
G1 X91.376 Y79.718 E.15916
G1 X90.957 Y79.982 E.01553
G1 X90.957 Y74.642 E.16743
G1 X90.538 Y74.642 E.01314
G1 X90.538 Y80.268 E.17641
G1 X90.119 Y80.581 E.0164
G1 X90.119 Y74.642 E.18622
G1 X89.7 Y74.642 E.01314
G1 X89.7 Y80.922 E.19691
G1 X89.281 Y81.292 E.01752
G1 X89.281 Y74.642 E.20851
G1 X88.862 Y74.642 E.01314
G1 X88.862 Y81.7 E.2213
G1 X88.443 Y82.144 E.01915
G1 X88.443 Y74.642 E.23523
G1 X88.141 Y74.642 E.00948
G1 X88.141 Y76.949 E.07234
G1 X88.024 Y76.949 E.00366
G1 X88.024 Y82.637 E.17836
G1 X87.605 Y83.186 E.02163
G1 X87.605 Y76.949 E.19555
G1 X87.186 Y76.949 E.01314
G1 X87.186 Y83.802 E.21487
G1 X86.768 Y84.507 E.02572
G1 X86.768 Y76.949 E.23698
G1 X86.349 Y76.949 E.01314
G1 X86.349 Y85.334 E.26292
G1 X85.93 Y86.359 E.03472
M73 P2 R57
G1 X85.93 Y76.949 E.29506
G1 X85.834 Y76.949 E.003
G1 X85.834 Y79.256 E.07234
G1 X85.511 Y79.256 E.01014
G1 X85.511 Y87.776 E.26714
G1 X85.322 Y88.739 E.03077
G1 X85.197 Y89.892 E.03636
G1 X85.176 Y91.064 E.03675
G1 X85.238 Y92.255 E.03739
G1 X85.193 Y92.792 E.01691
G1 X85.092 Y93.259 E.01497
G1 X85.092 Y79.256 E.43905
G1 X84.673 Y79.256 E.01314
G1 X84.673 Y94.223 E.46928
G1 X84.474 Y94.52 E.01119
G1 X84.254 Y94.791 E.01095
G1 X84.254 Y79.256 E.48708
G1 X83.835 Y79.256 E.01314
G1 X83.835 Y95.197 E.49983
G1 X83.416 Y95.501 E.01623
G1 X83.416 Y83.87 E.36469
G1 X82.997 Y83.87 E.01314
G1 X82.997 Y95.73 E.37187
G1 X82.578 Y95.899 E.01415
G1 X82.578 Y83.87 E.37714
G1 X82.159 Y83.87 E.01314
G1 X82.159 Y96.014 E.38076
G1 X81.74 Y96.081 E.0133
G1 X81.74 Y83.87 E.38285
G1 X81.321 Y83.87 E.01314
G1 X81.321 Y96.102 E.38351
G1 X80.902 Y96.102 E.01314
G1 X80.902 Y90.791 E.1665
G1 X80.483 Y90.791 E.01314
G1 X80.483 Y96.102 E.1665
G1 X80.064 Y96.102 E.01314
G1 X80.064 Y90.791 E.1665
G1 X79.645 Y90.791 E.01314
G1 X79.645 Y96.102 E.1665
G1 X79.226 Y96.102 E.01314
G1 X79.226 Y90.791 E.1665
G1 X78.913 Y90.791 E.00982
G1 X78.913 Y93.098 E.07234
G1 X78.807 Y93.098 E.00332
G1 X78.807 Y96.102 E.09416
G1 X78.388 Y96.102 E.01314
G1 X78.388 Y93.098 E.09416
G1 X77.969 Y93.098 E.01314
G1 X77.969 Y96.102 E.09416
G1 X77.55 Y96.102 E.01314
G1 X77.55 Y93.098 E.09416
G1 X77.131 Y93.098 E.01314
G1 X77.131 Y96.102 E.09416
G1 X76.712 Y96.102 E.01314
G1 X76.712 Y93.098 E.09416
G1 X76.293 Y93.098 E.01314
G1 X76.293 Y96.102 E.09416
G1 X75.874 Y96.102 E.01314
G1 X75.874 Y93.098 E.09416
G1 X75.455 Y93.098 E.01314
G1 X75.455 Y96.102 E.09416
G1 X75.036 Y96.102 E.01314
G1 X75.036 Y93.098 E.09416
G1 X74.617 Y93.098 E.01314
G1 X74.617 Y96.102 E.09416
