; generated by PrusaSlicer 2.4.2 on 2023-12-11 at 17:37:35 UTC


;
;

;
;
; 

; external perimeters extrusion width = 0.45mm
; perimeters extrusion width = 0.45mm
; infill extrusion width = 0.45mm
; solid infill extrusion width = 0.45mm
; top infill extrusion width = 0.40mm
; support material extrusion width = 0.35mm
; first layer extrusion width = 0.42mm

M73 P0 R30
M201 X2500 Y2500 Z400 E5000 ; sets maximum accelerations, mm/sec^2
M203 X180 Y180 Z12 E80 ; sets maximum feedrates, mm / sec
M204 P1250 R1250 T2500 ; sets acceleration (P, T) and retract acceleration (R), mm/sec^2
M205 X8.00 Y8.00 Z2.00 E10.00 ; sets the jerk limits, mm/sec
M205 S0 T0 ; sets the minimum extruding and travel feed rate, mm/sec
M107
;TYPE:Custom
M862.3 P "MINI" ; printer model check
G90 ; use absolute coordinates
M83 ; extruder relative mode
M104 S170 ; set extruder temp for bed leveling
M140 S60 ; set bed temp
M109 R170 ; wait for bed leveling temp
M190 S60 ; wait for bed temp
M204 T1250 ; set travel acceleration
G28 ; home all without mesh bed level
G29 ; mesh bed leveling 
M204 T2500 ; restore travel acceleration
M104 S215 ; set extruder temp
G92 E0
G1 Y-2 X179 F2400
G1 Z3 F720
M109 S215 ; wait for extruder temp

; intro line
G1 X170 F1000
G1 Z0.2 F720
G1 X110 E8 F900
G1 X40 E10 F700
G92 E0

M221 S95 ; set flow
G21 ; set units to millimeters
G90 ; use absolute coordinates
M83 ; use relative distances for extrusion
M900 K0.2 ; Filament gcode LA 1.5
; ; Filament gcode LA 1.0
M107
;LAYER_CHANGE
;Z:0.2
;HEIGHT:0.2
;BEFORE_LAYER_CHANGE
G92 E0.0
;0.2


G1 E-3.2 F4200
G1 Z.2 F720
;AFTER_LAYER_CHANGE
;0.2
G1 Z.4
G1 X80.005 Y79.545 F9000
G1 Z.2 F720
G1 E3.2 F2400
M204 P800
;TYPE:Skirt/Brim
;WIDTH:0.42
G1 F1200
G1 X80.676 Y79.069 E.02579
G1 X81.588 Y78.674 E.03118
G1 X82.475 Y78.503 E.02832
G1 X97.23 Y78.487 E.46264
G1 X97.878 Y78.548 E.02038
G1 X98.672 Y78.762 E.02579
G1 X99.412 Y79.121 E.02579
G1 X99.995 Y79.545 E.02262
G1 X100.565 Y80.138 E.02579
G1 X100.931 Y80.676 E.02038
G1 X101.272 Y81.424 E.02579
G1 X101.452 Y82.122 E.02262
G1 X101.514 Y82.856 E.02309
G1 X101.51 Y97.324 E.45364
G1 X101.272 Y98.576 E.03995
M73 P1 R30
G1 X101.014 Y99.173 E.02038
G1 X100.628 Y99.782 E.02262
G1 X99.995 Y100.455 E.02895
G1 X99.173 Y101.014 E.03119
G1 X98.238 Y101.375 E.03142
G1 X97.324 Y101.51 E.02896
G1 X82.676 Y101.51 E.45929
G1 X81.424 Y101.272 E.03995
G1 X80.827 Y101.014 E.02038
G1 X80.218 Y100.628 E.02262
G1 X79.545 Y99.995 E.02896
G1 X78.986 Y99.173 E.03118
G1 X78.625 Y98.238 E.03142
G1 X78.49 Y97.324 E.02895
G1 X78.49 Y82.676 E.45929
G1 X78.728 Y81.424 E.03995
G1 X78.986 Y80.827 E.02038
G1 X79.372 Y80.218 E.02262
G1 X79.963 Y79.589 E.02707
M204 P1000
G1 X80.238 Y79.863 F9000
M204 P800
G1 F1200
G1 X80.369 Y79.733 E.0058
G1 X80.998 Y79.322 E.02356
G1 X81.694 Y79.036 E.02356
G1 X82.512 Y78.878 E.02615
G1 X97.219 Y78.864 E.4611
G1 X97.819 Y78.921 E.0189
M73 P1 R29
G1 X98.544 Y79.117 E.02356
G1 X99.22 Y79.445 E.02356
G1 X99.746 Y79.828 E.02039
G1 X100.267 Y80.369 E.02356
G1 X100.606 Y80.868 E.0189
G1 X100.918 Y81.552 E.02356
G1 X101.094 Y82.274 E.02333
G1 X101.133 Y97.312 E.47151
G1 X100.883 Y98.544 E.0394
G1 X100.267 Y99.631 E.03917
G1 X99.631 Y100.267 E.02822
G1 X98.911 Y100.724 E.02673
G1 X98.129 Y101.013 E.02614
G1 X97.312 Y101.133 E.02589
G1 X82.688 Y101.133 E.45855
G1 X81.456 Y100.883 E.0394
G1 X80.369 Y100.267 E.03917
G1 X79.733 Y99.631 E.02822
G1 X79.276 Y98.911 E.02673
G1 X78.987 Y98.129 E.02614
G1 X78.867 Y97.312 E.02589
G1 X78.867 Y82.688 E.45855
G1 X79.117 Y81.456 E.0394
G1 X79.733 Y80.369 E.03917
G1 X80.196 Y79.906 E.02054
M204 P1000
; printing object hraci_kostka.stl id:0 copy 0
G1 E-2.24 F4200
;WIPE_START
G1 F7200
G1 X80.369 Y79.733 E-.13579
G1 X80.998 Y79.322 E-.41645
G1 X81.599 Y79.075 E-.35976
;WIPE_END
G1 E-.048 F4200
G1 Z.4 F720
G1 X92.696 Y92.744 F9000
G1 Z.2 F720
G1 E3.2 F2400
M204 P800
;TYPE:Perimeter
G1 F1200
G1 X92.982 Y92.491 E.01198
G1 X93.342 Y92.279 E.01309
G1 X93.742 Y92.135 E.01333
G1 X94.251 Y92.068 E.0161
G1 X94.7 Y92.106 E.01412
G1 X95.103 Y92.224 E.01317
G1 X95.475 Y92.413 E.01309
G1 X95.805 Y92.669 E.01309
G1 X96.081 Y92.982 E.01309
G1 X96.295 Y93.344 E.01317
G1 X96.444 Y93.769 E.01412
G1 X96.506 Y94.279 E.0161
G1 X96.466 Y94.693 E.01304
G1 X96.395 Y94.971 E.00902
G1 X96.289 Y95.239 E.00902
G1 X96.081 Y95.59 E.0128
G1 X95.805 Y95.904 E.01309
G1 X95.475 Y96.16 E.01309
G1 X95.103 Y96.349 E.01309
G1 X94.702 Y96.466 E.01309
G1 X94.286 Y96.505 E.01309
G1 X93.871 Y96.466 E.01309
G1 X93.47 Y96.349 E.01309
G1 X93.095 Y96.158 E.01317
G1 X92.742 Y95.879 E.01412
G1 X92.417 Y95.482 E.0161
G1 X92.224 Y95.103 E.01333
G1 X92.107 Y94.702 E.01309
G1 X92.068 Y94.286 E.01309
G1 X92.107 Y93.871 E.01309
G1 X92.224 Y93.47 E.01309
G1 X92.413 Y93.098 E.01309
G1 X92.654 Y92.787 E.01233
M204 P1000
G1 X92.945 Y93.027 F9000
M204 P800
;TYPE:External perimeter
G1 F1200
G1 X93.205 Y92.798 E.01086
G1 X93.503 Y92.622 E.01086
G1 X93.831 Y92.503 E.01094
G1 X94.26 Y92.447 E.01354
G1 X94.63 Y92.479 E.01167
G1 X94.964 Y92.576 E.01089
G1 X95.272 Y92.733 E.01086
G1 X95.546 Y92.945 E.01086
G1 X95.775 Y93.205 E.01086
G1 X95.951 Y93.504 E.01089
G1 X96.075 Y93.855 E.01167
G1 X96.126 Y94.284 E.01354
G1 X96.094 Y94.628 E.01084
G1 X96.036 Y94.855 E.00735
G1 X95.949 Y95.073 E.00735
G1 X95.775 Y95.368 E.01075
G1 X95.546 Y95.627 E.01086
G1 X95.272 Y95.84 E.01086
G1 X94.964 Y95.997 E.01086
G1 X94.631 Y96.094 E.01086
G1 X94.286 Y96.126 E.01086
G1 X93.942 Y96.094 E.01086
G1 X93.609 Y95.997 E.01086
G1 X93.3 Y95.839 E.01089
G1 X93.008 Y95.609 E.01167
G1 X92.734 Y95.275 E.01354
G1 X92.576 Y94.964 E.01094
G1 X92.479 Y94.631 E.01086
G1 X92.447 Y94.286 E.01086
G1 X92.479 Y93.942 E.01086
G1 X92.576 Y93.609 E.01086
G1 X92.733 Y93.301 E.01086
G1 X92.908 Y93.074 E.00898
M204 P1000
G1 X92.845 Y92.695 F9000
G1 E-2.24 F4200
;WIPE_START
G1 F7200
G1 X93.205 Y92.798 E-.22465
G1 X93.503 Y92.622 E-.19189
G1 X93.831 Y92.503 E-.19343
G1 X94.26 Y92.447 E-.23932
G1 X94.372 Y92.457 E-.0627
;WIPE_END
G1 E-.048 F4200
G1 Z.4 F720
G1 X93.726 Y87.859 F9000
G1 Z.2 F720
G1 E3.2 F2400
M204 P800
;TYPE:Perimeter
G1 F1200
G1 X93.342 Y87.721 E.0128
G1 X92.982 Y87.509 E.01309
G1 X92.669 Y87.232 E.01309
G1 X92.413 Y86.902 E.01309
G1 X92.224 Y86.53 E.01309
G1 X92.107 Y86.129 E.01309
G1 X92.068 Y85.714 E.01309
G1 X92.107 Y85.298 E.01309
G1 X92.224 Y84.897 E.01309
G1 X92.413 Y84.525 E.01309
G1 X92.669 Y84.195 E.01309
G1 X92.982 Y83.919 E.01309
G1 X93.342 Y83.706 E.01309
G1 X93.742 Y83.562 E.01333
G1 X94.251 Y83.495 E.0161
G1 X94.7 Y83.534 E.01412
G1 X95.103 Y83.651 E.01317
G1 X95.475 Y83.84 E.01309
G1 X95.805 Y84.096 E.01309
G1 X96.081 Y84.41 E.01309
G1 X96.289 Y84.761 E.0128
G1 X96.395 Y85.029 E.00902
G1 X96.466 Y85.307 E.00902
G1 X96.505 Y85.714 E.0128
G1 X96.466 Y86.129 E.01309
G1 X96.349 Y86.53 E.01309
G1 X96.16 Y86.902 E.01309
G1 X95.904 Y87.232 E.01309
G1 X95.59 Y87.509 E.01309
G1 X95.231 Y87.721 E.01309
G1 X94.847 Y87.859 E.0128
G1 X94.564 Y87.913 E.00902
G1 X94.286 Y87.931 E.00873
G1 X94.008 Y87.913 E.00873
G1 X93.785 Y87.871 E.00714
M204 P1000
G1 X93.994 Y87.527 F9000
M204 P800
;TYPE:External perimeter
G1 F1200
G1 X93.826 Y87.495 E.00538
G1 X93.503 Y87.378 E.01075
G1 X93.205 Y87.202 E.01086
G1 X92.945 Y86.973 E.01086
G1 X92.733 Y86.699 E.01086
G1 X92.576 Y86.391 E.01086
G1 X92.479 Y86.058 E.01086
G1 X92.447 Y85.714 E.01086
G1 X92.479 Y85.369 E.01086
G1 X92.576 Y85.036 E.01086
G1 X92.733 Y84.728 E.01086
G1 X92.945 Y84.454 E.01086
G1 X93.205 Y84.225 E.01086
G1 X93.503 Y84.049 E.01086
G1 X93.831 Y83.931 E.01094
G1 X94.26 Y83.874 E.01354
G1 X94.63 Y83.906 E.01167
G1 X94.964 Y84.003 E.01089
G1 X95.272 Y84.16 E.01086
G1 X95.546 Y84.373 E.01086
G1 X95.775 Y84.632 E.01086
G1 X95.949 Y84.927 E.01075
G1 X96.036 Y85.145 E.00735
G1 X96.094 Y85.372 E.00735
G1 X96.126 Y85.714 E.01075
G1 X96.094 Y86.058 E.01086
G1 X95.997 Y86.391 E.01086
G1 X95.84 Y86.699 E.01086
G1 X95.627 Y86.973 E.01086
G1 X95.368 Y87.202 E.01086
G1 X95.07 Y87.378 E.01086
G1 X94.747 Y87.495 E.01075
G1 X94.517 Y87.538 E.00735
G1 X94.286 Y87.553 E.00724
G1 X94.053 Y87.538 E.00732
M204 P1000
G1 X93.889 Y87.663 F9000
G1 E-2.24 F4200
;WIPE_START
G1 F7200
G1 X93.826 Y87.495 E-.12842
G1 X93.503 Y87.378 E-.19006
G1 X93.205 Y87.202 E-.1919
G1 X92.945 Y86.973 E-.19189
G1 X92.733 Y86.699 E-.1919
G1 X92.718 Y86.671 E-.01783
;WIPE_END
G1 E-.048 F4200
G1 Z.4 F720
G1 X87.896 Y86.094 F9000
G1 Z.2 F720
G1 E3.2 F2400
M204 P800
;TYPE:Perimeter
G1 F1200
G1 X87.776 Y86.53 E.01419
G1 X87.587 Y86.902 E.01309
G1 X87.331 Y87.232 E.01309
G1 X87.018 Y87.509 E.01309
G1 X86.658 Y87.721 E.01309
G1 X86.274 Y87.859 E.0128
G1 X85.992 Y87.913 E.00902
G1 X85.704 Y87.931 E.00902
G1 X85.298 Y87.893 E.0128
G1 X84.897 Y87.776 E.01309
G1 X84.518 Y87.583 E.01334
G1 X84.121 Y87.258 E.0161
G1 X83.842 Y86.905 E.01412
G1 X83.651 Y86.53 E.01317
G1 X83.534 Y86.129 E.01309
G1 X83.495 Y85.714 E.01309
G1 X83.534 Y85.298 E.01309
G1 X83.651 Y84.897 E.01309
G1 X83.84 Y84.525 E.01309
G1 X84.096 Y84.195 E.01309
G1 X84.41 Y83.919 E.01309
G1 X84.769 Y83.706 E.01309
G1 X85.169 Y83.562 E.01333
G1 X85.678 Y83.495 E.0161
G1 X86.127 Y83.534 E.01412
G1 X86.53 Y83.651 E.01317
G1 X86.902 Y83.84 E.01309
G1 X87.234 Y84.098 E.01317
G1 X87.529 Y84.438 E.01412
G1 X87.774 Y84.89 E.0161
G1 X87.893 Y85.298 E.01333
G1 X87.932 Y85.714 E.01309
G1 X87.902 Y86.034 E.01009
M204 P1000
G1 X87.521 Y86.058 F9000
M204 P800
;TYPE:External perimeter
G1 F1200
G1 X87.424 Y86.391 E.01086
G1 X87.267 Y86.699 E.01086
G1 X87.055 Y86.973 E.01086
G1 X86.795 Y87.202 E.01086
G1 X86.497 Y87.378 E.01086
G1 X86.174 Y87.495 E.01075
G1 X85.944 Y87.538 E.00735
G1 X85.71 Y87.553 E.00735
G1 X85.369 Y87.521 E.01075
G1 X85.036 Y87.424 E.01086
G1 X84.725 Y87.266 E.01094
G1 X84.391 Y86.992 E.01354
G1 X84.161 Y86.7 E.01167
G1 X84.003 Y86.391 E.01088
G1 X83.906 Y86.058 E.01086
G1 X83.874 Y85.714 E.01086
G1 X83.906 Y85.369 E.01086
G1 X84.003 Y85.036 E.01086
G1 X84.16 Y84.728 E.01086
G1 X84.373 Y84.454 E.01086
G1 X84.632 Y84.225 E.01086
G1 X84.93 Y84.049 E.01086
G1 X85.259 Y83.931 E.01094
G1 X85.687 Y83.874 E.01354
G1 X86.058 Y83.906 E.01167
G1 X86.391 Y84.003 E.01089
G1 X86.699 Y84.16 E.01086
G1 X86.974 Y84.373 E.01089
G1 X87.218 Y84.654 E.01166
G1 X87.424 Y85.034 E.01354
G1 X87.521 Y85.369 E.01094
G1 X87.553 Y85.714 E.01086
G1 X87.527 Y85.999 E.00898
M204 P1000
G1 X87.783 Y86.285 F9000
G1 E-2.24 F4200
;WIPE_START
G1 F7200
G1 X87.424 Y86.391 E-.22464
G1 X87.267 Y86.699 E-.19189
G1 X87.055 Y86.973 E-.19191
G1 X86.795 Y87.202 E-.1919
G1 X86.622 Y87.305 E-.11165
;WIPE_END
G1 E-.048 F4200
G1 Z.4 F720
G1 X86.09 Y92.103 F9000
G1 Z.2 F720
G1 E3.2 F2400
M204 P800
;TYPE:Perimeter
G1 F1200
G1 X86.53 Y92.224 E.01432
G1 X86.902 Y92.413 E.01309
G1 X87.232 Y92.669 E.01309
G1 X87.509 Y92.982 E.01309
G1 X87.721 Y93.342 E.01309
G1 X87.859 Y93.726 E.0128
G1 X87.913 Y94.008 E.00902
G1 X87.931 Y94.286 E.00873
G1 X87.913 Y94.564 E.00873
G1 X87.859 Y94.847 E.00902
G1 X87.721 Y95.231 E.0128
G1 X87.509 Y95.59 E.01309
G1 X87.232 Y95.904 E.01309
G1 X86.902 Y96.16 E.01309
G1 X86.53 Y96.349 E.01309
G1 X86.129 Y96.466 E.01309
G1 X85.714 Y96.505 E.01309
G1 X85.307 Y96.466 E.0128
G1 X85.029 Y96.395 E.00902
G1 X84.761 Y96.289 E.00902
G1 X84.41 Y96.081 E.0128
G1 X84.096 Y95.805 E.01309
G1 X83.84 Y95.475 E.01309
G1 X83.651 Y95.103 E.01309
G1 X83.534 Y94.702 E.01309
G1 X83.495 Y94.286 E.01309
G1 X83.534 Y93.871 E.01309
G1 X83.651 Y93.47 E.01309
G1 X83.84 Y93.098 E.01309
G1 X84.096 Y92.768 E.01309
G1 X84.41 Y92.491 E.01309
G1 X84.769 Y92.279 E.01309
G1 X85.169 Y92.135 E.01333
G1 X85.678 Y92.068 E.0161
G1 X86.03 Y92.098 E.01107
M204 P1000
G1 X86.058 Y92.479 F9000
M204 P800
;TYPE:External perimeter
G1 F1200
G1 X86.391 Y92.576 E.01089
G1 X86.699 Y92.733 E.01086
G1 X86.973 Y92.945 E.01086
G1 X87.202 Y93.205 E.01086
G1 X87.378 Y93.503 E.01086
G1 X87.495 Y93.826 E.01075
G1 X87.538 Y94.056 E.00735
G1 X87.553 Y94.286 E.00724
G1 X87.538 Y94.517 E.00724
G1 X87.495 Y94.747 E.00735
G1 X87.378 Y95.07 E.01075
G1 X87.202 Y95.368 E.01086
G1 X86.973 Y95.627 E.01086
G1 X86.699 Y95.84 E.01086
G1 X86.391 Y95.997 E.01086
G1 X86.058 Y96.094 E.01086
G1 X85.714 Y96.126 E.01086
G1 X85.372 Y96.094 E.01075
G1 X85.145 Y96.036 E.00735
G1 X84.927 Y95.949 E.00735
G1 X84.632 Y95.775 E.01075
G1 X84.373 Y95.546 E.01086
G1 X84.16 Y95.272 E.01086
G1 X84.003 Y94.964 E.01086
G1 X83.906 Y94.631 E.01086
G1 X83.874 Y94.286 E.01086
G1 X83.906 Y93.942 E.01086
G1 X84.003 Y93.609 E.01086
G1 X84.16 Y93.301 E.01086
G1 X84.373 Y93.027 E.01086
G1 X84.632 Y92.798 E.01086
G1 X84.93 Y92.622 E.01086
G1 X85.259 Y92.503 E.01094
G1 X85.687 Y92.447 E.01354
G1 X85.998 Y92.474 E.00978
M204 P1000
G1 X86.282 Y92.214 F9000
G1 E-2.24 F4200
;WIPE_START
G1 F7200
G1 X86.391 Y92.576 E-.22509
G1 X86.699 Y92.733 E-.19189
G1 X86.973 Y92.945 E-.1919
G1 X87.202 Y93.205 E-.19189
G1 X87.304 Y93.378 E-.11122
;WIPE_END
G1 E-.048 F4200
G1 Z.4 F720
G1 X82.896 Y97.104 F9000
G1 Z.2 F720
G1 E3.2 F2400
M204 P800
;TYPE:Perimeter
G1 F1200
G1 X82.896 Y82.896 E.44546
G1 X97.103 Y82.893 E.44545
G1 X97.104 Y97.104 E.44556
G1 X82.956 Y97.107 E.44359
M204 P1000
G1 X82.545 Y97.277 F9000
M204 P800
;TYPE:External perimeter
G1 F1200
G1 X82.516 Y97.121 E.00499
G1 X82.516 Y82.879 E.44656
G1 X82.543 Y82.732 E.00468
G1 X82.615 Y82.62 E.00417
G1 X82.723 Y82.545 E.00411
G1 X82.879 Y82.516 E.00499
G1 X97.135 Y82.516 E.44698
G1 X97.279 Y82.546 E.00462
M73 P2 R29
G1 X97.389 Y82.626 E.00427
G1 X97.457 Y82.732 E.00394
G1 X97.484 Y82.879 E.00468
G1 X97.484 Y97.121 E.44656
G1 X97.457 Y97.268 E.00468
G1 X97.385 Y97.38 E.00417
G1 X97.277 Y97.455 E.00411
G1 X97.121 Y97.484 E.00499
G1 X82.879 Y97.484 E.44656
G1 X82.732 Y97.457 E.00468
G1 X82.62 Y97.385 E.00417
G1 X82.574 Y97.33 E.00225
M204 P1000
G1 X82.642 Y97.151 F9000
G1 E-2.24 F4200
;WIPE_START
G1 F7200
G1 X82.516 Y97.121 E-.12014
G1 X82.516 Y95.692 E-.79186
;WIPE_END
G1 E-.048 F4200
G1 Z.4 F720
G1 X84.555 Y96.991 F9000
G1 Z.2 F720
G1 E3.2 F2400
M204 P800
;TYPE:Solid infill
;WIDTH:0.490768
G1 F1200
G1 X83.179 Y95.615 E.07246
G1 X83.179 Y96.248 E.02359
G1 X83.922 Y96.991 E.03911
M204 P1000
G1 X85.037 Y96.758 F9000
M204 P800
;TYPE:Gap fill
;WIDTH:0.328579
G1 F1200
G1 X85.241 Y96.784 E.00488
M204 P1000
M204 P800
;WIDTH:0.31293
G1 X85.262 Y96.785 E.00047
M204 P1000
M204 P800
;WIDTH:0.309279
G1 X85.703 Y96.806 E.00978
M204 P1000
M204 P800
;WIDTH:0.26769
G1 X85.724 Y96.806 E.0004
M204 P1000
M204 P800
;WIDTH:0.310436
G1 X86.177 Y96.785 E.01009
M204 P1000
M204 P800
;WIDTH:0.315248
G1 X86.203 Y96.782 E.00058
M204 P1000
M204 P800
;WIDTH:0.32686
G1 X86.384 Y96.757 E.00432
M204 P1000
G1 E-2.24 F4200
;WIPE_START
G1 F7200
G1 X86.203 Y96.782 E-.10151
;WIPE_END
G1 E-.85849 F4200
G1 Z.4 F720
G1 X83.243 Y94.957 F9000
G1 Z.2 F720
G1 E3.2 F2400
M204 P800
;WIDTH:0.326858
G1 F1200
G1 X83.218 Y94.776 E.00432
M204 P1000
M204 P800
;WIDTH:0.315252
G1 X83.215 Y94.75 E.00058
M204 P1000
M204 P800
;WIDTH:0.310438
G1 X83.194 Y94.297 E.01009
M204 P1000
M204 P800
;WIDTH:0.26769
G1 X83.194 Y94.276 E.0004
M204 P1000
M204 P800
;WIDTH:0.310442
G1 X83.215 Y93.823 E.01009
M204 P1000
M204 P800
;WIDTH:0.315255
G1 X83.218 Y93.797 E.00058
M204 P1000
M204 P800
;WIDTH:0.326858
G1 X83.243 Y93.616 E.00432
M204 P1000
G1 E-2.24 F4200
;WIPE_START
G1 F7200
G1 X83.218 Y93.797 E-.10149
;WIPE_END
G1 E-.85851 F4200
G1 Z.4 F720
G1 X83.243 Y86.384 F9000
G1 Z.2 F720
G1 E3.2 F2400
M204 P800
;WIDTH:0.326856
G1 F1200
G1 X83.218 Y86.203 E.00432
M204 P1000
M204 P800
;WIDTH:0.315252
G1 X83.215 Y86.177 E.00058
M204 P1000
M204 P800
;WIDTH:0.310438
G1 X83.194 Y85.724 E.01009
M204 P1000
M204 P800
;WIDTH:0.26769
G1 X83.194 Y85.703 E.0004
M204 P1000
M204 P800
;WIDTH:0.310442
G1 X83.215 Y85.25 E.01009
M204 P1000
M204 P800
;WIDTH:0.315254
G1 X83.218 Y85.224 E.00058
M204 P1000
M204 P800
;WIDTH:0.326859
G1 X83.243 Y85.043 E.00432
M204 P1000
G1 E-2.24 F4200
;WIPE_START
G1 F7200
G1 X83.218 Y85.224 E-.10149
;WIPE_END
G1 E-.85851 F4200
G1 Z.4 F720
G1 X84.724 Y83.602 F9000
G1 Z.2 F720
G1 E3.2 F2400
M204 P800
;TYPE:Solid infill
;WIDTH:0.434205
G1 F1200
G1 X84.301 Y83.179 E.01948
G1 X83.748 Y83.179 E.018
G1 X84.252 Y83.683 E.02322
G1 X83.957 Y83.941 E.01276
G1 X83.179 Y83.179 E.03543
